luts/bw.cube
TITLE "Black & White"
LUT_3D_SIZE 33
0.000000 0.000000 0.000000
0.006644 0.006644 0.006644
0.013288 0.013288 0.013288
0.019931 0.019931 0.019931
0.026575 0.026575 0.026575
0.033219 0.033219 0.033219
0.039863 0.039863 0.039863
0.046506 0.046506 0.046506
0.053150 0.053150 0.053150
0.059794 0.059794 0.059794
0.066438 0.066438 0.066438
0.073081 0.073081 0.073081
0.079725 0.079725 0.079725
0.086369 0.086369 0.086369
0.093012 0.093012 0.093012
0.099656 0.099656 0.099656
0.106300 0.106300 0.106300
0.112944 0.112944 0.112944
0.119588 0.119588 0.119588
0.126231 0.126231 0.126231
0.132875 0.132875 0.132875
0.139519 0.139519 0.139519
0.146163 0.146163 0.146163
0.152806 0.152806 0.152806
0.159450 0.159450 0.159450
0.166094 0.166094 0.166094
0.172738 0.172738 0.172738
0.179381 0.179381 0.179381
0.186025 0.186025 0.186025
0.192669 0.192669 0.192669
0.199313 0.199313 0.199313
0.205956 0.205956 0.205956
0.212600 0.212600 0.212600
0.022350 0.022350 0.022350
0.028994 0.028994 0.028994
0.035638 0.035638 0.035638
0.042281 0.042281 0.042281
0.048925 0.048925 0.048925
0.055569 0.055569 0.055569
0.062213 0.062213 0.062213
0.068856 0.068856 0.068856
0.075500 0.075500 0.075500
0.082144 0.082144 0.082144
0.088788 0.088788 0.088788
0.095431 0.095431 0.095431
0.102075 0.102075 0.102075
0.108719 0.108719 0.108719
0.115362 0.115362 0.115362
0.122006 0.122006 0.122006
0.128650 0.128650 0.128650
0.135294 0.135294 0.135294
0.141938 0.141938 0.141938
0.148581 0.148581 0.148581
0.155225 0.155225 0.155225
0.161869 0.161869 0.161869
0.168513 0.168513 0.168513
0.175156 0.175156 0.175156
0.181800 0.181800 0.181800
0.188444 0.188444 0.188444
0.195088 0.195088 0.195088
0.201731 0.201731 0.201731
0.208375 0.208375 0.208375
0.215019 0.215019 0.215019
0.221663 0.221663 0.221663
0.228306 0.228306 0.228306
0.234950 0.234950 0.234950
0.044700 0.044700 0.044700
0.051344 0.051344 0.051344
0.057987 0.057987 0.057987
0.064631 0.064631 0.064631
0.071275 0.071275 0.071275
0.077919 0.077919 0.077919
0.084562 0.084562 0.084562
0.091206 0.091206 0.091206
0.097850 0.097850 0.097850
0.104494 0.104494 0.104494
0.111138 0.111138 0.111138
0.117781 0.117781 0.117781
0.124425 0.124425 0.124425
0.131069 0.131069 0.131069
0.137712 0.137712 0.137712
0.144356 0.144356 0.144356
0.151000 0.151000 0.151000
0.157644 0.157644 0.157644
0.164288 0.164288 0.164288
0.170931 0.170931 0.170931
0.177575 0.177575 0.177575
0.184219 0.184219 0.184219
0.190862 0.190862 0.190862
0.197506 0.197506 0.197506
0.204150 0.204150 0.204150
0.210794 0.210794 0.210794
0.217438 0.217438 0.217438
0.224081 0.224081 0.224081
0.230725 0.230725 0.230725
0.237369 0.237369 0.237369
0.244012 0.244012 0.244012
0.250656 0.250656 0.250656
0.257300 0.257300 0.257300
0.067050 0.067050 0.067050
0.073694 0.073694 0.073694
0.080338 0.080338 0.080338
0.086981 0.086981 0.086981
0.093625 0.093625 0.093625
0.100269 0.100269 0.100269
0.106912 0.106912 0.106912
0.113556 0.113556 0.113556
0.120200 0.120200 0.120200
0.126844 0.126844 0.126844
0.133488 0.133488 0.133488
0.140131 0.140131 0.140131
0.146775 0.146775 0.146775
0.153419 0.153419 0.153419
0.160062 0.160062 0.160062
0.166706 0.166706 0.166706
0.173350 0.173350 0.173350
0.179994 0.179994 0.179994
0.186638 0.186638 0.186638
0.193281 0.193281 0.193281
0.199925 0.199925 0.199925
0.206569 0.206569 0.206569
0.213212 0.213212 0.213212
0.219856 0.219856 0.219856
0.226500 0.226500 0.226500
0.233144 0.233144 0.233144
0.239788 0.239788 0.239788
0.246431 0.246431 0.246431
0.253075 0.253075 0.253075
0.259719 0.259719 0.259719
0.266363 0.266363 0.266363
0.273006 0.273006 0.273006
0.279650 0.279650 0.279650
0.089400 0.089400 0.089400
0.096044 0.096044 0.096044
0.102687 0.102687 0.102687
0.109331 0.109331 0.109331
0.115975 0.115975 0.115975
0.122619 0.122619 0.122619
0.129263 0.129263 0.129263
0.135906 0.135906 0.135906
0.142550 0.142550 0.142550
0.149194 0.149194 0.149194
0.155838 0.155838 0.155838
0.162481 0.162481 0.162481
0.169125 0.169125 0.169125
0.175769 0.175769 0.175769
0.182412 0.182412 0.182412
0.189056 0.189056 0.189056
0.195700 0.195700 0.195700
0.202344 0.202344 0.202344
0.208987 0.208987 0.208987
0.215631 0.215631 0.215631
0.222275 0.222275 0.222275
0.228919 0.228919 0.228919
0.235563 0.235563 0.235563
0.242206 0.242206 0.242206
0.248850 0.248850 0.248850
0.255494 0.255494 0.255494
0.262138 0.262138 0.262138
0.268781 0.268781 0.268781
0.275425 0.275425 0.275425
0.282069 0.282069 0.282069
0.288712 0.288712 0.288712
0.295356 0.295356 0.295356
0.302000 0.302000 0.302000
0.111750 0.111750 0.111750
0.118394 0.118394 0.118394
0.125037 0.125037 0.125037
0.131681 0.131681 0.131681
0.138325 0.138325 0.138325
0.144969 0.144969 0.144969
0.151612 0.151612 0.151612
0.158256 0.158256 0.158256
0.164900 0.164900 0.164900
0.171544 0.171544 0.171544
0.178187 0.178187 0.178187
0.184831 0.184831 0.184831
0.191475 0.191475 0.191475
0.198119 0.198119 0.198119
0.204762 0.204762 0.204762
0.211406 0.211406 0.211406
0.218050 0.218050 0.218050
0.224694 0.224694 0.224694
0.231338 0.231338 0.231338
0.237981 0.237981 0.237981
0.244625 0.244625 0.244625
0.251269 0.251269 0.251269
0.257912 0.257912 0.257912
0.264556 0.264556 0.264556
0.271200 0.271200 0.271200
0.277844 0.277844 0.277844
0.284488 0.284488 0.284488
0.291131 0.291131 0.291131
0.297775 0.297775 0.297775
0.304419 0.304419 0.304419
0.311063 0.311063 0.311063
0.317706 0.317706 0.317706
0.324350 0.324350 0.324350
0.134100 0.134100 0.134100
0.140744 0.140744 0.140744
0.147388 0.147388 0.147388
0.154031 0.154031 0.154031
0.160675 0.160675 0.160675
0.167319 0.167319 0.167319
0.173962 0.173962 0.173962
0.180606 0.180606 0.180606
0.187250 0.187250 0.187250
0.193894 0.193894 0.193894
0.200538 0.200538 0.200538
0.207181 0.207181 0.207181
0.213825 0.213825 0.213825
0.220469 0.220469 0.220469
0.227112 0.227112 0.227112
0.233756 0.233756 0.233756
0.240400 0.240400 0.240400
0.247044 0.247044 0.247044
0.253688 0.253688 0.253688
0.260331 0.260331 0.260331
0.266975 0.266975 0.266975
0.273619 0.273619 0.273619
0.280262 0.280262 0.280262
0.286906 0.286906 0.286906
0.293550 0.293550 0.293550
0.300194 0.300194 0.300194
0.306837 0.306837 0.306837
0.313481 0.313481 0.313481
0.320125 0.320125 0.320125
0.326769 0.326769 0.326769
0.333413 0.333413 0.333413
0.340056 0.340056 0.340056
0.346700 0.346700 0.346700
0.156450 0.156450 0.156450
0.163094 0.163094 0.163094
0.169737 0.169737 0.169737
0.176381 0.176381 0.176381
0.183025 0.183025 0.183025
0.189669 0.189669 0.189669
0.196312 0.196312 0.196312
0.202956 0.202956 0.202956
0.209600 0.209600 0.209600
0.216244 0.216244 0.216244
0.222887 0.222887 0.222887
0.229531 0.229531 0.229531
0.236175 0.236175 0.236175
0.242819 0.242819 0.242819
0.249462 0.249462 0.249462
0.256106 0.256106 0.256106
0.262750 0.262750 0.262750
0.269394 0.269394 0.269394
0.276037 0.276037 0.276037
0.282681 0.282681 0.282681
0.289325 0.289325 0.289325
0.295969 0.295969 0.295969
0.302612 0.302612 0.302612
0.309256 0.309256 0.309256
0.315900 0.315900 0.315900
0.322544 0.322544 0.322544
0.329187 0.329187 0.329187
0.335831 0.335831 0.335831
0.342475 0.342475 0.342475
0.349119 0.349119 0.349119
0.355762 0.355762 0.355762
0.362406 0.362406 0.362406
0.369050 0.369050 0.369050
0.178800 0.178800 0.178800
0.185444 0.185444 0.185444
0.192087 0.192087 0.192087
0.198731 0.198731 0.198731
0.205375 0.205375 0.205375
0.212019 0.212019 0.212019
0.218662 0.218662 0.218662
0.225306 0.225306 0.225306
0.231950 0.231950 0.231950
0.238594 0.238594 0.238594
0.245237 0.245237 0.245237
0.251881 0.251881 0.251881
0.258525 0.258525 0.258525
0.265169 0.265169 0.265169
0.271813 0.271813 0.271813
0.278456 0.278456 0.278456
0.285100 0.285100 0.285100
0.291744 0.291744 0.291744
0.298388 0.298388 0.298388
0.305031 0.305031 0.305031
0.311675 0.311675 0.311675
0.318319 0.318319 0.318319
0.324962 0.324962 0.324962
0.331606 0.331606 0.331606
0.338250 0.338250 0.338250
0.344894 0.344894 0.344894
0.351538 0.351538 0.351538
0.358181 0.358181 0.358181
0.364825 0.364825 0.364825
0.371469 0.371469 0.371469
0.378112 0.378112 0.378112
0.384756 0.384756 0.384756
0.391400 0.391400 0.391400
0.201150 0.201150 0.201150
0.207794 0.207794 0.207794
0.214438 0.214438 0.214438
0.221081 0.221081 0.221081
0.227725 0.227725 0.227725
0.234369 0.234369 0.234369
0.241012 0.241012 0.241012
0.247656 0.247656 0.247656
0.254300 0.254300 0.254300
0.260944 0.260944 0.260944
0.267587 0.267587 0.267587
0.274231 0.274231 0.274231
0.280875 0.280875 0.280875
0.287519 0.287519 0.287519
0.294162 0.294162 0.294162
0.300806 0.300806 0.300806
0.307450 0.307450 0.307450
0.314094 0.314094 0.314094
0.320738 0.320738 0.320738
0.327381 0.327381 0.327381
0.334025 0.334025 0.334025
0.340669 0.340669 0.340669
0.347313 0.347313 0.347313
0.353956 0.353956 0.353956
0.360600 0.360600 0.360600
0.367244 0.367244 0.367244
0.373888 0.373888 0.373888
0.380531 0.380531 0.380531
0.387175 0.387175 0.387175
0.393819 0.393819 0.393819
0.400462 0.400462 0.400462
0.407106 0.407106 0.407106
0.413750 0.413750 0.413750
0.223500 0.223500 0.223500
0.230144 0.230144 0.230144
0.236787 0.236787 0.236787
0.243431 0.243431 0.243431
0.250075 0.250075 0.250075
0.256719 0.256719 0.256719
0.263362 0.263362 0.263362
0.270006 0.270006 0.270006
0.276650 0.276650 0.276650
0.283294 0.283294 0.283294
0.289937 0.289937 0.289937
0.296581 0.296581 0.296581
0.303225 0.303225 0.303225
0.309869 0.309869 0.309869
0.316512 0.316512 0.316512
0.323156 0.323156 0.323156
0.329800 0.329800 0.329800
0.336444 0.336444 0.336444
0.343087 0.343087 0.343087
0.349731 0.349731 0.349731
0.356375 0.356375 0.356375
0.363019 0.363019 0.363019
0.369663 0.369663 0.369663
0.376306 0.376306 0.376306
0.382950 0.382950 0.382950
0.389594 0.389594 0.389594
0.396238 0.396238 0.396238
0.402881 0.402881 0.402881
0.409525 0.409525 0.409525
0.416169 0.416169 0.416169
0.422812 0.422812 0.422812
0.429456 0.429456 0.429456
0.436100 0.436100 0.436100
0.245850 0.245850 0.245850
0.252494 0.252494 0.252494
0.259137 0.259137 0.259137
0.265781 0.265781 0.265781
0.272425 0.272425 0.272425
0.279069 0.279069 0.279069
0.285712 0.285712 0.285712
0.292356 0.292356 0.292356
0.299000 0.299000 0.299000
0.305644 0.305644 0.305644
0.312287 0.312287 0.312287
0.318931 0.318931 0.318931
0.325575 0.325575 0.325575
0.332219 0.332219 0.332219
0.338862 0.338862 0.338862
0.345506 0.345506 0.345506
0.352150 0.352150 0.352150
0.358794 0.358794 0.358794
0.365437 0.365437 0.365437
0.372081 0.372081 0.372081
0.378725 0.378725 0.378725
0.385369 0.385369 0.385369
0.392012 0.392012 0.392012
0.398656 0.398656 0.398656
0.405300 0.405300 0.405300
0.411944 0.411944 0.411944
0.418588 0.418588 0.418588
0.425231 0.425231 0.425231
0.431875 0.431875 0.431875
0.438519 0.438519 0.438519
0.445163 0.445163 0.445163
0.451806 0.451806 0.451806
0.458450 0.458450 0.458450
0.268200 0.268200 0.268200
0.274844 0.274844 0.274844
0.281488 0.281488 0.281488
0.288131 0.288131 0.288131
0.294775 0.294775 0.294775
0.301419 0.301419 0.301419
0.308063 0.308063 0.308063
0.314706 0.314706 0.314706
0.321350 0.321350 0.321350
0.327994 0.327994 0.327994
0.334638 0.334638 0.334638
0.341281 0.341281 0.341281
0.347925 0.347925 0.347925
0.354569 0.354569 0.354569
0.361212 0.361212 0.361212
0.367856 0.367856 0.367856
0.374500 0.374500 0.374500
0.381144 0.381144 0.381144
0.387788 0.387788 0.387788
0.394431 0.394431 0.394431
0.401075 0.401075 0.401075
0.407719 0.407719 0.407719
0.414362 0.414362 0.414362
0.421006 0.421006 0.421006
0.427650 0.427650 0.427650
0.434294 0.434294 0.434294
0.440937 0.440937 0.440937
0.447581 0.447581 0.447581
0.454225 0.454225 0.454225
0.460869 0.460869 0.460869
0.467512 0.467512 0.467512
0.474156 0.474156 0.474156
0.480800 0.480800 0.480800
0.290550 0.290550 0.290550
0.297194 0.297194 0.297194
0.303837 0.303837 0.303837
0.310481 0.310481 0.310481
0.317125 0.317125 0.317125
0.323769 0.323769 0.323769
0.330412 0.330412 0.330412
0.337056 0.337056 0.337056
0.343700 0.343700 0.343700
0.350344 0.350344 0.350344
0.356988 0.356988 0.356988
0.363631 0.363631 0.363631
0.370275 0.370275 0.370275
0.376919 0.376919 0.376919
0.383562 0.383562 0.383562
0.390206 0.390206 0.390206
0.396850 0.396850 0.396850
0.403494 0.403494 0.403494
0.410137 0.410137 0.410137
0.416781 0.416781 0.416781
0.423425 0.423425 0.423425
0.430069 0.430069 0.430069
0.436712 0.436712 0.436712
0.443356 0.443356 0.443356
0.450000 0.450000 0.450000
0.456644 0.456644 0.456644
0.463287 0.463287 0.463287
0.469931 0.469931 0.469931
0.476575 0.476575 0.476575
0.483219 0.483219 0.483219
0.489862 0.489862 0.489862
0.496506 0.496506 0.496506
0.503150 0.503150 0.503150
0.312900 0.312900 0.312900
0.319544 0.319544 0.319544
0.326187 0.326187 0.326187
0.332831 0.332831 0.332831
0.339475 0.339475 0.339475
0.346119 0.346119 0.346119
0.352762 0.352762 0.352762
0.359406 0.359406 0.359406
0.366050 0.366050 0.366050
0.372694 0.372694 0.372694
0.379337 0.379337 0.379337
0.385981 0.385981 0.385981
0.392625 0.392625 0.392625
0.399269 0.399269 0.399269
0.405912 0.405912 0.405912
0.412556 0.412556 0.412556
0.419200 0.419200 0.419200
0.425844 0.425844 0.425844
0.432487 0.432487 0.432487
0.439131 0.439131 0.439131
0.445775 0.445775 0.445775
0.452419 0.452419 0.452419
0.459062 0.459062 0.459062
0.465706 0.465706 0.465706
0.472350 0.472350 0.472350
0.478994 0.478994 0.478994
0.485637 0.485637 0.485637
0.492281 0.492281 0.492281
0.498925 0.498925 0.498925
0.505569 0.505569 0.505569
0.512212 0.512212 0.512212
0.518856 0.518856 0.518856
0.525500 0.525500 0.525500
0.335250 0.335250 0.335250
0.341894 0.341894 0.341894
0.348538 0.348538 0.348538
0.355181 0.355181 0.355181
0.361825 0.361825 0.361825
0.368469 0.368469 0.368469
0.375113 0.375113 0.375113
0.381756 0.381756 0.381756
0.388400 0.388400 0.388400
0.395044 0.395044 0.395044
0.401687 0.401687 0.401687
0.408331 0.408331 0.408331
0.414975 0.414975 0.414975
0.421619 0.421619 0.421619
0.428262 0.428262 0.428262
0.434906 0.434906 0.434906
0.441550 0.441550 0.441550
0.448194 0.448194 0.448194
0.454838 0.454838 0.454838
0.461481 0.461481 0.461481
0.468125 0.468125 0.468125
0.474769 0.474769 0.474769
0.481413 0.481413 0.481413
0.488056 0.488056 0.488056
0.494700 0.494700 0.494700
0.501344 0.501344 0.501344
0.507988 0.507988 0.507988
0.514631 0.514631 0.514631
0.521275 0.521275 0.521275
0.527919 0.527919 0.527919
0.534563 0.534563 0.534563
0.541206 0.541206 0.541206
0.547850 0.547850 0.547850
0.357600 0.357600 0.357600
0.364244 0.364244 0.364244
0.370887 0.370887 0.370887
0.377531 0.377531 0.377531
0.384175 0.384175 0.384175
0.390819 0.390819 0.390819
0.397462 0.397462 0.397462
0.404106 0.404106 0.404106
0.410750 0.410750 0.410750
0.417394 0.417394 0.417394
0.424037 0.424037 0.424037
0.430681 0.430681 0.430681
0.437325 0.437325 0.437325
0.443969 0.443969 0.443969
0.450612 0.450612 0.450612
0.457256 0.457256 0.457256
0.463900 0.463900 0.463900
0.470544 0.470544 0.470544
0.477187 0.477187 0.477187
0.483831 0.483831 0.483831
0.490475 0.490475 0.490475
0.497119 0.497119 0.497119
0.503763 0.503763 0.503763
0.510406 0.510406 0.510406
0.517050 0.517050 0.517050
0.523694 0.523694 0.523694
0.530338 0.530338 0.530338
0.536981 0.536981 0.536981
0.543625 0.543625 0.543625
0.550269 0.550269 0.550269
0.556912 0.556912 0.556912
0.563556 0.563556 0.563556
0.570200 0.570200 0.570200
0.379950 0.379950 0.379950
0.386594 0.386594 0.386594
0.393237 0.393237 0.393237
0.399881 0.399881 0.399881
0.406525 0.406525 0.406525
0.413169 0.413169 0.413169
0.419812 0.419812 0.419812
0.426456 0.426456 0.426456
0.433100 0.433100 0.433100
0.439744 0.439744 0.439744
0.446387 0.446387 0.446387
0.453031 0.453031 0.453031
0.459675 0.459675 0.459675
0.466319 0.466319 0.466319
0.472962 0.472962 0.472962
0.479606 0.479606 0.479606
0.486250 0.486250 0.486250
0.492894 0.492894 0.492894
0.499537 0.499537 0.499537
0.506181 0.506181 0.506181
0.512825 0.512825 0.512825
0.519469 0.519469 0.519469
0.526112 0.526112 0.526112
0.532756 0.532756 0.532756
0.539400 0.539400 0.539400
0.546044 0.546044 0.546044
0.552687 0.552687 0.552687
0.559331 0.559331 0.559331
0.565975 0.565975 0.565975
0.572619 0.572619 0.572619
0.579263 0.579263 0.579263
0.585906 0.585906 0.585906
0.592550 0.592550 0.592550
0.402300 0.402300 0.402300
0.408944 0.408944 0.408944
0.415587 0.415587 0.415587
0.422231 0.422231 0.422231
0.428875 0.428875 0.428875
0.435519 0.435519 0.435519
0.442163 0.442163 0.442163
0.448806 0.448806 0.448806
0.455450 0.455450 0.455450
0.462094 0.462094 0.462094
0.468738 0.468738 0.468738
0.475381 0.475381 0.475381
0.482025 0.482025 0.482025
0.488669 0.488669 0.488669
0.495312 0.495312 0.495312
0.501956 0.501956 0.501956
0.508600 0.508600 0.508600
0.515244 0.515244 0.515244
0.521888 0.521888 0.521888
0.528531 0.528531 0.528531
0.535175 0.535175 0.535175
0.541819 0.541819 0.541819
0.548462 0.548462 0.548462
0.555106 0.555106 0.555106
0.561750 0.561750 0.561750
0.568394 0.568394 0.568394
0.575037 0.575037 0.575037
0.581681 0.581681 0.581681
0.588325 0.588325 0.588325
0.594969 0.594969 0.594969
0.601612 0.601612 0.601612
0.608256 0.608256 0.608256
0.614900 0.614900 0.614900
0.424650 0.424650 0.424650
0.431294 0.431294 0.431294
0.437937 0.437937 0.437937
0.444581 0.444581 0.444581
0.451225 0.451225 0.451225
0.457869 0.457869 0.457869
0.464512 0.464512 0.464512
0.471156 0.471156 0.471156
0.477800 0.477800 0.477800
0.484444 0.484444 0.484444
0.491088 0.491088 0.491088
0.497731 0.497731 0.497731
0.504375 0.504375 0.504375
0.511019 0.511019 0.511019
0.517662 0.517662 0.517662
0.524306 0.524306 0.524306
0.530950 0.530950 0.530950
0.537594 0.537594 0.537594
0.544237 0.544237 0.544237
0.550881 0.550881 0.550881
0.557525 0.557525 0.557525
0.564169 0.564169 0.564169
0.570812 0.570812 0.570812
0.577456 0.577456 0.577456
0.584100 0.584100 0.584100
0.590744 0.590744 0.590744
0.597387 0.597387 0.597387
0.604031 0.604031 0.604031
0.610675 0.610675 0.610675
0.617319 0.617319 0.617319
0.623962 0.623962 0.623962
0.630606 0.630606 0.630606
0.637250 0.637250 0.637250
0.447000 0.447000 0.447000
0.453644 0.453644 0.453644
0.460287 0.460287 0.460287
0.466931 0.466931 0.466931
0.473575 0.473575 0.473575
0.480219 0.480219 0.480219
0.486862 0.486862 0.486862
0.493506 0.493506 0.493506
0.500150 0.500150 0.500150
0.506794 0.506794 0.506794
0.513437 0.513437 0.513437
0.520081 0.520081 0.520081
0.526725 0.526725 0.526725
0.533369 0.533369 0.533369
0.540013 0.540013 0.540013
0.546656 0.546656 0.546656
0.553300 0.553300 0.553300
0.559944 0.559944 0.559944
0.566588 0.566588 0.566588
0.573231 0.573231 0.573231
0.579875 0.579875 0.579875
0.586519 0.586519 0.586519
0.593162 0.593162 0.593162
0.599806 0.599806 0.599806
0.606450 0.606450 0.606450
0.613094 0.613094 0.613094
0.619737 0.619737 0.619737
0.626381 0.626381 0.626381
0.633025 0.633025 0.633025
0.639669 0.639669 0.639669
0.646312 0.646312 0.646312
0.652956 0.652956 0.652956
0.659600 0.659600 0.659600
0.469350 0.469350 0.469350
0.475994 0.475994 0.475994
0.482637 0.482637 0.482637
0.489281 0.489281 0.489281
0.495925 0.495925 0.495925
0.502569 0.502569 0.502569
0.509212 0.509212 0.509212
0.515856 0.515856 0.515856
0.522500 0.522500 0.522500
0.529144 0.529144 0.529144
0.535787 0.535787 0.535787
0.542431 0.542431 0.542431
0.549075 0.549075 0.549075
0.555719 0.555719 0.555719
0.562362 0.562362 0.562362
0.569006 0.569006 0.569006
0.575650 0.575650 0.575650
0.582294 0.582294 0.582294
0.588938 0.588938 0.588938
0.595581 0.595581 0.595581
0.602225 0.602225 0.602225
0.608869 0.608869 0.608869
0.615513 0.615513 0.615513
0.622156 0.622156 0.622156
0.628800 0.628800 0.628800
0.635444 0.635444 0.635444
0.642088 0.642088 0.642088
0.648731 0.648731 0.648731
0.655375 0.655375 0.655375
0.662019 0.662019 0.662019
0.668662 0.668662 0.668662
0.675306 0.675306 0.675306
0.681950 0.681950 0.681950
0.491700 0.491700 0.491700
0.498344 0.498344 0.498344
0.504987 0.504987 0.504987
0.511631 0.511631 0.511631
0.518275 0.518275 0.518275
0.524919 0.524919 0.524919
0.531562 0.531562 0.531562
0.538206 0.538206 0.538206
0.544850 0.544850 0.544850
0.551494 0.551494 0.551494
0.558137 0.558137 0.558137
0.564781 0.564781 0.564781
0.571425 0.571425 0.571425
0.578069 0.578069 0.578069
0.584712 0.584712 0.584712
0.591356 0.591356 0.591356
0.598000 0.598000 0.598000
0.604644 0.604644 0.604644
0.611287 0.611287 0.611287
0.617931 0.617931 0.617931
0.624575 0.624575 0.624575
0.631219 0.631219 0.631219
0.637862 0.637862 0.637862
0.644506 0.644506 0.644506
0.651150 0.651150 0.651150
0.657794 0.657794 0.657794
0.664438 0.664438 0.664438
0.671081 0.671081 0.671081
0.677725 0.677725 0.677725
0.684369 0.684369 0.684369
0.691013 0.691013 0.691013
0.697656 0.697656 0.697656
0.704300 0.704300 0.704300
0.514050 0.514050 0.514050
0.520694 0.520694 0.520694
0.527338 0.527338 0.527338
0.533981 0.533981 0.533981
0.540625 0.540625 0.540625
0.547269 0.547269 0.547269
0.553913 0.553913 0.553913
0.560556 0.560556 0.560556
0.567200 0.567200 0.567200
0.573844 0.573844 0.573844
0.580488 0.580488 0.580488
0.587131 0.587131 0.587131
0.593775 0.593775 0.593775
0.600419 0.600419 0.600419
0.607063 0.607063 0.607063
0.613706 0.613706 0.613706
0.620350 0.620350 0.620350
0.626994 0.626994 0.626994
0.633638 0.633638 0.633638
0.640281 0.640281 0.640281
0.646925 0.646925 0.646925
0.653569 0.653569 0.653569
0.660212 0.660212 0.660212
0.666856 0.666856 0.666856
0.673500 0.673500 0.673500
0.680144 0.680144 0.680144
0.686787 0.686787 0.686787
0.693431 0.693431 0.693431
0.700075 0.700075 0.700075
0.706719 0.706719 0.706719
0.713363 0.713363 0.713363
0.720006 0.720006 0.720006
0.726650 0.726650 0.726650
0.536400 0.536400 0.536400
0.543044 0.543044 0.543044
0.549687 0.549687 0.549687
0.556331 0.556331 0.556331
0.562975 0.562975 0.562975
0.569619 0.569619 0.569619
0.576263 0.576263 0.576263
0.582906 0.582906 0.582906
0.589550 0.589550 0.589550
0.596194 0.596194 0.596194
0.602838 0.602838 0.602838
0.609481 0.609481 0.609481
0.616125 0.616125 0.616125
0.622769 0.622769 0.622769
0.629412 0.629412 0.629412
0.636056 0.636056 0.636056
0.642700 0.642700 0.642700
0.649344 0.649344 0.649344
0.655987 0.655987 0.655987
0.662631 0.662631 0.662631
0.669275 0.669275 0.669275
0.675919 0.675919 0.675919
0.682562 0.682562 0.682562
0.689206 0.689206 0.689206
0.695850 0.695850 0.695850
0.702494 0.702494 0.702494
0.709137 0.709137 0.709137
0.715781 0.715781 0.715781
0.722425 0.722425 0.722425
0.729069 0.729069 0.729069
0.735712 0.735712 0.735712
0.742356 0.742356 0.742356
0.749000 0.749000 0.749000
0.558750 0.558750 0.558750
0.565394 0.565394 0.565394
0.572037 0.572037 0.572037
0.578681 0.578681 0.578681
0.585325 0.585325 0.585325
0.591969 0.591969 0.591969
0.598612 0.598612 0.598612
0.605256 0.605256 0.605256
0.611900 0.611900 0.611900
0.618544 0.618544 0.618544
0.625188 0.625188 0.625188
0.631831 0.631831 0.631831
0.638475 0.638475 0.638475
0.645119 0.645119 0.645119
0.651763 0.651763 0.651763
0.658406 0.658406 0.658406
0.665050 0.665050 0.665050
0.671694 0.671694 0.671694
0.678338 0.678338 0.678338
0.684981 0.684981 0.684981
0.691625 0.691625 0.691625
0.698269 0.698269 0.698269
0.704912 0.704912 0.704912
0.711556 0.711556 0.711556
0.718200 0.718200 0.718200
0.724844 0.724844 0.724844
0.731487 0.731487 0.731487
0.738131 0.738131 0.738131
0.744775 0.744775 0.744775
0.751419 0.751419 0.751419
0.758062 0.758062 0.758062
0.764706 0.764706 0.764706
0.771350 0.771350 0.771350
0.581100 0.581100 0.581100
0.587744 0.587744 0.587744
0.594387 0.594387 0.594387
0.601031 0.601031 0.601031
0.607675 0.607675 0.607675
0.614319 0.614319 0.614319
0.620962 0.620962 0.620962
0.627606 0.627606 0.627606
0.634250 0.634250 0.634250
0.640894 0.640894 0.640894
0.647537 0.647537 0.647537
0.654181 0.654181 0.654181
0.660825 0.660825 0.660825
0.667469 0.667469 0.667469
0.674112 0.674112 0.674112
0.680756 0.680756 0.680756
0.687400 0.687400 0.687400
0.694044 0.694044 0.694044
0.700687 0.700687 0.700687
0.707331 0.707331 0.707331
0.713975 0.713975 0.713975
0.720619 0.720619 0.720619
0.727262 0.727262 0.727262
0.733906 0.733906 0.733906
0.740550 0.740550 0.740550
0.747194 0.747194 0.747194
0.753837 0.753837 0.753837
0.760481 0.760481 0.760481
0.767125 0.767125 0.767125
