luts/cinematic.cube
TITLE "Cinematic"
LUT_3D_SIZE 33
0.000000 0.000000 0.024800
0.000000 0.000000 0.024082
0.000000 0.000000 0.023365
0.019987 0.000000 0.022647
0.054383 0.000000 0.021930
0.088779 0.000000 0.021212
0.123175 0.000000 0.020495
0.157570 0.000000 0.019777
0.191966 0.000000 0.019060
0.226362 0.000000 0.018342
0.260758 0.000000 0.017625
0.295153 0.000000 0.016907
0.329549 0.000000 0.016190
0.363945 0.000000 0.015472
0.398341 0.000000 0.014755
0.432737 0.000000 0.014037
0.467132 0.000000 0.013320
0.501528 0.000000 0.012602
0.535924 0.000000 0.011885
0.570320 0.000000 0.011167
0.604715 0.000000 0.010449
0.639111 0.000000 0.009732
0.673507 0.000000 0.009014
0.707903 0.000000 0.008297
0.742299 0.000000 0.007579
0.776694 0.000000 0.006862
0.811090 0.000000 0.006144
0.845486 0.000000 0.005427
0.879882 0.000000 0.004709
0.914277 0.000000 0.003992
0.948673 0.000000 0.003274
0.983069 0.000000 0.002557
1.000000 0.000000 0.001839
0.000000 0.004550 0.022386
0.000000 0.004550 0.021669
0.000000 0.004550 0.020951
0.022160 0.004550 0.020234
0.056556 0.004550 0.019516
0.090951 0.004550 0.018799
0.125347 0.004550 0.018081
0.159743 0.004550 0.017364
0.194139 0.004550 0.016646
0.228534 0.004550 0.015928
0.262930 0.004550 0.015211
0.297326 0.004550 0.014493
0.331722 0.004550 0.013776
0.366117 0.004550 0.013058
0.400513 0.004550 0.012341
0.434909 0.004550 0.011623
0.469305 0.004550 0.010906
0.503701 0.004550 0.010188
0.538096 0.004550 0.009471
0.572492 0.004550 0.008753
0.606888 0.004550 0.008036
0.641284 0.004550 0.007318
0.675679 0.004550 0.006601
0.710075 0.004550 0.005883
0.744471 0.004550 0.005166
0.778867 0.004550 0.004448
0.813263 0.004550 0.003731
0.847658 0.004550 0.003013
0.882054 0.004550 0.002295
0.916450 0.004550 0.001578
0.950846 0.004550 0.000860
0.985241 0.004550 0.000143
1.000000 0.004550 0.000000
0.000000 0.038300 0.019972
0.000000 0.038300 0.019255
0.000000 0.038300 0.018537
0.024332 0.038300 0.017820
0.058728 0.038300 0.017102
0.093124 0.038300 0.016385
0.127519 0.038300 0.015667
0.161915 0.038300 0.014950
0.196311 0.038300 0.014232
0.230707 0.038300 0.013515
0.265103 0.038300 0.012797
0.299498 0.038300 0.012080
0.333894 0.038300 0.011362
0.368290 0.038300 0.010645
0.402686 0.038300 0.009927
0.437081 0.038300 0.009210
0.471477 0.038300 0.008492
0.505873 0.038300 0.007774
0.540269 0.038300 0.007057
0.574665 0.038300 0.006339
0.609060 0.038300 0.005622
0.643456 0.038300 0.004904
0.677852 0.038300 0.004187
0.712248 0.038300 0.003469
0.746643 0.038300 0.002752
0.781039 0.038300 0.002034
0.815435 0.038300 0.001317
0.849831 0.038300 0.000599
0.884226 0.038300 0.000000
0.918622 0.038300 0.000000
0.953018 0.038300 0.000000
0.987414 0.038300 0.000000
1.000000 0.038300 0.000000
0.000000 0.072050 0.017559
0.000000 0.072050 0.016841
0.000000 0.072050 0.016124
0.026505 0.072050 0.015406
0.060900 0.072050 0.014688
0.095296 0.072050 0.013971
0.129692 0.072050 0.013253
0.164088 0.072050 0.012536
0.198483 0.072050 0.011818
0.232879 0.072050 0.011101
0.267275 0.072050 0.010383
0.301671 0.072050 0.009666
0.336067 0.072050 0.008948
0.370462 0.072050 0.008231
0.404858 0.072050 0.007513
0.439254 0.072050 0.006796
0.473650 0.072050 0.006078
0.508045 0.072050 0.005361
0.542441 0.072050 0.004643
0.576837 0.072050 0.003926
0.611233 0.072050 0.003208
0.645628 0.072050 0.002491
0.680024 0.072050 0.001773
0.714420 0.072050 0.001056
0.748816 0.072050 0.000338
0.783212 0.072050 0.000000
0.817607 0.072050 0.000000
0.852003 0.072050 0.000000
0.886399 0.072050 0.000000
0.920795 0.072050 0.000000
0.955190 0.072050 0.000000
0.989586 0.072050 0.000000
1.000000 0.072050 0.000000
0.000000 0.105800 0.015145
0.000000 0.105800 0.014427
0.000000 0.105800 0.013710
0.028677 0.105800 0.012992
0.063073 0.105800 0.012275
0.097469 0.105800 0.011557
0.131864 0.105800 0.010840
0.166260 0.105800 0.010122
0.200656 0.105800 0.009405
0.235052 0.105800 0.008687
0.269447 0.105800 0.007970
0.303843 0.105800 0.007252
0.338239 0.105800 0.006534
0.372635 0.105800 0.005817
0.407030 0.105800 0.005099
0.441426 0.105800 0.004382
0.475822 0.105800 0.003664
0.510218 0.105800 0.002947
0.544614 0.105800 0.002229
0.579009 0.105800 0.001512
0.613405 0.105800 0.000794
0.647801 0.105800 0.000077
0.682197 0.105800 0.000000
0.716592 0.105800 0.000000
0.750988 0.105800 0.000000
0.785384 0.105800 0.000000
0.819780 0.105800 0.000000
0.854176 0.105800 0.000000
0.888571 0.105800 0.000000
0.922967 0.105800 0.000000
0.957363 0.105800 0.000000
0.991759 0.105800 0.000000
1.000000 0.105800 0.000000
0.000000 0.139550 0.012731
0.000000 0.139550 0.012013
0.000000 0.139550 0.011296
0.030849 0.139550 0.010578
0.065245 0.139550 0.009861
0.099641 0.139550 0.009143
0.134037 0.139550 0.008426
0.168433 0.139550 0.007708
0.202828 0.139550 0.006991
0.237224 0.139550 0.006273
0.271620 0.139550 0.005556
0.306016 0.139550 0.004838
0.340411 0.139550 0.004121
0.374807 0.139550 0.003403
0.409203 0.139550 0.002686
0.443599 0.139550 0.001968
0.477994 0.139550 0.001251
0.512390 0.139550 0.000533
0.546786 0.139550 0.000000
0.581182 0.139550 0.000000
0.615578 0.139550 0.000000
0.649973 0.139550 0.000000
0.684369 0.139550 0.000000
0.718765 0.139550 0.000000
0.753161 0.139550 0.000000
0.787556 0.139550 0.000000
0.821952 0.139550 0.000000
0.856348 0.139550 0.000000
0.890744 0.139550 0.000000
0.925140 0.139550 0.000000
0.959535 0.139550 0.000000
0.993931 0.139550 0.000000
1.000000 0.139550 0.000000
0.000000 0.173300 0.010317
0.000000 0.173300 0.009600
0.000000 0.173300 0.008882
0.033022 0.173300 0.008165
0.067418 0.173300 0.007447
0.101813 0.173300 0.006730
0.136209 0.173300 0.006012
0.170605 0.173300 0.005295
0.205001 0.173300 0.004577
0.239396 0.173300 0.003859
0.273792 0.173300 0.003142
0.308188 0.173300 0.002424
0.342584 0.173300 0.001707
0.376980 0.173300 0.000989
0.411375 0.173300 0.000272
0.445771 0.173300 0.000000
0.480167 0.173300 0.000000
0.514563 0.173300 0.000000
0.548958 0.173300 0.000000
0.583354 0.173300 0.000000
0.617750 0.173300 0.000000
0.652146 0.173300 0.000000
0.686542 0.173300 0.000000
0.720937 0.173300 0.000000
0.755333 0.173300 0.000000
0.789729 0.173300 0.000000
0.824125 0.173300 0.000000
0.858520 0.173300 0.000000
0.892916 0.173300 0.000000
0.927312 0.173300 0.000000
0.961708 0.173300 0.000000
0.996103 0.173300 0.000000
1.000000 0.173300 0.000000
0.000000 0.207050 0.007903
0.000000 0.207050 0.007186
0.000798 0.207050 0.006468
0.035194 0.207050 0.005751
0.069590 0.207050 0.005033
0.103986 0.207050 0.004316
0.138382 0.207050 0.003598
0.172777 0.207050 0.002881
0.207173 0.207050 0.002163
0.241569 0.207050 0.001446
0.275965 0.207050 0.000728
0.310360 0.207050 0.000011
0.344756 0.207050 0.000000
0.379152 0.207050 0.000000
0.413548 0.207050 0.000000
0.447944 0.207050 0.000000
0.482339 0.207050 0.000000
0.516735 0.207050 0.000000
0.551131 0.207050 0.000000
0.585527 0.207050 0.000000
0.619922 0.207050 0.000000
0.654318 0.207050 0.000000
0.688714 0.207050 0.000000
0.723110 0.207050 0.000000
0.757505 0.207050 0.000000
0.791901 0.207050 0.000000
0.826297 0.207050 0.000000
0.860693 0.207050 0.000000
0.895089 0.207050 0.000000
0.929484 0.207050 0.000000
0.963880 0.207050 0.000000
0.998276 0.207050 0.000000
1.000000 0.207050 0.000000
0.000000 0.240800 0.005490
0.000000 0.240800 0.004772
0.002971 0.240800 0.004055
0.037367 0.240800 0.003337
0.071762 0.240800 0.002619
0.106158 0.240800 0.001902
0.140554 0.240800 0.001184
0.174950 0.240800 0.000467
0.209346 0.240800 0.000000
0.243741 0.240800 0.000000
0.278137 0.240800 0.000000
0.312533 0.240800 0.000000
0.346929 0.240800 0.000000
0.381324 0.240800 0.000000
0.415720 0.240800 0.000000
0.450116 0.240800 0.000000
0.484512 0.240800 0.000000
0.518907 0.240800 0.000000
0.553303 0.240800 0.000000
0.587699 0.240800 0.000000
0.622095 0.240800 0.000000
0.656491 0.240800 0.000000
0.690886 0.240800 0.000000
0.725282 0.240800 0.000000
0.759678 0.240800 0.000000
0.794074 0.240800 0.000000
0.828469 0.240800 0.000000
0.862865 0.240800 0.000000
0.897261 0.240800 0.000000
0.931657 0.240800 0.000000
0.966053 0.240800 0.000000
1.000000 0.240800 0.000000
1.000000 0.240800 0.000000
0.000000 0.274550 0.003076
0.000000 0.274550 0.002358
0.005143 0.274550 0.001641
0.039539 0.274550 0.000923
0.073935 0.274550 0.000206
0.108331 0.274550 0.000000
0.142726 0.274550 0.000000
0.177122 0.274550 0.000000
0.211518 0.274550 0.000000
0.245914 0.274550 0.000000
0.280310 0.274550 0.000000
0.314705 0.274550 0.000000
0.349101 0.274550 0.000000
0.383497 0.274550 0.000000
0.417893 0.274550 0.000000
0.452288 0.274550 0.000000
0.486684 0.274550 0.000000
0.521080 0.274550 0.000000
0.555476 0.274550 0.000000
0.589871 0.274550 0.000000
0.624267 0.274550 0.000000
0.658663 0.274550 0.000000
0.693059 0.274550 0.000000
0.727455 0.274550 0.000000
0.761850 0.274550 0.000000
0.796246 0.274550 0.000000
0.830642 0.274550 0.000000
0.865038 0.274550 0.000000
0.899433 0.274550 0.000000
0.933829 0.274550 0.000000
0.968225 0.274550 0.000000
1.000000 0.274550 0.000000
1.000000 0.274550 0.000000
0.000000 0.308300 0.000662
0.000000 0.308300 0.000000
0.007316 0.308300 0.000000
0.041712 0.308300 0.000000
0.076107 0.308300 0.000000
0.110503 0.308300 0.000000
0.144899 0.308300 0.000000
0.179295 0.308300 0.000000
0.213690 0.308300 0.000000
0.248086 0.308300 0.000000
0.282482 0.308300 0.000000
0.316878 0.308300 0.000000
0.351273 0.308300 0.000000
0.385669 0.308300 0.000000
0.420065 0.308300 0.000000
0.454461 0.308300 0.000000
0.488857 0.308300 0.000000
0.523252 0.308300 0.000000
0.557648 0.308300 0.000000
0.592044 0.308300 0.000000
0.626440 0.308300 0.000000
0.660835 0.308300 0.000000
0.695231 0.308300 0.000000
0.729627 0.308300 0.000000
0.764023 0.308300 0.000000
0.798419 0.308300 0.000000
0.832814 0.308300 0.000000
0.867210 0.308300 0.000000
0.901606 0.308300 0.000000
0.936002 0.308300 0.000000
0.970397 0.308300 0.000000
1.000000 0.308300 0.000000
1.000000 0.308300 0.000000
0.000000 0.342050 0.000000
0.000000 0.342050 0.000000
0.009488 0.342050 0.000000
0.043884 0.342050 0.000000
0.078280 0.342050 0.000000
0.112675 0.342050 0.000000
0.147071 0.342050 0.000000
0.181467 0.342050 0.000000
0.215863 0.342050 0.000000
0.250259 0.342050 0.000000
0.284654 0.342050 0.000000
0.319050 0.342050 0.000000
0.353446 0.342050 0.000000
0.387842 0.342050 0.000000
0.422237 0.342050 0.000000
0.456633 0.342050 0.000000
0.491029 0.342050 0.000000
0.525425 0.342050 0.000000
0.559821 0.342050 0.000000
0.594216 0.342050 0.000000
0.628612 0.342050 0.000000
0.663008 0.342050 0.000000
0.697404 0.342050 0.000000
0.731799 0.342050 0.000000
0.766195 0.342050 0.000000
0.800591 0.342050 0.000000
0.834987 0.342050 0.000000
0.869382 0.342050 0.000000
0.903778 0.342050 0.000000
0.938174 0.342050 0.000000
0.972570 0.342050 0.000000
1.000000 0.342050 0.000000
1.000000 0.342050 0.000000
0.000000 0.375800 0.000000
0.000000 0.375800 0.000000
0.011661 0.375800 0.000000
0.046056 0.375800 0.000000
0.080452 0.375800 0.000000
0.114848 0.375800 0.000000
0.149244 0.375800 0.000000
0.183639 0.375800 0.000000
0.218035 0.375800 0.000000
0.252431 0.375800 0.000000
0.286827 0.375800 0.000000
0.321223 0.375800 0.000000
0.355618 0.375800 0.000000
0.390014 0.375800 0.000000
0.424410 0.375800 0.000000
0.458806 0.375800 0.000000
0.493201 0.375800 0.000000
0.527597 0.375800 0.000000
0.561993 0.375800 0.000000
0.596389 0.375800 0.000000
0.630784 0.375800 0.000000
0.665180 0.375800 0.000000
0.699576 0.375800 0.000000
0.733972 0.375800 0.000000
0.768368 0.375800 0.000000
0.802763 0.375800 0.000000
0.837159 0.375800 0.000000
0.871555 0.375800 0.000000
0.905951 0.375800 0.000000
0.940346 0.375800 0.000000
0.974742 0.375800 0.000000
1.000000 0.375800 0.000000
1.000000 0.375800 0.000000
0.000000 0.409550 0.000000
0.000000 0.409550 0.000000
0.013833 0.409550 0.000000
0.048229 0.409550 0.000000
0.082625 0.409550 0.000000
0.117020 0.409550 0.000000
0.151416 0.409550 0.000000
0.185812 0.409550 0.000000
0.220208 0.409550 0.000000
0.254603 0.409550 0.000000
0.288999 0.409550 0.000000
0.323395 0.409550 0.000000
0.357791 0.409550 0.000000
0.392187 0.409550 0.000000
0.426582 0.409550 0.000000
0.460978 0.409550 0.000000
0.495374 0.409550 0.000000
0.529770 0.409550 0.000000
0.564165 0.409550 0.000000
0.598561 0.409550 0.000000
0.632957 0.409550 0.000000
0.667353 0.409550 0.000000
0.701748 0.409550 0.000000
0.736144 0.409550 0.000000
0.770540 0.409550 0.000000
0.804936 0.409550 0.000000
0.839332 0.409550 0.000000
0.873727 0.409550 0.000000
0.908123 0.409550 0.000000
0.942519 0.409550 0.000000
0.976915 0.409550 0.000000
1.000000 0.409550 0.000000
1.000000 0.409550 0.000000
0.000000 0.443300 0.000000
0.000000 0.443300 0.000000
0.016005 0.443300 0.000000
0.050401 0.443300 0.000000
0.084797 0.443300 0.000000
0.119193 0.443300 0.000000
0.153589 0.443300 0.000000
0.187984 0.443300 0.000000
0.222380 0.443300 0.000000
0.256776 0.443300 0.000000
0.291172 0.443300 0.000000
0.325567 0.443300 0.000000
0.359963 0.443300 0.000000
0.394359 0.443300 0.000000
0.428755 0.443300 0.000000
0.463150 0.443300 0.000000
0.497546 0.443300 0.000000
0.531942 0.443300 0.000000
0.566338 0.443300 0.000000
0.600734 0.443300 0.000000
0.635129 0.443300 0.000000
0.669525 0.443300 0.000000
0.703921 0.443300 0.000000
0.738317 0.443300 0.000000
0.772712 0.443300 0.000000
0.807108 0.443300 0.000000
0.841504 0.443300 0.000000
0.875900 0.443300 0.000000
0.910296 0.443300 0.000000
0.944691 0.443300 0.000000
0.979087 0.443300 0.000000
1.000000 0.443300 0.000000
1.000000 0.443300 0.000000
0.000000 0.477050 0.000000
0.000000 0.477050 0.000000
0.018178 0.477050 0.000000
0.052574 0.477050 0.000000
0.086969 0.477050 0.000000
0.121365 0.477050 0.000000
0.155761 0.477050 0.000000
0.190157 0.477050 0.000000
0.224552 0.477050 0.000000
0.258948 0.477050 0.000000
0.293344 0.477050 0.000000
0.327740 0.477050 0.000000
0.362136 0.477050 0.000000
0.396531 0.477050 0.000000
0.430927 0.477050 0.000000
0.465323 0.477050 0.000000
0.499719 0.477050 0.000000
0.534114 0.477050 0.000000
0.568510 0.477050 0.000000
0.602906 0.477050 0.000000
0.637302 0.477050 0.000000
0.671698 0.477050 0.000000
0.706093 0.477050 0.000000
0.740489 0.477050 0.000000
0.774885 0.477050 0.000000
0.809281 0.477050 0.000000
0.843676 0.477050 0.000000
0.878072 0.477050 0.000000
0.912468 0.477050 0.000000
0.946864 0.477050 0.000000
0.981259 0.477050 0.000000
1.000000 0.477050 0.000000
1.000000 0.477050 0.000000
0.000000 0.510800 0.000000
0.000000 0.510800 0.000000
0.020350 0.510800 0.000000
0.054746 0.510800 0.000000
0.089142 0.510800 0.000000
0.123538 0.510800 0.000000
0.157933 0.510800 0.000000
0.192329 0.510800 0.000000
0.226725 0.510800 0.000000
0.261121 0.510800 0.000000
0.295516 0.510800 0.000000
0.329912 0.510800 0.000000
0.364308 0.510800 0.000000
0.398704 0.510800 0.000000
0.433100 0.510800 0.000000
0.467495 0.510800 0.000000
0.501891 0.510800 0.000000
0.536287 0.510800 0.000000
0.570683 0.510800 0.000000
0.605078 0.510800 0.000000
0.639474 0.510800 0.000000
0.673870 0.510800 0.000000
0.708266 0.510800 0.000000
0.742661 0.510800 0.000000
0.777057 0.510800 0.000000
0.811453 0.510800 0.000000
0.845849 0.510800 0.000000
0.880245 0.510800 0.000000
0.914640 0.510800 0.000000
0.949036 0.510800 0.000000
0.983432 0.510800 0.000000
1.000000 0.510800 0.000000
1.000000 0.510800 0.000000
0.000000 0.544550 0.000000
0.000000 0.544550 0.000000
0.022523 0.544550 0.000000
0.056918 0.544550 0.000000
0.091314 0.544550 0.000000
0.125710 0.544550 0.000000
0.160106 0.544550 0.000000
0.194502 0.544550 0.000000
0.228897 0.544550 0.000000
0.263293 0.544550 0.000000
0.297689 0.544550 0.000000
0.332085 0.544550 0.000000
0.366480 0.544550 0.000000
0.400876 0.544550 0.000000
0.435272 0.544550 0.000000
0.469668 0.544550 0.000000
0.504063 0.544550 0.000000
0.538459 0.544550 0.000000
0.572855 0.544550 0.000000
0.607251 0.544550 0.000000
0.641647 0.544550 0.000000
0.676042 0.544550 0.000000
0.710438 0.544550 0.000000
0.744834 0.544550 0.000000
0.779230 0.544550 0.000000
0.813625 0.544550 0.000000
0.848021 0.544550 0.000000
0.882417 0.544550 0.000000
0.916813 0.544550 0.000000
0.951209 0.544550 0.000000
0.985604 0.544550 0.000000
1.000000 0.544550 0.000000
1.000000 0.544550 0.000000
0.000000 0.578300 0.000000
0.000000 0.578300 0.000000
0.024695 0.578300 0.000000
0.059091 0.578300 0.000000
0.093487 0.578300 0.000000
0.127882 0.578300 0.000000
0.162278 0.578300 0.000000
0.196674 0.578300 0.000000
0.231070 0.578300 0.000000
0.265466 0.578300 0.000000
0.299861 0.578300 0.000000
0.334257 0.578300 0.000000
0.368653 0.578300 0.000000
0.403049 0.578300 0.000000
0.437444 0.578300 0.000000
0.471840 0.578300 0.000000
0.506236 0.578300 0.000000
0.540632 0.578300 0.000000
0.575027 0.578300 0.000000
0.609423 0.578300 0.000000
0.643819 0.578300 0.000000
0.678215 0.578300 0.000000
0.712611 0.578300 0.000000
0.747006 0.578300 0.000000
0.781402 0.578300 0.000000
0.815798 0.578300 0.000000
0.850194 0.578300 0.000000
0.884589 0.578300 0.000000
0.918985 0.578300 0.000000
0.953381 0.578300 0.000000
0.987777 0.578300 0.000000
1.000000 0.578300 0.000000
1.000000 0.578300 0.000000
0.000000 0.612050 0.000000
0.000000 0.612050 0.000000
0.026868 0.612050 0.000000
0.061263 0.612050 0.000000
0.095659 0.612050 0.000000
0.130055 0.612050 0.000000
0.164451 0.612050 0.000000
0.198846 0.612050 0.000000
0.233242 0.612050 0.000000
0.267638 0.612050 0.000000
0.302034 0.612050 0.000000
0.336429 0.612050 0.000000
0.370825 0.612050 0.000000
0.405221 0.612050 0.000000
0.439617 0.612050 0.000000
0.474013 0.612050 0.000000
0.508408 0.612050 0.000000
0.542804 0.612050 0.000000
0.577200 0.612050 0.000000
0.611596 0.612050 0.000000
0.645991 0.612050 0.000000
0.680387 0.612050 0.000000
0.714783 0.612050 0.000000
0.749179 0.612050 0.000000
0.783575 0.612050 0.000000
0.817970 0.612050 0.000000
0.852366 0.612050 0.000000
0.886762 0.612050 0.000000
0.921158 0.612050 0.000000
0.955553 0.612050 0.000000
0.989949 0.612050 0.000000
1.000000 0.612050 0.000000
1.000000 0.612050 0.000000
0.000000 0.645800 0.000000
0.000000 0.645800 0.000000
0.029040 0.645800 0.000000
0.063436 0.645800 0.000000
0.097831 0.645800 0.000000
0.132227 0.645800 0.000000
0.166623 0.645800 0.000000
0.201019 0.645800 0.000000
0.235415 0.645800 0.000000
0.269810 0.645800 0.000000
0.304206 0.645800 0.000000
0.338602 0.645800 0.000000
0.372998 0.645800 0.000000
0.407393 0.645800 0.000000
0.441789 0.645800 0.000000
0.476185 0.645800 0.000000
0.510581 0.645800 0.000000
0.544977 0.645800 0.000000
0.579372 0.645800 0.000000
0.613768 0.645800 0.000000
0.648164 0.645800 0.000000
0.682560 0.645800 0.000000
0.716955 0.645800 0.000000
0.751351 0.645800 0.000000
0.785747 0.645800 0.000000
0.820143 0.645800 0.000000
0.854538 0.645800 0.000000
0.888934 0.645800 0.000000
0.923330 0.645800 0.000000
0.957726 0.645800 0.000000
0.992122 0.645800 0.000000
1.000000 0.645800 0.000000
1.000000 0.645800 0.000000
0.000000 0.679550 0.000000
0.000000 0.679550 0.000000
0.031212 0.679550 0.000000
0.065608 0.679550 0.000000
0.100004 0.679550 0.000000
0.134400 0.679550 0.000000
0.168795 0.679550 0.000000
0.203191 0.679550 0.000000
0.237587 0.679550 0.000000
0.271983 0.679550 0.000000
0.306379 0.679550 0.000000
0.340774 0.679550 0.000000
0.375170 0.679550 0.000000
0.409566 0.679550 0.000000
0.443962 0.679550 0.000000
0.478357 0.679550 0.000000
0.512753 0.679550 0.000000
0.547149 0.679550 0.000000
0.581545 0.679550 0.000000
0.615940 0.679550 0.000000
0.650336 0.679550 0.000000
0.684732 0.679550 0.000000
0.719128 0.679550 0.000000
0.753524 0.679550 0.000000
0.787919 0.679550 0.000000
0.822315 0.679550 0.000000
0.856711 0.679550 0.000000
0.891107 0.679550 0.000000
0.925502 0.679550 0.000000
0.959898 0.679550 0.000000
0.994294 0.679550 0.000000
1.000000 0.679550 0.000000
1.000000 0.679550 0.000000
0.000000 0.713300 0.000000
0.000000 0.713300 0.000000
0.033385 0.713300 0.000000
0.067781 0.713300 0.000000
0.102176 0.713300 0.000000
0.136572 0.713300 0.000000
0.170968 0.713300 0.000000
0.205364 0.713300 0.000000
0.239759 0.713300 0.000000
0.274155 0.713300 0.000000
0.308551 0.713300 0.000000
0.342947 0.713300 0.000000
0.377343 0.713300 0.000000
0.411738 0.713300 0.000000
0.446134 0.713300 0.000000
0.480530 0.713300 0.000000
0.514926 0.713300 0.000000
0.549321 0.713300 0.000000
0.583717 0.713300 0.000000
0.618113 0.713300 0.000000
0.652509 0.713300 0.000000
0.686904 0.713300 0.000000
0.721300 0.713300 0.000000
0.755696 0.713300 0.000000
0.790092 0.713300 0.000000
0.824488 0.713300 0.000000
0.858883 0.713300 0.000000
0.893279 0.713300 0.000000
0.927675 0.713300 0.000000
0.962071 0.713300 0.000000
0.996466 0.713300 0.000000
1.000000 0.713300 0.000000
1.000000 0.713300 0.000000
0.000000 0.747050 0.000000
0.001161 0.747050 0.000000
0.035557 0.747050 0.000000
0.069953 0.747050 0.000000
0.104349 0.747050 0.000000
0.138745 0.747050 0.000000
0.173140 0.747050 0.000000
0.207536 0.747050 0.000000
0.241932 0.747050 0.000000
0.276328 0.747050 0.000000
0.310723 0.747050 0.000000
0.345119 0.747050 0.000000
0.379515 0.747050 0.000000
0.413911 0.747050 0.000000
0.448306 0.747050 0.000000
0.482702 0.747050 0.000000
0.517098 0.747050 0.000000
0.551494 0.747050 0.000000
0.585890 0.747050 0.000000
0.620285 0.747050 0.000000
0.654681 0.747050 0.000000
0.689077 0.747050 0.000000
0.723473 0.747050 0.000000
0.757868 0.747050 0.000000
0.792264 0.747050 0.000000
0.826660 0.747050 0.000000
0.861056 0.747050 0.000000
0.895452 0.747050 0.000000
0.929847 0.747050 0.000000
0.964243 0.747050 0.000000
0.998639 0.747050 0.000000
1.000000 0.747050 0.000000
1.000000 0.747050 0.000000
0.000000 0.780800 0.000000
0.003334 0.780800 0.000000
0.037730 0.780800 0.000000
0.072125 0.780800 0.000000
0.106521 0.780800 0.000000
0.140917 0.780800 0.000000
0.175313 0.780800 0.000000
0.209708 0.780800 0.000000
0.244104 0.780800 0.000000
0.278500 0.780800 0.000000
0.312896 0.780800 0.000000
0.347292 0.780800 0.000000
0.381687 0.780800 0.000000
0.416083 0.780800 0.000000
0.450479 0.780800 0.000000
0.484875 0.780800 0.000000
0.519270 0.780800 0.000000
0.553666 0.780800 0.000000
0.588062 0.780800 0.000000
0.622458 0.780800 0.000000
0.656854 0.780800 0.000000
0.691249 0.780800 0.000000
0.725645 0.780800 0.000000
0.760041 0.780800 0.000000
0.794437 0.780800 0.000000
0.828832 0.780800 0.000000
0.863228 0.780800 0.000000
0.897624 0.780800 0.000000
0.932020 0.780800 0.000000
0.966415 0.780800 0.000000
1.000000 0.780800 0.000000
1.000000 0.780800 0.000000
1.000000 0.780800 0.000000
0.000000 0.814550 0.000000
0.005506 0.814550 0.000000
0.039902 0.814550 0.000000
0.074298 0.814550 0.000000
0.108694 0.814550 0.000000
0.143089 0.814550 0.000000
0.177485 0.814550 0.000000
0.211881 0.814550 0.000000
0.246277 0.814550 0.000000
0.280672 0.814550 0.000000
0.315068 0.814550 0.000000
0.349464 0.814550 0.000000
0.383860 0.814550 0.000000
0.418256 0.814550 0.000000
0.452651 0.814550 0.000000
0.487047 0.814550 0.000000
0.521443 0.814550 0.000000
0.555839 0.814550 0.000000
0.590234 0.814550 0.000000
0.624630 0.814550 0.000000
0.659026 0.814550 0.000000
0.693422 0.814550 0.000000
0.727817 0.814550 0.000000
0.762213 0.814550 0.000000
0.796609 0.814550 0.000000
0.831005 0.814550 0.000000
0.865401 0.814550 0.000000
0.899796 0.814550 0.000000
0.934192 0.814550 0.000000
0.968588 0.814550 0.000000
1.000000 0.814550 0.000000
1.000000 0.814550 0.000000
1.000000 0.814550 0.000000
0.000000 0.848300 0.000000
0.007679 0.848300 0.000000
0.042074 0.848300 0.000000
0.076470 0.848300 0.000000
0.110866 0.848300 0.000000
0.145262 0.848300 0.000000
0.179658 0.848300 0.000000
0.214053 0.848300 0.000000
0.248449 0.848300 0.000000
0.282845 0.848300 0.000000
0.317241 0.848300 0.000000
0.351636 0.848300 0.000000
0.386032 0.848300 0.000000
0.420428 0.848300 0.000000
0.454824 0.848300 0.000000
0.489220 0.848300 0.000000
0.523615 0.848300 0.000000
0.558011 0.848300 0.000000
0.592407 0.848300 0.000000
0.626803 0.848300 0.000000
0.661198 0.848300 0.000000
0.695594 0.848300 0.000000
0.729990 0.848300 0.000000
0.764386 0.848300 0.000000
0.798781 0.848300 0.000000
0.833177 0.848300 0.000000
0.867573 0.848300 0.000000
0.901969 0.848300 0.000000
0.936365 0.848300 0.000000
