luts/cinematic.cube
TITLE "Cinematic"
LUT_3D_SIZE 5
0.000000 0.000000 0.024800
0.191966 0.000000 0.019060
0.467132 0.000000 0.013320
0.742299 0.000000 0.007579
1.000000 0.000000 0.001839
0.000000 0.240800 0.005490
0.209346 0.240800 0.000000
0.484512 0.240800 0.000000
0.759678 0.240800 0.000000
1.000000 0.240800 0.000000
0.000000 0.510800 0.000000
0.226725 0.510800 0.000000
0.501891 0.510800 0.000000
0.777057 0.510800 0.000000
1.000000 0.510800 0.000000
0.000000 0.780800 0.000000
0.244104 0.780800 0.000000
0.519270 0.780800 0.000000
0.794437 0.780800 0.000000
1.000000 0.780800 0.000000
0.000000 1.000000 0.000000
0.261484 1.000000 0.000000
0.536650 1.000000 0.000000
0.811816 1.000000 0.000000
1.000000 1.000000 0.000000
0.000000 0.000000 0.292851
0.193721 0.000000 0.287110
0.468887 0.000000 0.281370
0.744053 0.000000 0.275630
1.000000 0.000000 0.269890
0.000000 0.240800 0.273540
0.211100 0.240800 0.267800
0.486266 0.240800 0.262060
0.761432 0.240800 0.256320
1.000000 0.240800 0.250579
0.000000 0.510800 0.254230
0.228479 0.510800 0.248490
0.503646 0.510800 0.242749
0.778812 0.510800 0.237009
1.000000 0.510800 0.231269
0.000000 0.780800 0.234919
0.245859 0.780800 0.229179
0.521025 0.780800 0.223439
0.796191 0.780800 0.217699
1.000000 0.780800 0.211959
0.000000 1.000000 0.215609
0.263238 1.000000 0.209869
0.538404 1.000000 0.204129
0.813570 1.000000 0.198388
1.000000 1.000000 0.192648
0.000000 0.000000 0.560901
0.195475 0.000000 0.555161
0.470641 0.000000 0.549421
0.745807 0.000000 0.543681
1.000000 0.000000 0.537940
0.000000 0.240800 0.541591
0.212854 0.240800 0.535851
0.488021 0.240800 0.530110
0.763187 0.240800 0.524370
1.000000 0.240800 0.518630
0.000000 0.510800 0.522280
0.230234 0.510800 0.516540
0.505400 0.510800 0.510800
0.780566 0.510800 0.505060
1.000000 0.510800 0.499320
0.000000 0.780800 0.502970
0.247613 0.780800 0.497230
0.522779 0.780800 0.491490
0.797946 0.780800 0.485749
1.000000 0.780800 0.480009
0.000000 1.000000 0.483660
0.264993 1.000000 0.477919
0.540159 1.000000 0.472179
0.815325 1.000000 0.466439
1.000000 1.000000 0.460699
0.000000 0.000000 0.828952
0.197230 0.000000 0.823212
0.472396 0.000000 0.817471
0.747562 0.000000 0.811731
1.000000 0.000000 0.805991
0.000000 0.240800 0.809641
0.214609 0.240800 0.803901
0.489775 0.240800 0.798161
0.764941 0.240800 0.792421
1.000000 0.240800 0.786681
0.000000 0.510800 0.790331
0.231988 0.510800 0.784591
0.507154 0.510800 0.778851
0.782321 0.510800 0.773110
1.000000 0.510800 0.767370
0.000000 0.780800 0.771021
0.249368 0.780800 0.765280
0.524534 0.780800 0.759540
0.799700 0.780800 0.753800
1.000000 0.780800 0.748060
0.000000 1.000000 0.751710
0.266747 1.000000 0.745970
0.541913 1.000000 0.740230
0.817079 1.000000 0.734490
1.000000 1.000000 0.728749
0.000000 0.000000 1.000000
0.198984 0.000000 1.000000
0.474150 0.000000 1.000000
0.749316 0.000000 1.000000
1.000000 0.000000 1.000000
0.000000 0.240800 1.000000
0.216363 0.240800 1.000000
0.491530 0.240800 1.000000
0.766696 0.240800 1.000000
1.000000 0.240800 1.000000
0.000000 0.510800 1.000000
0.233743 0.510800 1.000000
0.508909 0.510800 1.000000
0.784075 0.510800 1.000000
1.000000 0.510800 1.000000
0.000000 0.780800 1.000000
0.251122 0.780800 1.000000
0.526288 0.780800 1.000000
0.801454 0.780800 1.000000
1.000000 0.780800 1.000000
0.000000 1.000000 1.000000
0.268501 1.000000 1.000000
0.543668 1.000000 1.000000
0.818834 1.000000 1.000000
1.000000 1.000000 0.996800
