luts/cinematic.cube
TITLE "Cinematic"
LUT_3D_SIZE 9
0.000000 0.000000 0.024800
0.054383 0.000000 0.021930
0.191966 0.000000 0.019060
0.329549 0.000000 0.016190
0.467132 0.000000 0.013320
0.604715 0.000000 0.010449
0.742299 0.000000 0.007579
0.879882 0.000000 0.004709
1.000000 0.000000 0.001839
0.000000 0.105800 0.015145
0.063073 0.105800 0.012275
0.200656 0.105800 0.009405
0.338239 0.105800 0.006534
0.475822 0.105800 0.003664
0.613405 0.105800 0.000794
0.750988 0.105800 0.000000
0.888571 0.105800 0.000000
1.000000 0.105800 0.000000
0.000000 0.240800 0.005490
0.071762 0.240800 0.002619
0.209346 0.240800 0.000000
0.346929 0.240800 0.000000
0.484512 0.240800 0.000000
0.622095 0.240800 0.000000
0.759678 0.240800 0.000000
0.897261 0.240800 0.000000
1.000000 0.240800 0.000000
0.000000 0.375800 0.000000
0.080452 0.375800 0.000000
0.218035 0.375800 0.000000
0.355618 0.375800 0.000000
0.493201 0.375800 0.000000
0.630784 0.375800 0.000000
0.768368 0.375800 0.000000
0.905951 0.375800 0.000000
1.000000 0.375800 0.000000
0.000000 0.510800 0.000000
0.089142 0.510800 0.000000
0.226725 0.510800 0.000000
0.364308 0.510800 0.000000
0.501891 0.510800 0.000000
0.639474 0.510800 0.000000
0.777057 0.510800 0.000000
0.914640 0.510800 0.000000
1.000000 0.510800 0.000000
0.000000 0.645800 0.000000
0.097831 0.645800 0.000000
0.235415 0.645800 0.000000
0.372998 0.645800 0.000000
0.510581 0.645800 0.000000
0.648164 0.645800 0.000000
0.785747 0.645800 0.000000
0.923330 0.645800 0.000000
1.000000 0.645800 0.000000
0.000000 0.780800 0.000000
0.106521 0.780800 0.000000
0.244104 0.780800 0.000000
0.381687 0.780800 0.000000
0.519270 0.780800 0.000000
0.656854 0.780800 0.000000
0.794437 0.780800 0.000000
0.932020 0.780800 0.000000
1.000000 0.780800 0.000000
0.000000 0.915800 0.000000
0.115211 0.915800 0.000000
0.252794 0.915800 0.000000
0.390377 0.915800 0.000000
0.527960 0.915800 0.000000
0.665543 0.915800 0.000000
0.803126 0.915800 0.000000
0.940709 0.915800 0.000000
1.000000 0.915800 0.000000
0.000000 1.000000 0.000000
0.123901 1.000000 0.000000
0.261484 1.000000 0.000000
0.399067 1.000000 0.000000
0.536650 1.000000 0.000000
0.674233 1.000000 0.000000
0.811816 1.000000 0.000000
0.949399 1.000000 0.000000
1.000000 1.000000 0.000000
0.000000 0.000000 0.158825
0.055260 0.000000 0.155955
0.192843 0.000000 0.153085
0.330426 0.000000 0.150215
0.468010 0.000000 0.147345
0.605593 0.000000 0.144475
0.743176 0.000000 0.141605
0.880759 0.000000 0.138735
1.000000 0.000000 0.135864
0.000000 0.105800 0.149170
0.063950 0.105800 0.146300
0.201533 0.105800 0.143430
0.339116 0.105800 0.140560
0.476699 0.105800 0.137690
0.614282 0.105800 0.134820
0.751865 0.105800 0.131949
0.889449 0.105800 0.129079
1.000000 0.105800 0.126209
0.000000 0.240800 0.139515
0.072640 0.240800 0.136645
0.210223 0.240800 0.133775
0.347806 0.240800 0.130905
0.485389 0.240800 0.128034
0.622972 0.240800 0.125164
0.760555 0.240800 0.122294
0.898138 0.240800 0.119424
1.000000 0.240800 0.116554
0.000000 0.375800 0.129860
0.081329 0.375800 0.126990
0.218912 0.375800 0.124119
0.356496 0.375800 0.121249
0.494079 0.375800 0.118379
0.631662 0.375800 0.115509
0.769245 0.375800 0.112639
0.906828 0.375800 0.109769
1.000000 0.375800 0.106899
0.000000 0.510800 0.120204
0.090019 0.510800 0.117334
0.227602 0.510800 0.114464
0.365185 0.510800 0.111594
0.502768 0.510800 0.108724
0.640351 0.510800 0.105854
0.777934 0.510800 0.102984
0.915518 0.510800 0.100114
1.000000 0.510800 0.097244
0.000000 0.645800 0.110549
0.098709 0.645800 0.107679
0.236292 0.645800 0.104809
0.373875 0.645800 0.101939
0.511458 0.645800 0.099069
0.649041 0.645800 0.096199
0.786624 0.645800 0.093329
0.924207 0.645800 0.090459
1.000000 0.645800 0.087588
0.000000 0.780800 0.100894
0.107398 0.780800 0.098024
0.244981 0.780800 0.095154
0.382565 0.780800 0.092284
0.520148 0.780800 0.089414
0.657731 0.780800 0.086544
0.795314 0.780800 0.083674
0.932897 0.780800 0.080803
1.000000 0.780800 0.077933
0.000000 0.915800 0.091239
0.116088 0.915800 0.088369
0.253671 0.915800 0.085499
0.391254 0.915800 0.082629
0.528837 0.915800 0.079759
0.666420 0.915800 0.076888
0.804004 0.915800 0.074018
0.941587 0.915800 0.071148
1.000000 0.915800 0.068278
0.000000 1.000000 0.081584
0.124778 1.000000 0.078714
0.262361 1.000000 0.075843
0.399944 1.000000 0.072973
0.537527 1.000000 0.070103
0.675110 1.000000 0.067233
0.812693 1.000000 0.064363
0.950276 1.000000 0.061493
1.000000 1.000000 0.058623
0.000000 0.000000 0.292851
0.056138 0.000000 0.289980
0.193721 0.000000 0.287110
0.331304 0.000000 0.284240
0.468887 0.000000 0.281370
0.606470 0.000000 0.278500
0.744053 0.000000 0.275630
0.881636 0.000000 0.272760
1.000000 0.000000 0.269890
0.000000 0.105800 0.283195
0.064827 0.105800 0.280325
0.202410 0.105800 0.277455
0.339993 0.105800 0.274585
0.477577 0.105800 0.271715
0.615160 0.105800 0.268845
0.752743 0.105800 0.265975
0.890326 0.105800 0.263105
1.000000 0.105800 0.260235
0.000000 0.240800 0.273540
0.073517 0.240800 0.270670
0.211100 0.240800 0.267800
0.348683 0.240800 0.264930
0.486266 0.240800 0.262060
0.623849 0.240800 0.259190
0.761432 0.240800 0.256320
0.899015 0.240800 0.253449
1.000000 0.240800 0.250579
0.000000 0.375800 0.263885
0.082207 0.375800 0.261015
0.219790 0.375800 0.258145
0.357373 0.375800 0.255275
0.494956 0.375800 0.252405
0.632539 0.375800 0.249535
0.770122 0.375800 0.246664
0.907705 0.375800 0.243794
1.000000 0.375800 0.240924
0.000000 0.510800 0.254230
0.090896 0.510800 0.251360
0.228479 0.510800 0.248490
0.366062 0.510800 0.245620
0.503646 0.510800 0.242749
0.641229 0.510800 0.239879
0.778812 0.510800 0.237009
0.916395 0.510800 0.234139
1.000000 0.510800 0.231269
0.000000 0.645800 0.244575
0.099586 0.645800 0.241704
0.237169 0.645800 0.238834
0.374752 0.645800 0.235964
0.512335 0.645800 0.233094
0.649918 0.645800 0.230224
0.787501 0.645800 0.227354
0.925084 0.645800 0.224484
1.000000 0.645800 0.221614
0.000000 0.780800 0.234919
0.108276 0.780800 0.232049
0.245859 0.780800 0.229179
0.383442 0.780800 0.226309
0.521025 0.780800 0.223439
0.658608 0.780800 0.220569
0.796191 0.780800 0.217699
0.933774 0.780800 0.214829
1.000000 0.780800 0.211959
0.000000 0.915800 0.225264
0.116965 0.915800 0.222394
0.254548 0.915800 0.219524
0.392131 0.915800 0.216654
0.529715 0.915800 0.213784
0.667298 0.915800 0.210914
0.804881 0.915800 0.208044
0.942464 0.915800 0.205173
1.000000 0.915800 0.202303
0.000000 1.000000 0.215609
0.125655 1.000000 0.212739
0.263238 1.000000 0.209869
0.400821 1.000000 0.206999
0.538404 1.000000 0.204129
0.675987 1.000000 0.201259
0.813570 1.000000 0.198388
0.951154 1.000000 0.195518
1.000000 1.000000 0.192648
0.000000 0.000000 0.426876
0.057015 0.000000 0.424006
0.194598 0.000000 0.421136
0.332181 0.000000 0.418266
0.469764 0.000000 0.415395
0.607347 0.000000 0.412525
0.744930 0.000000 0.409655
0.882513 0.000000 0.406785
1.000000 0.000000 0.403915
0.000000 0.105800 0.417221
0.065704 0.105800 0.414351
0.203288 0.105800 0.411481
0.340871 0.105800 0.408610
0.478454 0.105800 0.405740
0.616037 0.105800 0.402870
0.753620 0.105800 0.400000
0.891203 0.105800 0.397130
1.000000 0.105800 0.394260
0.000000 0.240800 0.407566
0.074394 0.240800 0.404695
0.211977 0.240800 0.401825
0.349560 0.240800 0.398955
0.487143 0.240800 0.396085
0.624727 0.240800 0.393215
0.762310 0.240800 0.390345
0.899893 0.240800 0.387475
1.000000 0.240800 0.384605
0.000000 0.375800 0.397910
0.083084 0.375800 0.395040
0.220667 0.375800 0.392170
0.358250 0.375800 0.389300
0.495833 0.375800 0.386430
0.633416 0.375800 0.383560
0.770999 0.375800 0.380690
0.908582 0.375800 0.377820
1.000000 0.375800 0.374949
0.000000 0.510800 0.388255
0.091773 0.510800 0.385385
0.229357 0.510800 0.382515
0.366940 0.510800 0.379645
0.504523 0.510800 0.376775
0.642106 0.510800 0.373905
0.779689 0.510800 0.371035
0.917272 0.510800 0.368164
1.000000 0.510800 0.365294
0.000000 0.645800 0.378600
0.100463 0.645800 0.375730
0.238046 0.645800 0.372860
0.375629 0.645800 0.369990
0.513212 0.645800 0.367120
0.650796 0.645800 0.364249
0.788379 0.645800 0.361379
0.925962 0.645800 0.358509
1.000000 0.645800 0.355639
0.000000 0.780800 0.368945
0.109153 0.780800 0.366075
0.246736 0.780800 0.363204
0.384319 0.780800 0.360334
0.521902 0.780800 0.357464
0.659485 0.780800 0.354594
0.797068 0.780800 0.351724
0.934651 0.780800 0.348854
1.000000 0.780800 0.345984
0.000000 0.915800 0.359289
0.117843 0.915800 0.356419
0.255426 0.915800 0.353549
0.393009 0.915800 0.350679
0.530592 0.915800 0.347809
0.668175 0.915800 0.344939
0.805758 0.915800 0.342069
0.943341 0.915800 0.339199
1.000000 0.915800 0.336329
0.000000 1.000000 0.349634
0.126532 1.000000 0.346764
0.264115 1.000000 0.343894
0.401698 1.000000 0.341024
0.539281 1.000000 0.338154
0.676865 1.000000 0.335284
0.814448 1.000000 0.332414
0.952031 1.000000 0.329544
1.000000 1.000000 0.326674
0.000000 0.000000 0.560901
0.057892 0.000000 0.558031
0.195475 0.000000 0.555161
0.333058 0.000000 0.552291
0.470641 0.000000 0.549421
0.608224 0.000000 0.546551
0.745807 0.000000 0.543681
0.883391 0.000000 0.540810
1.000000 0.000000 0.537940
0.000000 0.105800 0.551246
0.066582 0.105800 0.548376
0.204165 0.105800 0.545506
0.341748 0.105800 0.542636
0.479331 0.105800 0.539766
0.616914 0.105800 0.536895
0.754497 0.105800 0.534025
0.892080 0.105800 0.531155
1.000000 0.105800 0.528285
0.000000 0.240800 0.541591
0.075271 0.240800 0.538721
0.212854 0.240800 0.535851
0.350438 0.240800 0.532980
0.488021 0.240800 0.530110
0.625604 0.240800 0.527240
0.763187 0.240800 0.524370
0.900770 0.240800 0.521500
1.000000 0.240800 0.518630
0.000000 0.375800 0.531936
0.083961 0.375800 0.529065
0.221544 0.375800 0.526195
0.359127 0.375800 0.523325
0.496710 0.375800 0.520455
0.634293 0.375800 0.517585
0.771877 0.375800 0.514715
0.909460 0.375800 0.511845
1.000000 0.375800 0.508975
0.000000 0.510800 0.522280
0.092651 0.510800 0.519410
0.230234 0.510800 0.516540
0.367817 0.510800 0.513670
0.505400 0.510800 0.510800
0.642983 0.510800 0.507930
0.780566 0.510800 0.505060
0.918149 0.510800 0.502190
1.000000 0.510800 0.499320
0.000000 0.645800 0.512625
0.101340 0.645800 0.509755
0.238924 0.645800 0.506885
0.376507 0.645800 0.504015
0.514090 0.645800 0.501145
0.651673 0.645800 0.498275
0.789256 0.645800 0.495405
0.926839 0.645800 0.492535
1.000000 0.645800 0.489664
0.000000 0.780800 0.502970
0.110030 0.780800 0.500100
0.247613 0.780800 0.497230
0.385196 0.780800 0.494360
0.522779 0.780800 0.491490
0.660362 0.780800 0.488620
0.797946 0.780800 0.485749
0.935529 0.780800 0.482879
1.000000 0.780800 0.480009
0.000000 0.915800 0.493315
0.118720 0.915800 0.490445
0.256303 0.915800 0.487575
0.393886 0.915800 0.484704
0.531469 0.915800 0.481834
0.669052 0.915800 0.478964
0.806635 0.915800 0.476094
0.944218 0.915800 0.473224
1.000000 0.915800 0.470354
0.000000 1.000000 0.483660
0.127409 1.000000 0.480790
0.264993 1.000000 0.477919
0.402576 1.000000 0.475049
0.540159 1.000000 0.472179
0.677742 1.000000 0.469309
0.815325 1.000000 0.466439
0.952908 1.000000 0.463569
1.000000 1.000000 0.460699
0.000000 0.000000 0.694927
0.058769 0.000000 0.692056
0.196352 0.000000 0.689186
0.333935 0.000000 0.686316
0.471519 0.000000 0.683446
0.609102 0.000000 0.680576
0.746685 0.000000 0.677706
0.884268 0.000000 0.674836
1.000000 0.000000 0.671966
0.000000 0.105800 0.685271
0.067459 0.105800 0.682401
0.205042 0.105800 0.679531
0.342625 0.105800 0.676661
0.480208 0.105800 0.673791
0.617791 0.105800 0.670921
0.755374 0.105800 0.668051
0.892957 0.105800 0.665181
1.000000 0.105800 0.662311
0.000000 0.240800 0.675616
0.076149 0.240800 0.672746
0.213732 0.240800 0.669876
0.351315 0.240800 0.667006
0.488898 0.240800 0.664136
0.626481 0.240800 0.661266
0.764064 0.240800 0.658396
0.901647 0.240800 0.655525
1.000000 0.240800 0.652655
0.000000 0.375800 0.665961
0.084838 0.375800 0.663091
0.222421 0.375800 0.660221
0.360004 0.375800 0.657351
0.497588 0.375800 0.654480
0.635171 0.375800 0.651610
0.772754 0.375800 0.648740
0.910337 0.375800 0.645870
1.000000 0.375800 0.643000
0.000000 0.510800 0.656306
0.093528 0.510800 0.653436
0.231111 0.510800 0.650566
0.368694 0.510800 0.647695
0.506277 0.510800 0.644825
0.643860 0.510800 0.641955
0.781443 0.510800 0.639085
0.919027 0.510800 0.636215
1.000000 0.510800 0.633345
0.000000 0.645800 0.646651
0.102218 0.645800 0.643780
0.239801 0.645800 0.640910
0.377384 0.645800 0.638040
0.514967 0.645800 0.635170
0.652550 0.645800 0.632300
0.790133 0.645800 0.629430
0.927716 0.645800 0.626560
1.000000 0.645800 0.623690
0.000000 0.780800 0.636995
0.110907 0.780800 0.634125
0.248490 0.780800 0.631255
0.386073 0.780800 0.628385
0.523657 0.780800 0.625515
0.661240 0.780800 0.622645
0.798823 0.780800 0.619775
0.936406 0.780800 0.616905
1.000000 0.780800 0.614034
0.000000 0.915800 0.627340
0.119597 0.915800 0.624470
0.257180 0.915800 0.621600
0.394763 0.915800 0.618730
0.532346 0.915800 0.615860
0.669929 0.915800 0.612990
0.807512 0.915800 0.610120
0.945096 0.915800 0.607249
1.000000 0.915800 0.604379
0.000000 1.000000 0.617685
0.128287 1.000000 0.614815
0.265870 1.000000 0.611945
0.403453 1.000000 0.609075
0.541036 1.000000 0.606205
0.678619 1.000000 0.603334
0.816202 1.000000 0.600464
0.953785 1.000000 0.597594
1.000000 1.000000 0.594724
0.000000 0.000000 0.828952
0.059646 0.000000 0.826082
0.197230 0.000000 0.823212
0.334813 0.000000 0.820341
0.472396 0.000000 0.817471
0.609979 0.000000 0.814601
0.747562 0.000000 0.811731
0.885145 0.000000 0.808861
1.000000 0.000000 0.805991
0.000000 0.105800 0.819297
0.068336 0.105800 0.816427
0.205919 0.105800 0.813556
0.343502 0.105800 0.810686
0.481085 0.105800 0.807816
0.618669 0.105800 0.804946
0.756252 0.105800 0.802076
0.893835 0.105800 0.799206
1.000000 0.105800 0.796336
0.000000 0.240800 0.809641
0.077026 0.240800 0.806771
0.214609 0.240800 0.803901
0.352192 0.240800 0.801031
0.489775 0.240800 0.798161
0.627358 0.240800 0.795291
0.764941 0.240800 0.792421
0.902524 0.240800 0.789551
1.000000 0.240800 0.786681
0.000000 0.375800 0.799986
0.085716 0.375800 0.797116
0.223299 0.375800 0.794246
0.360882 0.375800 0.791376
0.498465 0.375800 0.788506
0.636048 0.375800 0.785636
0.773631 0.375800 0.782766
0.911214 0.375800 0.779895
1.000000 0.375800 0.777025
0.000000 0.510800 0.790331
0.094405 0.510800 0.787461
0.231988 0.510800 0.784591
0.369571 0.510800 0.781721
0.507154 0.510800 0.778851
0.644738 0.510800 0.775980
0.782321 0.510800 0.773110
0.919904 0.510800 0.770240
1.000000 0.510800 0.767370
0.000000 0.645800 0.780676
0.103095 0.645800 0.777806
0.240678 0.645800 0.774936
0.378261 0.645800 0.772066
0.515844 0.645800 0.769195
0.653427 0.645800 0.766325
0.791010 0.645800 0.763455
0.928593 0.645800 0.760585
1.000000 0.645800 0.757715
0.000000 0.780800 0.771021
0.111785 0.780800 0.768150
0.249368 0.780800 0.765280
0.386951 0.780800 0.762410
0.524534 0.780800 0.759540
0.662117 0.780800 0.756670
0.799700 0.780800 0.753800
0.937283 0.780800 0.750930
1.000000 0.780800 0.748060
0.000000 0.915800 0.761365
0.120474 0.915800 0.758495
0.258057 0.915800 0.755625
0.395640 0.915800 0.752755
0.533224 0.915800 0.749885
0.670807 0.915800 0.747015
0.808390 0.915800 0.744145
0.945973 0.915800 0.741275
1.000000 0.915800 0.738405
0.000000 1.000000 0.751710
0.129164 1.000000 0.748840
0.266747 1.000000 0.745970
0.404330 1.000000 0.743100
0.541913 1.000000 0.740230
0.679496 1.000000 0.737360
0.817079 1.000000 0.734490
0.954662 1.000000 0.731619
1.000000 1.000000 0.728749
0.000000 0.000000 0.962977
0.060524 0.000000 0.960107
0.198107 0.000000 0.957237
0.335690 0.000000 0.954367
0.473273 0.000000 0.951497
0.610856 0.000000 0.948627
0.748439 0.000000 0.945756
0.886022 0.000000 0.942886
1.000000 0.000000 0.940016
0.000000 0.105800 0.953322
0.069213 0.105800 0.950452
0.206796 0.105800 0.947582
0.344380 0.105800 0.944712
0.481963 0.105800 0.941841
0.619546 0.105800 0.938971
0.757129 0.105800 0.936101
0.894712 0.105800 0.933231
1.000000 0.105800 0.930361
0.000000 0.240800 0.943667
0.077903 0.240800 0.940797
0.215486 0.240800 0.937927
0.353069 0.240800 0.935056
0.490652 0.240800 0.932186
0.628235 0.240800 0.929316
0.765819 0.240800 0.926446
0.903402 0.240800 0.923576
1.000000 0.240800 0.920706
0.000000 0.375800 0.934011
0.086593 0.375800 0.931141
0.224176 0.375800 0.928271
0.361759 0.375800 0.925401
0.499342 0.375800 0.922531
0.636925 0.375800 0.919661
0.774508 0.375800 0.916791
0.912091 0.375800 0.913921
1.000000 0.375800 0.911051
0.000000 0.510800 0.924356
0.095282 0.510800 0.921486
0.232866 0.510800 0.918616
0.370449 0.510800 0.915746
0.508032 0.510800 0.912876
0.645615 0.510800 0.910006
0.783198 0.510800 0.907136
0.920781 0.510800 0.904266
1.000000 0.510800 0.901396
0.000000 0.645800 0.914701
0.103972 0.645800 0.911831
0.241555 0.645800 0.908961
0.379138 0.645800 0.906091
0.516721 0.645800 0.903221
0.654304 0.645800 0.900351
0.791888 0.645800 0.897481
0.929471 0.645800 0.894610
1.000000 0.645800 0.891740
0.000000 0.780800 0.905046
0.112662 0.780800 0.902176
0.250245 0.780800 0.899306
0.387828 0.780800 0.896436
0.525411 0.780800 0.893566
0.662994 0.780800 0.890695
0.800577 0.780800 0.887825
0.938160 0.780800 0.884955
1.000000 0.780800 0.882085
0.000000 0.915800 0.895391
0.121351 0.915800 0.892521
0.258935 0.915800 0.889651
0.396518 0.915800 0.886780
0.534101 0.915800 0.883910
0.671684 0.915800 0.881040
0.809267 0.915800 0.878170
0.946850 0.915800 0.875300
1.000000 0.915800 0.872430
0.000000 1.000000 0.885736
0.130041 1.000000 0.882865
0.267624 1.000000 0.879995
0.405207 1.000000 0.877125
0.542790 1.000000 0.874255
0.680373 1.000000 0.871385
0.817957 1.000000 0.868515
0.955540 1.000000 0.865645
1.000000 1.000000 0.862775
0.000000 0.000000 1.000000
0.061401 0.000000 1.000000
0.198984 0.000000 1.000000
0.336567 0.000000 1.000000
0.474150 0.000000 1.000000
0.611733 0.000000 1.000000
0.749316 0.000000 1.000000
0.886899 0.000000 1.000000
1.000000 0.000000 1.000000
0.000000 0.105800 1.000000
0.070091 0.105800 1.000000
0.207674 0.105800 1.000000
0.345257 0.105800 1.000000
0.482840 0.105800 1.000000
0.620423 0.105800 1.000000
0.758006 0.105800 1.000000
0.895589 0.105800 1.000000
1.000000 0.105800 1.000000
0.000000 0.240800 1.000000
0.078780 0.240800 1.000000
0.216363 0.240800 1.000000
0.353946 0.240800 1.000000
0.491530 0.240800 1.000000
0.629113 0.240800 1.000000
0.766696 0.240800 1.000000
0.904279 0.240800 1.000000
1.000000 0.240800 1.000000
0.000000 0.375800 1.000000
0.087470 0.375800 1.000000
0.225053 0.375800 1.000000
0.362636 0.375800 1.000000
0.500219 0.375800 1.000000
0.637802 0.375800 1.000000
0.775385 0.375800 1.000000
0.912969 0.375800 1.000000
1.000000 0.375800 1.000000
0.000000 0.510800 1.000000
0.096160 0.510800 1.000000
0.233743 0.510800 1.000000
0.371326 0.510800 1.000000
0.508909 0.510800 1.000000
0.646492 0.510800 1.000000
0.784075 0.510800 1.000000
0.921658 0.510800 1.000000
1.000000 0.510800 1.000000
0.000000 0.645800 1.000000
0.104849 0.645800 1.000000
0.242432 0.645800 1.000000
0.380016 0.645800 1.000000
0.517599 0.645800 1.000000
0.655182 0.645800 1.000000
0.792765 0.645800 1.000000
0.930348 0.645800 1.000000
1.000000 0.645800 1.000000
0.000000 0.780800 1.000000
0.113539 0.780800 1.000000
0.251122 0.780800 1.000000
0.388705 0.780800 1.000000
0.526288 0.780800 1.000000
0.663871 0.780800 1.000000
0.801454 0.780800 1.000000
0.939038 0.780800 1.000000
1.000000 0.780800 1.000000
0.000000 0.915800 1.000000
0.122229 0.915800 1.000000
0.259812 0.915800 1.000000
0.397395 0.915800 1.000000
0.534978 0.915800 1.000000
0.672561 0.915800 1.000000
0.810144 0.915800 1.000000
0.947727 0.915800 1.000000
1.000000 0.915800 1.000000
0.000000 1.000000 1.000000
0.130918 1.000000 1.000000
0.268501 1.000000 1.000000
0.406085 1.000000 1.000000
0.543668 1.000000 1.000000
0.681251 1.000000 1.000000
0.818834 1.000000 1.000000
0.956417 1.000000 0.999670
1.000000 1.000000 0.996800
