luts/cool.cube
TITLE "Cool"
LUT_3D_SIZE 33
0.000000 0.000000 0.000000
0.027500 0.000000 0.000000
0.055000 0.000000 0.000000
0.082500 0.000000 0.000000
0.110000 0.000000 0.000000
0.137500 0.000000 0.000000
0.165000 0.000000 0.000000
0.192500 0.000000 0.000000
0.220000 0.000000 0.000000
0.247500 0.000000 0.000000
0.275000 0.000000 0.000000
0.302500 0.000000 0.000000
0.330000 0.000000 0.000000
0.357500 0.000000 0.000000
0.385000 0.000000 0.000000
0.412500 0.000000 0.000000
0.440000 0.000000 0.000000
0.467500 0.000000 0.000000
0.495000 0.000000 0.000000
0.522500 0.000000 0.000000
0.550000 0.000000 0.000000
0.577500 0.000000 0.000000
0.605000 0.000000 0.000000
0.632500 0.000000 0.000000
0.660000 0.000000 0.000000
0.687500 0.000000 0.000000
0.715000 0.000000 0.000000
0.742500 0.000000 0.000000
0.770000 0.000000 0.000000
0.797500 0.000000 0.000000
0.825000 0.000000 0.000000
0.852500 0.000000 0.000000
0.880000 0.000000 0.000000
0.000000 0.031250 0.000000
0.027500 0.031250 0.000000
0.055000 0.031250 0.000000
0.082500 0.031250 0.000000
0.110000 0.031250 0.000000
0.137500 0.031250 0.000000
0.165000 0.031250 0.000000
0.192500 0.031250 0.000000
0.220000 0.031250 0.000000
0.247500 0.031250 0.000000
0.275000 0.031250 0.000000
0.302500 0.031250 0.000000
0.330000 0.031250 0.000000
0.357500 0.031250 0.000000
0.385000 0.031250 0.000000
0.412500 0.031250 0.000000
0.440000 0.031250 0.000000
0.467500 0.031250 0.000000
0.495000 0.031250 0.000000
0.522500 0.031250 0.000000
0.550000 0.031250 0.000000
0.577500 0.031250 0.000000
0.605000 0.031250 0.000000
0.632500 0.031250 0.000000
0.660000 0.031250 0.000000
0.687500 0.031250 0.000000
0.715000 0.031250 0.000000
0.742500 0.031250 0.000000
0.770000 0.031250 0.000000
0.797500 0.031250 0.000000
0.825000 0.031250 0.000000
0.852500 0.031250 0.000000
0.880000 0.031250 0.000000
0.000000 0.062500 0.000000
0.027500 0.062500 0.000000
0.055000 0.062500 0.000000
0.082500 0.062500 0.000000
0.110000 0.062500 0.000000
0.137500 0.062500 0.000000
0.165000 0.062500 0.000000
0.192500 0.062500 0.000000
0.220000 0.062500 0.000000
0.247500 0.062500 0.000000
0.275000 0.062500 0.000000
0.302500 0.062500 0.000000
0.330000 0.062500 0.000000
0.357500 0.062500 0.000000
0.385000 0.062500 0.000000
0.412500 0.062500 0.000000
0.440000 0.062500 0.000000
0.467500 0.062500 0.000000
0.495000 0.062500 0.000000
0.522500 0.062500 0.000000
0.550000 0.062500 0.000000
0.577500 0.062500 0.000000
0.605000 0.062500 0.000000
0.632500 0.062500 0.000000
0.660000 0.062500 0.000000
0.687500 0.062500 0.000000
0.715000 0.062500 0.000000
0.742500 0.062500 0.000000
0.770000 0.062500 0.000000
0.797500 0.062500 0.000000
0.825000 0.062500 0.000000
0.852500 0.062500 0.000000
0.880000 0.062500 0.000000
0.000000 0.093750 0.000000
0.027500 0.093750 0.000000
0.055000 0.093750 0.000000
0.082500 0.093750 0.000000
0.110000 0.093750 0.000000
0.137500 0.093750 0.000000
0.165000 0.093750 0.000000
0.192500 0.093750 0.000000
0.220000 0.093750 0.000000
0.247500 0.093750 0.000000
0.275000 0.093750 0.000000
0.302500 0.093750 0.000000
0.330000 0.093750 0.000000
0.357500 0.093750 0.000000
0.385000 0.093750 0.000000
0.412500 0.093750 0.000000
0.440000 0.093750 0.000000
0.467500 0.093750 0.000000
0.495000 0.093750 0.000000
0.522500 0.093750 0.000000
0.550000 0.093750 0.000000
0.577500 0.093750 0.000000
0.605000 0.093750 0.000000
0.632500 0.093750 0.000000
0.660000 0.093750 0.000000
0.687500 0.093750 0.000000
0.715000 0.093750 0.000000
0.742500 0.093750 0.000000
0.770000 0.093750 0.000000
0.797500 0.093750 0.000000
0.825000 0.093750 0.000000
0.852500 0.093750 0.000000
0.880000 0.093750 0.000000
0.000000 0.125000 0.000000
0.027500 0.125000 0.000000
0.055000 0.125000 0.000000
0.082500 0.125000 0.000000
0.110000 0.125000 0.000000
0.137500 0.125000 0.000000
0.165000 0.125000 0.000000
0.192500 0.125000 0.000000
0.220000 0.125000 0.000000
0.247500 0.125000 0.000000
0.275000 0.125000 0.000000
0.302500 0.125000 0.000000
0.330000 0.125000 0.000000
0.357500 0.125000 0.000000
0.385000 0.125000 0.000000
0.412500 0.125000 0.000000
0.440000 0.125000 0.000000
0.467500 0.125000 0.000000
0.495000 0.125000 0.000000
0.522500 0.125000 0.000000
0.550000 0.125000 0.000000
0.577500 0.125000 0.000000
0.605000 0.125000 0.000000
0.632500 0.125000 0.000000
0.660000 0.125000 0.000000
0.687500 0.125000 0.000000
0.715000 0.125000 0.000000
0.742500 0.125000 0.000000
0.770000 0.125000 0.000000
0.797500 0.125000 0.000000
0.825000 0.125000 0.000000
0.852500 0.125000 0.000000
0.880000 0.125000 0.000000
0.000000 0.156250 0.000000
0.027500 0.156250 0.000000
0.055000 0.156250 0.000000
0.082500 0.156250 0.000000
0.110000 0.156250 0.000000
0.137500 0.156250 0.000000
0.165000 0.156250 0.000000
0.192500 0.156250 0.000000
0.220000 0.156250 0.000000
0.247500 0.156250 0.000000
0.275000 0.156250 0.000000
0.302500 0.156250 0.000000
0.330000 0.156250 0.000000
0.357500 0.156250 0.000000
0.385000 0.156250 0.000000
0.412500 0.156250 0.000000
0.440000 0.156250 0.000000
0.467500 0.156250 0.000000
0.495000 0.156250 0.000000
0.522500 0.156250 0.000000
0.550000 0.156250 0.000000
0.577500 0.156250 0.000000
0.605000 0.156250 0.000000
0.632500 0.156250 0.000000
0.660000 0.156250 0.000000
0.687500 0.156250 0.000000
0.715000 0.156250 0.000000
0.742500 0.156250 0.000000
0.770000 0.156250 0.000000
0.797500 0.156250 0.000000
0.825000 0.156250 0.000000
0.852500 0.156250 0.000000
0.880000 0.156250 0.000000
0.000000 0.187500 0.000000
0.027500 0.187500 0.000000
0.055000 0.187500 0.000000
0.082500 0.187500 0.000000
0.110000 0.187500 0.000000
0.137500 0.187500 0.000000
0.165000 0.187500 0.000000
0.192500 0.187500 0.000000
0.220000 0.187500 0.000000
0.247500 0.187500 0.000000
0.275000 0.187500 0.000000
0.302500 0.187500 0.000000
0.330000 0.187500 0.000000
0.357500 0.187500 0.000000
0.385000 0.187500 0.000000
0.412500 0.187500 0.000000
0.440000 0.187500 0.000000
0.467500 0.187500 0.000000
0.495000 0.187500 0.000000
0.522500 0.187500 0.000000
0.550000 0.187500 0.000000
0.577500 0.187500 0.000000
0.605000 0.187500 0.000000
0.632500 0.187500 0.000000
0.660000 0.187500 0.000000
0.687500 0.187500 0.000000
0.715000 0.187500 0.000000
0.742500 0.187500 0.000000
0.770000 0.187500 0.000000
0.797500 0.187500 0.000000
0.825000 0.187500 0.000000
0.852500 0.187500 0.000000
0.880000 0.187500 0.000000
0.000000 0.218750 0.000000
0.027500 0.218750 0.000000
0.055000 0.218750 0.000000
0.082500 0.218750 0.000000
0.110000 0.218750 0.000000
0.137500 0.218750 0.000000
0.165000 0.218750 0.000000
0.192500 0.218750 0.000000
0.220000 0.218750 0.000000
0.247500 0.218750 0.000000
0.275000 0.218750 0.000000
0.302500 0.218750 0.000000
0.330000 0.218750 0.000000
0.357500 0.218750 0.000000
0.385000 0.218750 0.000000
0.412500 0.218750 0.000000
0.440000 0.218750 0.000000
0.467500 0.218750 0.000000
0.495000 0.218750 0.000000
0.522500 0.218750 0.000000
0.550000 0.218750 0.000000
0.577500 0.218750 0.000000
0.605000 0.218750 0.000000
0.632500 0.218750 0.000000
0.660000 0.218750 0.000000
0.687500 0.218750 0.000000
0.715000 0.218750 0.000000
0.742500 0.218750 0.000000
0.770000 0.218750 0.000000
0.797500 0.218750 0.000000
0.825000 0.218750 0.000000
0.852500 0.218750 0.000000
0.880000 0.218750 0.000000
0.000000 0.250000 0.000000
0.027500 0.250000 0.000000
0.055000 0.250000 0.000000
0.082500 0.250000 0.000000
0.110000 0.250000 0.000000
0.137500 0.250000 0.000000
0.165000 0.250000 0.000000
0.192500 0.250000 0.000000
0.220000 0.250000 0.000000
0.247500 0.250000 0.000000
0.275000 0.250000 0.000000
0.302500 0.250000 0.000000
0.330000 0.250000 0.000000
0.357500 0.250000 0.000000
0.385000 0.250000 0.000000
0.412500 0.250000 0.000000
0.440000 0.250000 0.000000
0.467500 0.250000 0.000000
0.495000 0.250000 0.000000
0.522500 0.250000 0.000000
0.550000 0.250000 0.000000
0.577500 0.250000 0.000000
0.605000 0.250000 0.000000
0.632500 0.250000 0.000000
0.660000 0.250000 0.000000
0.687500 0.250000 0.000000
0.715000 0.250000 0.000000
0.742500 0.250000 0.000000
0.770000 0.250000 0.000000
0.797500 0.250000 0.000000
0.825000 0.250000 0.000000
0.852500 0.250000 0.000000
0.880000 0.250000 0.000000
0.000000 0.281250 0.000000
0.027500 0.281250 0.000000
0.055000 0.281250 0.000000
0.082500 0.281250 0.000000
0.110000 0.281250 0.000000
0.137500 0.281250 0.000000
0.165000 0.281250 0.000000
0.192500 0.281250 0.000000
0.220000 0.281250 0.000000
0.247500 0.281250 0.000000
0.275000 0.281250 0.000000
0.302500 0.281250 0.000000
0.330000 0.281250 0.000000
0.357500 0.281250 0.000000
0.385000 0.281250 0.000000
0.412500 0.281250 0.000000
0.440000 0.281250 0.000000
0.467500 0.281250 0.000000
0.495000 0.281250 0.000000
0.522500 0.281250 0.000000
0.550000 0.281250 0.000000
0.577500 0.281250 0.000000
0.605000 0.281250 0.000000
0.632500 0.281250 0.000000
0.660000 0.281250 0.000000
0.687500 0.281250 0.000000
0.715000 0.281250 0.000000
0.742500 0.281250 0.000000
0.770000 0.281250 0.000000
0.797500 0.281250 0.000000
0.825000 0.281250 0.000000
0.852500 0.281250 0.000000
0.880000 0.281250 0.000000
0.000000 0.312500 0.000000
0.027500 0.312500 0.000000
0.055000 0.312500 0.000000
0.082500 0.312500 0.000000
0.110000 0.312500 0.000000
0.137500 0.312500 0.000000
0.165000 0.312500 0.000000
0.192500 0.312500 0.000000
0.220000 0.312500 0.000000
0.247500 0.312500 0.000000
0.275000 0.312500 0.000000
0.302500 0.312500 0.000000
0.330000 0.312500 0.000000
0.357500 0.312500 0.000000
0.385000 0.312500 0.000000
0.412500 0.312500 0.000000
0.440000 0.312500 0.000000
0.467500 0.312500 0.000000
0.495000 0.312500 0.000000
0.522500 0.312500 0.000000
0.550000 0.312500 0.000000
0.577500 0.312500 0.000000
0.605000 0.312500 0.000000
0.632500 0.312500 0.000000
0.660000 0.312500 0.000000
0.687500 0.312500 0.000000
0.715000 0.312500 0.000000
0.742500 0.312500 0.000000
0.770000 0.312500 0.000000
0.797500 0.312500 0.000000
0.825000 0.312500 0.000000
0.852500 0.312500 0.000000
0.880000 0.312500 0.000000
0.000000 0.343750 0.000000
0.027500 0.343750 0.000000
0.055000 0.343750 0.000000
0.082500 0.343750 0.000000
0.110000 0.343750 0.000000
0.137500 0.343750 0.000000
0.165000 0.343750 0.000000
0.192500 0.343750 0.000000
0.220000 0.343750 0.000000
0.247500 0.343750 0.000000
0.275000 0.343750 0.000000
0.302500 0.343750 0.000000
0.330000 0.343750 0.000000
0.357500 0.343750 0.000000
0.385000 0.343750 0.000000
0.412500 0.343750 0.000000
0.440000 0.343750 0.000000
0.467500 0.343750 0.000000
0.495000 0.343750 0.000000
0.522500 0.343750 0.000000
0.550000 0.343750 0.000000
0.577500 0.343750 0.000000
0.605000 0.343750 0.000000
0.632500 0.343750 0.000000
0.660000 0.343750 0.000000
0.687500 0.343750 0.000000
0.715000 0.343750 0.000000
0.742500 0.343750 0.000000
0.770000 0.343750 0.000000
0.797500 0.343750 0.000000
0.825000 0.343750 0.000000
0.852500 0.343750 0.000000
0.880000 0.343750 0.000000
0.000000 0.375000 0.000000
0.027500 0.375000 0.000000
0.055000 0.375000 0.000000
0.082500 0.375000 0.000000
0.110000 0.375000 0.000000
0.137500 0.375000 0.000000
0.165000 0.375000 0.000000
0.192500 0.375000 0.000000
0.220000 0.375000 0.000000
0.247500 0.375000 0.000000
0.275000 0.375000 0.000000
0.302500 0.375000 0.000000
0.330000 0.375000 0.000000
0.357500 0.375000 0.000000
0.385000 0.375000 0.000000
0.412500 0.375000 0.000000
0.440000 0.375000 0.000000
0.467500 0.375000 0.000000
0.495000 0.375000 0.000000
0.522500 0.375000 0.000000
0.550000 0.375000 0.000000
0.577500 0.375000 0.000000
0.605000 0.375000 0.000000
0.632500 0.375000 0.000000
0.660000 0.375000 0.000000
0.687500 0.375000 0.000000
0.715000 0.375000 0.000000
0.742500 0.375000 0.000000
0.770000 0.375000 0.000000
0.797500 0.375000 0.000000
0.825000 0.375000 0.000000
0.852500 0.375000 0.000000
0.880000 0.375000 0.000000
0.000000 0.406250 0.000000
0.027500 0.406250 0.000000
0.055000 0.406250 0.000000
0.082500 0.406250 0.000000
0.110000 0.406250 0.000000
0.137500 0.406250 0.000000
0.165000 0.406250 0.000000
0.192500 0.406250 0.000000
0.220000 0.406250 0.000000
0.247500 0.406250 0.000000
0.275000 0.406250 0.000000
0.302500 0.406250 0.000000
0.330000 0.406250 0.000000
0.357500 0.406250 0.000000
0.385000 0.406250 0.000000
0.412500 0.406250 0.000000
0.440000 0.406250 0.000000
0.467500 0.406250 0.000000
0.495000 0.406250 0.000000
0.522500 0.406250 0.000000
0.550000 0.406250 0.000000
0.577500 0.406250 0.000000
0.605000 0.406250 0.000000
0.632500 0.406250 0.000000
0.660000 0.406250 0.000000
0.687500 0.406250 0.000000
0.715000 0.406250 0.000000
0.742500 0.406250 0.000000
0.770000 0.406250 0.000000
0.797500 0.406250 0.000000
0.825000 0.406250 0.000000
0.852500 0.406250 0.000000
0.880000 0.406250 0.000000
0.000000 0.437500 0.000000
0.027500 0.437500 0.000000
0.055000 0.437500 0.000000
0.082500 0.437500 0.000000
0.110000 0.437500 0.000000
0.137500 0.437500 0.000000
0.165000 0.437500 0.000000
0.192500 0.437500 0.000000
0.220000 0.437500 0.000000
0.247500 0.437500 0.000000
0.275000 0.437500 0.000000
0.302500 0.437500 0.000000
0.330000 0.437500 0.000000
0.357500 0.437500 0.000000
0.385000 0.437500 0.000000
0.412500 0.437500 0.000000
0.440000 0.437500 0.000000
0.467500 0.437500 0.000000
0.495000 0.437500 0.000000
0.522500 0.437500 0.000000
0.550000 0.437500 0.000000
0.577500 0.437500 0.000000
0.605000 0.437500 0.000000
0.632500 0.437500 0.000000
0.660000 0.437500 0.000000
0.687500 0.437500 0.000000
0.715000 0.437500 0.000000
0.742500 0.437500 0.000000
0.770000 0.437500 0.000000
0.797500 0.437500 0.000000
0.825000 0.437500 0.000000
0.852500 0.437500 0.000000
0.880000 0.437500 0.000000
0.000000 0.468750 0.000000
0.027500 0.468750 0.000000
0.055000 0.468750 0.000000
0.082500 0.468750 0.000000
0.110000 0.468750 0.000000
0.137500 0.468750 0.000000
0.165000 0.468750 0.000000
0.192500 0.468750 0.000000
0.220000 0.468750 0.000000
0.247500 0.468750 0.000000
0.275000 0.468750 0.000000
0.302500 0.468750 0.000000
0.330000 0.468750 0.000000
0.357500 0.468750 0.000000
0.385000 0.468750 0.000000
0.412500 0.468750 0.000000
0.440000 0.468750 0.000000
0.467500 0.468750 0.000000
0.495000 0.468750 0.000000
0.522500 0.468750 0.000000
0.550000 0.468750 0.000000
0.577500 0.468750 0.000000
0.605000 0.468750 0.000000
0.632500 0.468750 0.000000
0.660000 0.468750 0.000000
0.687500 0.468750 0.000000
0.715000 0.468750 0.000000
0.742500 0.468750 0.000000
0.770000 0.468750 0.000000
0.797500 0.468750 0.000000
0.825000 0.468750 0.000000
0.852500 0.468750 0.000000
0.880000 0.468750 0.000000
0.000000 0.500000 0.000000
0.027500 0.500000 0.000000
0.055000 0.500000 0.000000
0.082500 0.500000 0.000000
0.110000 0.500000 0.000000
0.137500 0.500000 0.000000
0.165000 0.500000 0.000000
0.192500 0.500000 0.000000
0.220000 0.500000 0.000000
0.247500 0.500000 0.000000
0.275000 0.500000 0.000000
0.302500 0.500000 0.000000
0.330000 0.500000 0.000000
0.357500 0.500000 0.000000
0.385000 0.500000 0.000000
0.412500 0.500000 0.000000
0.440000 0.500000 0.000000
0.467500 0.500000 0.000000
0.495000 0.500000 0.000000
0.522500 0.500000 0.000000
0.550000 0.500000 0.000000
0.577500 0.500000 0.000000
0.605000 0.500000 0.000000
0.632500 0.500000 0.000000
0.660000 0.500000 0.000000
0.687500 0.500000 0.000000
0.715000 0.500000 0.000000
0.742500 0.500000 0.000000
0.770000 0.500000 0.000000
0.797500 0.500000 0.000000
0.825000 0.500000 0.000000
0.852500 0.500000 0.000000
0.880000 0.500000 0.000000
0.000000 0.531250 0.000000
0.027500 0.531250 0.000000
0.055000 0.531250 0.000000
0.082500 0.531250 0.000000
0.110000 0.531250 0.000000
0.137500 0.531250 0.000000
0.165000 0.531250 0.000000
0.192500 0.531250 0.000000
0.220000 0.531250 0.000000
0.247500 0.531250 0.000000
0.275000 0.531250 0.000000
0.302500 0.531250 0.000000
0.330000 0.531250 0.000000
0.357500 0.531250 0.000000
0.385000 0.531250 0.000000
0.412500 0.531250 0.000000
0.440000 0.531250 0.000000
0.467500 0.531250 0.000000
0.495000 0.531250 0.000000
0.522500 0.531250 0.000000
0.550000 0.531250 0.000000
0.577500 0.531250 0.000000
0.605000 0.531250 0.000000
0.632500 0.531250 0.000000
0.660000 0.531250 0.000000
0.687500 0.531250 0.000000
0.715000 0.531250 0.000000
0.742500 0.531250 0.000000
0.770000 0.531250 0.000000
0.797500 0.531250 0.000000
0.825000 0.531250 0.000000
0.852500 0.531250 0.000000
0.880000 0.531250 0.000000
0.000000 0.562500 0.000000
0.027500 0.562500 0.000000
0.055000 0.562500 0.000000
0.082500 0.562500 0.000000
0.110000 0.562500 0.000000
0.137500 0.562500 0.000000
0.165000 0.562500 0.000000
0.192500 0.562500 0.000000
0.220000 0.562500 0.000000
0.247500 0.562500 0.000000
0.275000 0.562500 0.000000
0.302500 0.562500 0.000000
0.330000 0.562500 0.000000
0.357500 0.562500 0.000000
0.385000 0.562500 0.000000
0.412500 0.562500 0.000000
0.440000 0.562500 0.000000
0.467500 0.562500 0.000000
0.495000 0.562500 0.000000
0.522500 0.562500 0.000000
0.550000 0.562500 0.000000
0.577500 0.562500 0.000000
0.605000 0.562500 0.000000
0.632500 0.562500 0.000000
0.660000 0.562500 0.000000
0.687500 0.562500 0.000000
0.715000 0.562500 0.000000
0.742500 0.562500 0.000000
0.770000 0.562500 0.000000
0.797500 0.562500 0.000000
0.825000 0.562500 0.000000
0.852500 0.562500 0.000000
0.880000 0.562500 0.000000
0.000000 0.593750 0.000000
0.027500 0.593750 0.000000
0.055000 0.593750 0.000000
0.082500 0.593750 0.000000
0.110000 0.593750 0.000000
0.137500 0.593750 0.000000
0.165000 0.593750 0.000000
0.192500 0.593750 0.000000
0.220000 0.593750 0.000000
0.247500 0.593750 0.000000
0.275000 0.593750 0.000000
0.302500 0.593750 0.000000
0.330000 0.593750 0.000000
0.357500 0.593750 0.000000
0.385000 0.593750 0.000000
0.412500 0.593750 0.000000
0.440000 0.593750 0.000000
0.467500 0.593750 0.000000
0.495000 0.593750 0.000000
0.522500 0.593750 0.000000
0.550000 0.593750 0.000000
0.577500 0.593750 0.000000
0.605000 0.593750 0.000000
0.632500 0.593750 0.000000
0.660000 0.593750 0.000000
0.687500 0.593750 0.000000
0.715000 0.593750 0.000000
0.742500 0.593750 0.000000
0.770000 0.593750 0.000000
0.797500 0.593750 0.000000
0.825000 0.593750 0.000000
0.852500 0.593750 0.000000
0.880000 0.593750 0.000000
0.000000 0.625000 0.000000
0.027500 0.625000 0.000000
0.055000 0.625000 0.000000
0.082500 0.625000 0.000000
0.110000 0.625000 0.000000
0.137500 0.625000 0.000000
0.165000 0.625000 0.000000
0.192500 0.625000 0.000000
0.220000 0.625000 0.000000
0.247500 0.625000 0.000000
0.275000 0.625000 0.000000
0.302500 0.625000 0.000000
0.330000 0.625000 0.000000
0.357500 0.625000 0.000000
0.385000 0.625000 0.000000
0.412500 0.625000 0.000000
0.440000 0.625000 0.000000
0.467500 0.625000 0.000000
0.495000 0.625000 0.000000
0.522500 0.625000 0.000000
0.550000 0.625000 0.000000
0.577500 0.625000 0.000000
0.605000 0.625000 0.000000
0.632500 0.625000 0.000000
0.660000 0.625000 0.000000
0.687500 0.625000 0.000000
0.715000 0.625000 0.000000
0.742500 0.625000 0.000000
0.770000 0.625000 0.000000
0.797500 0.625000 0.000000
0.825000 0.625000 0.000000
0.852500 0.625000 0.000000
0.880000 0.625000 0.000000
0.000000 0.656250 0.000000
0.027500 0.656250 0.000000
0.055000 0.656250 0.000000
0.082500 0.656250 0.000000
0.110000 0.656250 0.000000
0.137500 0.656250 0.000000
0.165000 0.656250 0.000000
0.192500 0.656250 0.000000
0.220000 0.656250 0.000000
0.247500 0.656250 0.000000
0.275000 0.656250 0.000000
0.302500 0.656250 0.000000
0.330000 0.656250 0.000000
0.357500 0.656250 0.000000
0.385000 0.656250 0.000000
0.412500 0.656250 0.000000
0.440000 0.656250 0.000000
0.467500 0.656250 0.000000
0.495000 0.656250 0.000000
0.522500 0.656250 0.000000
0.550000 0.656250 0.000000
0.577500 0.656250 0.000000
0.605000 0.656250 0.000000
0.632500 0.656250 0.000000
0.660000 0.656250 0.000000
0.687500 0.656250 0.000000
0.715000 0.656250 0.000000
0.742500 0.656250 0.000000
0.770000 0.656250 0.000000
0.797500 0.656250 0.000000
0.825000 0.656250 0.000000
0.852500 0.656250 0.000000
0.880000 0.656250 0.000000
0.000000 0.687500 0.000000
0.027500 0.687500 0.000000
0.055000 0.687500 0.000000
0.082500 0.687500 0.000000
0.110000 0.687500 0.000000
0.137500 0.687500 0.000000
0.165000 0.687500 0.000000
0.192500 0.687500 0.000000
0.220000 0.687500 0.000000
0.247500 0.687500 0.000000
0.275000 0.687500 0.000000
0.302500 0.687500 0.000000
0.330000 0.687500 0.000000
0.357500 0.687500 0.000000
0.385000 0.687500 0.000000
0.412500 0.687500 0.000000
0.440000 0.687500 0.000000
0.467500 0.687500 0.000000
0.495000 0.687500 0.000000
0.522500 0.687500 0.000000
0.550000 0.687500 0.000000
0.577500 0.687500 0.000000
0.605000 0.687500 0.000000
0.632500 0.687500 0.000000
0.660000 0.687500 0.000000
0.687500 0.687500 0.000000
0.715000 0.687500 0.000000
0.742500 0.687500 0.000000
0.770000 0.687500 0.000000
0.797500 0.687500 0.000000
0.825000 0.687500 0.000000
0.852500 0.687500 0.000000
0.880000 0.687500 0.000000
0.000000 0.718750 0.000000
0.027500 0.718750 0.000000
0.055000 0.718750 0.000000
0.082500 0.718750 0.000000
0.110000 0.718750 0.000000
0.137500 0.718750 0.000000
0.165000 0.718750 0.000000
0.192500 0.718750 0.000000
0.220000 0.718750 0.000000
0.247500 0.718750 0.000000
0.275000 0.718750 0.000000
0.302500 0.718750 0.000000
0.330000 0.718750 0.000000
0.357500 0.718750 0.000000
0.385000 0.718750 0.000000
0.412500 0.718750 0.000000
0.440000 0.718750 0.000000
0.467500 0.718750 0.000000
0.495000 0.718750 0.000000
0.522500 0.718750 0.000000
0.550000 0.718750 0.000000
0.577500 0.718750 0.000000
0.605000 0.718750 0.000000
0.632500 0.718750 0.000000
0.660000 0.718750 0.000000
0.687500 0.718750 0.000000
0.715000 0.718750 0.000000
0.742500 0.718750 0.000000
0.770000 0.718750 0.000000
0.797500 0.718750 0.000000
0.825000 0.718750 0.000000
0.852500 0.718750 0.000000
0.880000 0.718750 0.000000
0.000000 0.750000 0.000000
0.027500 0.750000 0.000000
0.055000 0.750000 0.000000
0.082500 0.750000 0.000000
0.110000 0.750000 0.000000
0.137500 0.750000 0.000000
0.165000 0.750000 0.000000
0.192500 0.750000 0.000000
0.220000 0.750000 0.000000
0.247500 0.750000 0.000000
0.275000 0.750000 0.000000
0.302500 0.750000 0.000000
0.330000 0.750000 0.000000
0.357500 0.750000 0.000000
0.385000 0.750000 0.000000
0.412500 0.750000 0.000000
0.440000 0.750000 0.000000
0.467500 0.750000 0.000000
0.495000 0.750000 0.000000
0.522500 0.750000 0.000000
0.550000 0.750000 0.000000
0.577500 0.750000 0.000000
0.605000 0.750000 0.000000
0.632500 0.750000 0.000000
0.660000 0.750000 0.000000
0.687500 0.750000 0.000000
0.715000 0.750000 0.000000
0.742500 0.750000 0.000000
0.770000 0.750000 0.000000
0.797500 0.750000 0.000000
0.825000 0.750000 0.000000
0.852500 0.750000 0.000000
0.880000 0.750000 0.000000
0.000000 0.781250 0.000000
0.027500 0.781250 0.000000
0.055000 0.781250 0.000000
0.082500 0.781250 0.000000
0.110000 0.781250 0.000000
0.137500 0.781250 0.000000
0.165000 0.781250 0.000000
0.192500 0.781250 0.000000
0.220000 0.781250 0.000000
0.247500 0.781250 0.000000
0.275000 0.781250 0.000000
0.302500 0.781250 0.000000
0.330000 0.781250 0.000000
0.357500 0.781250 0.000000
0.385000 0.781250 0.000000
0.412500 0.781250 0.000000
0.440000 0.781250 0.000000
0.467500 0.781250 0.000000
0.495000 0.781250 0.000000
0.522500 0.781250 0.000000
0.550000 0.781250 0.000000
0.577500 0.781250 0.000000
0.605000 0.781250 0.000000
0.632500 0.781250 0.000000
0.660000 0.781250 0.000000
0.687500 0.781250 0.000000
0.715000 0.781250 0.000000
0.742500 0.781250 0.000000
0.770000 0.781250 0.000000
0.797500 0.781250 0.000000
0.825000 0.781250 0.000000
0.852500 0.781250 0.000000
0.880000 0.781250 0.000000
0.000000 0.812500 0.000000
0.027500 0.812500 0.000000
0.055000 0.812500 0.000000
0.082500 0.812500 0.000000
0.110000 0.812500 0.000000
0.137500 0.812500 0.000000
0.165000 0.812500 0.000000
0.192500 0.812500 0.000000
0.220000 0.812500 0.000000
0.247500 0.812500 0.000000
0.275000 0.812500 0.000000
0.302500 0.812500 0.000000
0.330000 0.812500 0.000000
0.357500 0.812500 0.000000
0.385000 0.812500 0.000000
0.412500 0.812500 0.000000
0.440000 0.812500 0.000000
0.467500 0.812500 0.000000
0.495000 0.812500 0.000000
0.522500 0.812500 0.000000
0.550000 0.812500 0.000000
0.577500 0.812500 0.000000
0.605000 0.812500 0.000000
0.632500 0.812500 0.000000
0.660000 0.812500 0.000000
0.687500 0.812500 0.000000
0.715000 0.812500 0.000000
0.742500 0.812500 0.000000
0.770000 0.812500 0.000000
