luts/fresh.cube
TITLE "Fresh"
LUT_3D_SIZE 5
0.028500 0.040800 0.029400
0.266000 0.040800 0.029400
0.503500 0.040800 0.029400
0.741000 0.040800 0.029400
0.978500 0.040800 0.029400
0.028500 0.295800 0.029400
0.266000 0.295800 0.029400
0.503500 0.295800 0.029400
0.741000 0.295800 0.029400
0.978500 0.295800 0.029400
0.028500 0.550800 0.029400
0.266000 0.550800 0.029400
0.503500 0.550800 0.029400
0.741000 0.550800 0.029400
0.978500 0.550800 0.029400
0.028500 0.805800 0.029400
0.266000 0.805800 0.029400
0.503500 0.805800 0.029400
0.741000 0.805800 0.029400
0.978500 0.805800 0.029400
0.028500 1.000000 0.029400
0.266000 1.000000 0.029400
0.503500 1.000000 0.029400
0.741000 1.000000 0.029400
0.978500 1.000000 0.029400
0.028500 0.040800 0.274400
0.266000 0.040800 0.274400
0.503500 0.040800 0.274400
0.741000 0.040800 0.274400
0.978500 0.040800 0.274400
0.028500 0.295800 0.274400
0.266000 0.295800 0.274400
0.503500 0.295800 0.274400
0.741000 0.295800 0.274400
0.978500 0.295800 0.274400
0.028500 0.550800 0.274400
0.266000 0.550800 0.274400
0.503500 0.550800 0.274400
0.741000 0.550800 0.274400
0.978500 0.550800 0.274400
0.028500 0.805800 0.274400
0.266000 0.805800 0.274400
0.503500 0.805800 0.274400
0.741000 0.805800 0.274400
0.978500 0.805800 0.274400
0.028500 1.000000 0.274400
0.266000 1.000000 0.274400
0.503500 1.000000 0.274400
0.741000 1.000000 0.274400
0.978500 1.000000 0.274400
0.028500 0.040800 0.519400
0.266000 0.040800 0.519400
0.503500 0.040800 0.519400
0.741000 0.040800 0.519400
0.978500 0.040800 0.519400
0.028500 0.295800 0.519400
0.266000 0.295800 0.519400
0.503500 0.295800 0.519400
0.741000 0.295800 0.519400
0.978500 0.295800 0.519400
0.028500 0.550800 0.519400
0.266000 0.550800 0.519400
0.503500 0.550800 0.519400
0.741000 0.550800 0.519400
0.978500 0.550800 0.519400
0.028500 0.805800 0.519400
0.266000 0.805800 0.519400
0.503500 0.805800 0.519400
0.741000 0.805800 0.519400
0.978500 0.805800 0.519400
0.028500 1.000000 0.519400
0.266000 1.000000 0.519400
0.503500 1.000000 0.519400
0.741000 1.000000 0.519400
0.978500 1.000000 0.519400
0.028500 0.040800 0.764400
0.266000 0.040800 0.764400
0.503500 0.040800 0.764400
0.741000 0.040800 0.764400
0.978500 0.040800 0.764400
0.028500 0.295800 0.764400
0.266000 0.295800 0.764400
0.503500 0.295800 0.764400
0.741000 0.295800 0.764400
0.978500 0.295800 0.764400
0.028500 0.550800 0.764400
0.266000 0.550800 0.764400
0.503500 0.550800 0.764400
0.741000 0.550800 0.764400
0.978500 0.550800 0.764400
0.028500 0.805800 0.764400
0.266000 0.805800 0.764400
0.503500 0.805800 0.764400
0.741000 0.805800 0.764400
0.978500 0.805800 0.764400
0.028500 1.000000 0.764400
0.266000 1.000000 0.764400
0.503500 1.000000 0.764400
0.741000 1.000000 0.764400
0.978500 1.000000 0.764400
0.028500 0.040800 1.000000
0.266000 0.040800 1.000000
0.503500 0.040800 1.000000
0.741000 0.040800 1.000000
0.978500 0.040800 1.000000
0.028500 0.295800 1.000000
0.266000 0.295800 1.000000
0.503500 0.295800 1.000000
0.741000 0.295800 1.000000
0.978500 0.295800 1.000000
0.028500 0.550800 1.000000
0.266000 0.550800 1.000000
0.503500 0.550800 1.000000
0.741000 0.550800 1.000000
0.978500 0.550800 1.000000
0.028500 0.805800 1.000000
0.266000 0.805800 1.000000
0.503500 0.805800 1.000000
0.741000 0.805800 1.000000
0.978500 0.805800 1.000000
0.028500 1.000000 1.000000
0.266000 1.000000 1.000000
0.503500 1.000000 1.000000
0.741000 1.000000 1.000000
0.978500 1.000000 1.000000
