luts/fresh.cube
TITLE "Fresh"
LUT_3D_SIZE 33
0.028500 0.040800 0.029400
0.058187 0.040800 0.029400
0.087875 0.040800 0.029400
0.117563 0.040800 0.029400
0.147250 0.040800 0.029400
0.176937 0.040800 0.029400
0.206625 0.040800 0.029400
0.236312 0.040800 0.029400
0.266000 0.040800 0.029400
0.295687 0.040800 0.029400
0.325375 0.040800 0.029400
0.355063 0.040800 0.029400
0.384750 0.040800 0.029400
0.414438 0.040800 0.029400
0.444125 0.040800 0.029400
0.473813 0.040800 0.029400
0.503500 0.040800 0.029400
0.533188 0.040800 0.029400
0.562875 0.040800 0.029400
0.592562 0.040800 0.029400
0.622250 0.040800 0.029400
0.651937 0.040800 0.029400
0.681625 0.040800 0.029400
0.711313 0.040800 0.029400
0.741000 0.040800 0.029400
0.770687 0.040800 0.029400
0.800375 0.040800 0.029400
0.830063 0.040800 0.029400
0.859750 0.040800 0.029400
0.889437 0.040800 0.029400
0.919125 0.040800 0.029400
0.948812 0.040800 0.029400
0.978500 0.040800 0.029400
0.028500 0.072675 0.029400
0.058187 0.072675 0.029400
0.087875 0.072675 0.029400
0.117563 0.072675 0.029400
0.147250 0.072675 0.029400
0.176937 0.072675 0.029400
0.206625 0.072675 0.029400
0.236312 0.072675 0.029400
0.266000 0.072675 0.029400
0.295687 0.072675 0.029400
0.325375 0.072675 0.029400
0.355063 0.072675 0.029400
0.384750 0.072675 0.029400
0.414438 0.072675 0.029400
0.444125 0.072675 0.029400
0.473813 0.072675 0.029400
0.503500 0.072675 0.029400
0.533188 0.072675 0.029400
0.562875 0.072675 0.029400
0.592562 0.072675 0.029400
0.622250 0.072675 0.029400
0.651937 0.072675 0.029400
0.681625 0.072675 0.029400
0.711313 0.072675 0.029400
0.741000 0.072675 0.029400
0.770687 0.072675 0.029400
0.800375 0.072675 0.029400
0.830063 0.072675 0.029400
0.859750 0.072675 0.029400
0.889437 0.072675 0.029400
0.919125 0.072675 0.029400
0.948812 0.072675 0.029400
0.978500 0.072675 0.029400
0.028500 0.104550 0.029400
0.058187 0.104550 0.029400
0.087875 0.104550 0.029400
0.117563 0.104550 0.029400
0.147250 0.104550 0.029400
0.176937 0.104550 0.029400
0.206625 0.104550 0.029400
0.236312 0.104550 0.029400
0.266000 0.104550 0.029400
0.295687 0.104550 0.029400
0.325375 0.104550 0.029400
0.355063 0.104550 0.029400
0.384750 0.104550 0.029400
0.414438 0.104550 0.029400
0.444125 0.104550 0.029400
0.473813 0.104550 0.029400
0.503500 0.104550 0.029400
0.533188 0.104550 0.029400
0.562875 0.104550 0.029400
0.592562 0.104550 0.029400
0.622250 0.104550 0.029400
0.651937 0.104550 0.029400
0.681625 0.104550 0.029400
0.711313 0.104550 0.029400
0.741000 0.104550 0.029400
0.770687 0.104550 0.029400
0.800375 0.104550 0.029400
0.830063 0.104550 0.029400
0.859750 0.104550 0.029400
0.889437 0.104550 0.029400
0.919125 0.104550 0.029400
0.948812 0.104550 0.029400
0.978500 0.104550 0.029400
0.028500 0.136425 0.029400
0.058187 0.136425 0.029400
0.087875 0.136425 0.029400
0.117563 0.136425 0.029400
0.147250 0.136425 0.029400
0.176937 0.136425 0.029400
0.206625 0.136425 0.029400
0.236312 0.136425 0.029400
0.266000 0.136425 0.029400
0.295687 0.136425 0.029400
0.325375 0.136425 0.029400
0.355063 0.136425 0.029400
0.384750 0.136425 0.029400
0.414438 0.136425 0.029400
0.444125 0.136425 0.029400
0.473813 0.136425 0.029400
0.503500 0.136425 0.029400
0.533188 0.136425 0.029400
0.562875 0.136425 0.029400
0.592562 0.136425 0.029400
0.622250 0.136425 0.029400
0.651937 0.136425 0.029400
0.681625 0.136425 0.029400
0.711313 0.136425 0.029400
0.741000 0.136425 0.029400
0.770687 0.136425 0.029400
0.800375 0.136425 0.029400
0.830063 0.136425 0.029400
0.859750 0.136425 0.029400
0.889437 0.136425 0.029400
0.919125 0.136425 0.029400
0.948812 0.136425 0.029400
0.978500 0.136425 0.029400
0.028500 0.168300 0.029400
0.058187 0.168300 0.029400
0.087875 0.168300 0.029400
0.117563 0.168300 0.029400
0.147250 0.168300 0.029400
0.176937 0.168300 0.029400
0.206625 0.168300 0.029400
0.236312 0.168300 0.029400
0.266000 0.168300 0.029400
0.295687 0.168300 0.029400
0.325375 0.168300 0.029400
0.355063 0.168300 0.029400
0.384750 0.168300 0.029400
0.414438 0.168300 0.029400
0.444125 0.168300 0.029400
0.473813 0.168300 0.029400
0.503500 0.168300 0.029400
0.533188 0.168300 0.029400
0.562875 0.168300 0.029400
0.592562 0.168300 0.029400
0.622250 0.168300 0.029400
0.651937 0.168300 0.029400
0.681625 0.168300 0.029400
0.711313 0.168300 0.029400
0.741000 0.168300 0.029400
0.770687 0.168300 0.029400
0.800375 0.168300 0.029400
0.830063 0.168300 0.029400
0.859750 0.168300 0.029400
0.889437 0.168300 0.029400
0.919125 0.168300 0.029400
0.948812 0.168300 0.029400
0.978500 0.168300 0.029400
0.028500 0.200175 0.029400
0.058187 0.200175 0.029400
0.087875 0.200175 0.029400
0.117563 0.200175 0.029400
0.147250 0.200175 0.029400
0.176937 0.200175 0.029400
0.206625 0.200175 0.029400
0.236312 0.200175 0.029400
0.266000 0.200175 0.029400
0.295687 0.200175 0.029400
0.325375 0.200175 0.029400
0.355063 0.200175 0.029400
0.384750 0.200175 0.029400
0.414438 0.200175 0.029400
0.444125 0.200175 0.029400
0.473813 0.200175 0.029400
0.503500 0.200175 0.029400
0.533188 0.200175 0.029400
0.562875 0.200175 0.029400
0.592562 0.200175 0.029400
0.622250 0.200175 0.029400
0.651937 0.200175 0.029400
0.681625 0.200175 0.029400
0.711313 0.200175 0.029400
0.741000 0.200175 0.029400
0.770687 0.200175 0.029400
0.800375 0.200175 0.029400
0.830063 0.200175 0.029400
0.859750 0.200175 0.029400
0.889437 0.200175 0.029400
0.919125 0.200175 0.029400
0.948812 0.200175 0.029400
0.978500 0.200175 0.029400
0.028500 0.232050 0.029400
0.058187 0.232050 0.029400
0.087875 0.232050 0.029400
0.117563 0.232050 0.029400
0.147250 0.232050 0.029400
0.176937 0.232050 0.029400
0.206625 0.232050 0.029400
0.236312 0.232050 0.029400
0.266000 0.232050 0.029400
0.295687 0.232050 0.029400
0.325375 0.232050 0.029400
0.355063 0.232050 0.029400
0.384750 0.232050 0.029400
0.414438 0.232050 0.029400
0.444125 0.232050 0.029400
0.473813 0.232050 0.029400
0.503500 0.232050 0.029400
0.533188 0.232050 0.029400
0.562875 0.232050 0.029400
0.592562 0.232050 0.029400
0.622250 0.232050 0.029400
0.651937 0.232050 0.029400
0.681625 0.232050 0.029400
0.711313 0.232050 0.029400
0.741000 0.232050 0.029400
0.770687 0.232050 0.029400
0.800375 0.232050 0.029400
0.830063 0.232050 0.029400
0.859750 0.232050 0.029400
0.889437 0.232050 0.029400
0.919125 0.232050 0.029400
0.948812 0.232050 0.029400
0.978500 0.232050 0.029400
0.028500 0.263925 0.029400
0.058187 0.263925 0.029400
0.087875 0.263925 0.029400
0.117563 0.263925 0.029400
0.147250 0.263925 0.029400
0.176937 0.263925 0.029400
0.206625 0.263925 0.029400
0.236312 0.263925 0.029400
0.266000 0.263925 0.029400
0.295687 0.263925 0.029400
0.325375 0.263925 0.029400
0.355063 0.263925 0.029400
0.384750 0.263925 0.029400
0.414438 0.263925 0.029400
0.444125 0.263925 0.029400
0.473813 0.263925 0.029400
0.503500 0.263925 0.029400
0.533188 0.263925 0.029400
0.562875 0.263925 0.029400
0.592562 0.263925 0.029400
0.622250 0.263925 0.029400
0.651937 0.263925 0.029400
0.681625 0.263925 0.029400
0.711313 0.263925 0.029400
0.741000 0.263925 0.029400
0.770687 0.263925 0.029400
0.800375 0.263925 0.029400
0.830063 0.263925 0.029400
0.859750 0.263925 0.029400
0.889437 0.263925 0.029400
0.919125 0.263925 0.029400
0.948812 0.263925 0.029400
0.978500 0.263925 0.029400
0.028500 0.295800 0.029400
0.058187 0.295800 0.029400
0.087875 0.295800 0.029400
0.117563 0.295800 0.029400
0.147250 0.295800 0.029400
0.176937 0.295800 0.029400
0.206625 0.295800 0.029400
0.236312 0.295800 0.029400
0.266000 0.295800 0.029400
0.295687 0.295800 0.029400
0.325375 0.295800 0.029400
0.355063 0.295800 0.029400
0.384750 0.295800 0.029400
0.414438 0.295800 0.029400
0.444125 0.295800 0.029400
0.473813 0.295800 0.029400
0.503500 0.295800 0.029400
0.533188 0.295800 0.029400
0.562875 0.295800 0.029400
0.592562 0.295800 0.029400
0.622250 0.295800 0.029400
0.651937 0.295800 0.029400
0.681625 0.295800 0.029400
0.711313 0.295800 0.029400
0.741000 0.295800 0.029400
0.770687 0.295800 0.029400
0.800375 0.295800 0.029400
0.830063 0.295800 0.029400
0.859750 0.295800 0.029400
0.889437 0.295800 0.029400
0.919125 0.295800 0.029400
0.948812 0.295800 0.029400
0.978500 0.295800 0.029400
0.028500 0.327675 0.029400
0.058187 0.327675 0.029400
0.087875 0.327675 0.029400
0.117563 0.327675 0.029400
0.147250 0.327675 0.029400
0.176937 0.327675 0.029400
0.206625 0.327675 0.029400
0.236312 0.327675 0.029400
0.266000 0.327675 0.029400
0.295687 0.327675 0.029400
0.325375 0.327675 0.029400
0.355063 0.327675 0.029400
0.384750 0.327675 0.029400
0.414438 0.327675 0.029400
0.444125 0.327675 0.029400
0.473813 0.327675 0.029400
0.503500 0.327675 0.029400
0.533188 0.327675 0.029400
0.562875 0.327675 0.029400
0.592562 0.327675 0.029400
0.622250 0.327675 0.029400
0.651937 0.327675 0.029400
0.681625 0.327675 0.029400
0.711313 0.327675 0.029400
0.741000 0.327675 0.029400
0.770687 0.327675 0.029400
0.800375 0.327675 0.029400
0.830063 0.327675 0.029400
0.859750 0.327675 0.029400
0.889437 0.327675 0.029400
0.919125 0.327675 0.029400
0.948812 0.327675 0.029400
0.978500 0.327675 0.029400
0.028500 0.359550 0.029400
0.058187 0.359550 0.029400
0.087875 0.359550 0.029400
0.117563 0.359550 0.029400
0.147250 0.359550 0.029400
0.176937 0.359550 0.029400
0.206625 0.359550 0.029400
0.236312 0.359550 0.029400
0.266000 0.359550 0.029400
0.295687 0.359550 0.029400
0.325375 0.359550 0.029400
0.355063 0.359550 0.029400
0.384750 0.359550 0.029400
0.414438 0.359550 0.029400
0.444125 0.359550 0.029400
0.473813 0.359550 0.029400
0.503500 0.359550 0.029400
0.533188 0.359550 0.029400
0.562875 0.359550 0.029400
0.592562 0.359550 0.029400
0.622250 0.359550 0.029400
0.651937 0.359550 0.029400
0.681625 0.359550 0.029400
0.711313 0.359550 0.029400
0.741000 0.359550 0.029400
0.770687 0.359550 0.029400
0.800375 0.359550 0.029400
0.830063 0.359550 0.029400
0.859750 0.359550 0.029400
0.889437 0.359550 0.029400
0.919125 0.359550 0.029400
0.948812 0.359550 0.029400
0.978500 0.359550 0.029400
0.028500 0.391425 0.029400
0.058187 0.391425 0.029400
0.087875 0.391425 0.029400
0.117563 0.391425 0.029400
0.147250 0.391425 0.029400
0.176937 0.391425 0.029400
0.206625 0.391425 0.029400
0.236312 0.391425 0.029400
0.266000 0.391425 0.029400
0.295687 0.391425 0.029400
0.325375 0.391425 0.029400
0.355063 0.391425 0.029400
0.384750 0.391425 0.029400
0.414438 0.391425 0.029400
0.444125 0.391425 0.029400
0.473813 0.391425 0.029400
0.503500 0.391425 0.029400
0.533188 0.391425 0.029400
0.562875 0.391425 0.029400
0.592562 0.391425 0.029400
0.622250 0.391425 0.029400
0.651937 0.391425 0.029400
0.681625 0.391425 0.029400
0.711313 0.391425 0.029400
0.741000 0.391425 0.029400
0.770687 0.391425 0.029400
0.800375 0.391425 0.029400
0.830063 0.391425 0.029400
0.859750 0.391425 0.029400
0.889437 0.391425 0.029400
0.919125 0.391425 0.029400
0.948812 0.391425 0.029400
0.978500 0.391425 0.029400
0.028500 0.423300 0.029400
0.058187 0.423300 0.029400
0.087875 0.423300 0.029400
0.117563 0.423300 0.029400
0.147250 0.423300 0.029400
0.176937 0.423300 0.029400
0.206625 0.423300 0.029400
0.236312 0.423300 0.029400
0.266000 0.423300 0.029400
0.295687 0.423300 0.029400
0.325375 0.423300 0.029400
0.355063 0.423300 0.029400
0.384750 0.423300 0.029400
0.414438 0.423300 0.029400
0.444125 0.423300 0.029400
0.473813 0.423300 0.029400
0.503500 0.423300 0.029400
0.533188 0.423300 0.029400
0.562875 0.423300 0.029400
0.592562 0.423300 0.029400
0.622250 0.423300 0.029400
0.651937 0.423300 0.029400
0.681625 0.423300 0.029400
0.711313 0.423300 0.029400
0.741000 0.423300 0.029400
0.770687 0.423300 0.029400
0.800375 0.423300 0.029400
0.830063 0.423300 0.029400
0.859750 0.423300 0.029400
0.889437 0.423300 0.029400
0.919125 0.423300 0.029400
0.948812 0.423300 0.029400
0.978500 0.423300 0.029400
0.028500 0.455175 0.029400
0.058187 0.455175 0.029400
0.087875 0.455175 0.029400
0.117563 0.455175 0.029400
0.147250 0.455175 0.029400
0.176937 0.455175 0.029400
0.206625 0.455175 0.029400
0.236312 0.455175 0.029400
0.266000 0.455175 0.029400
0.295687 0.455175 0.029400
0.325375 0.455175 0.029400
0.355063 0.455175 0.029400
0.384750 0.455175 0.029400
0.414438 0.455175 0.029400
0.444125 0.455175 0.029400
0.473813 0.455175 0.029400
0.503500 0.455175 0.029400
0.533188 0.455175 0.029400
0.562875 0.455175 0.029400
0.592562 0.455175 0.029400
0.622250 0.455175 0.029400
0.651937 0.455175 0.029400
0.681625 0.455175 0.029400
0.711313 0.455175 0.029400
0.741000 0.455175 0.029400
0.770687 0.455175 0.029400
0.800375 0.455175 0.029400
0.830063 0.455175 0.029400
0.859750 0.455175 0.029400
0.889437 0.455175 0.029400
0.919125 0.455175 0.029400
0.948812 0.455175 0.029400
0.978500 0.455175 0.029400
0.028500 0.487050 0.029400
0.058187 0.487050 0.029400
0.087875 0.487050 0.029400
0.117563 0.487050 0.029400
0.147250 0.487050 0.029400
0.176937 0.487050 0.029400
0.206625 0.487050 0.029400
0.236312 0.487050 0.029400
0.266000 0.487050 0.029400
0.295687 0.487050 0.029400
0.325375 0.487050 0.029400
0.355063 0.487050 0.029400
0.384750 0.487050 0.029400
0.414438 0.487050 0.029400
0.444125 0.487050 0.029400
0.473813 0.487050 0.029400
0.503500 0.487050 0.029400
0.533188 0.487050 0.029400
0.562875 0.487050 0.029400
0.592562 0.487050 0.029400
0.622250 0.487050 0.029400
0.651937 0.487050 0.029400
0.681625 0.487050 0.029400
0.711313 0.487050 0.029400
0.741000 0.487050 0.029400
0.770687 0.487050 0.029400
0.800375 0.487050 0.029400
0.830063 0.487050 0.029400
0.859750 0.487050 0.029400
0.889437 0.487050 0.029400
0.919125 0.487050 0.029400
0.948812 0.487050 0.029400
0.978500 0.487050 0.029400
0.028500 0.518925 0.029400
0.058187 0.518925 0.029400
0.087875 0.518925 0.029400
0.117563 0.518925 0.029400
0.147250 0.518925 0.029400
0.176937 0.518925 0.029400
0.206625 0.518925 0.029400
0.236312 0.518925 0.029400
0.266000 0.518925 0.029400
0.295687 0.518925 0.029400
0.325375 0.518925 0.029400
0.355063 0.518925 0.029400
0.384750 0.518925 0.029400
0.414438 0.518925 0.029400
0.444125 0.518925 0.029400
0.473813 0.518925 0.029400
0.503500 0.518925 0.029400
0.533188 0.518925 0.029400
0.562875 0.518925 0.029400
0.592562 0.518925 0.029400
0.622250 0.518925 0.029400
0.651937 0.518925 0.029400
0.681625 0.518925 0.029400
0.711313 0.518925 0.029400
0.741000 0.518925 0.029400
0.770687 0.518925 0.029400
0.800375 0.518925 0.029400
0.830063 0.518925 0.029400
0.859750 0.518925 0.029400
0.889437 0.518925 0.029400
0.919125 0.518925 0.029400
0.948812 0.518925 0.029400
0.978500 0.518925 0.029400
0.028500 0.550800 0.029400
0.058187 0.550800 0.029400
0.087875 0.550800 0.029400
0.117563 0.550800 0.029400
0.147250 0.550800 0.029400
0.176937 0.550800 0.029400
0.206625 0.550800 0.029400
0.236312 0.550800 0.029400
0.266000 0.550800 0.029400
0.295687 0.550800 0.029400
0.325375 0.550800 0.029400
0.355063 0.550800 0.029400
0.384750 0.550800 0.029400
0.414438 0.550800 0.029400
0.444125 0.550800 0.029400
0.473813 0.550800 0.029400
0.503500 0.550800 0.029400
0.533188 0.550800 0.029400
0.562875 0.550800 0.029400
0.592562 0.550800 0.029400
0.622250 0.550800 0.029400
0.651937 0.550800 0.029400
0.681625 0.550800 0.029400
0.711313 0.550800 0.029400
0.741000 0.550800 0.029400
0.770687 0.550800 0.029400
0.800375 0.550800 0.029400
0.830063 0.550800 0.029400
0.859750 0.550800 0.029400
0.889437 0.550800 0.029400
0.919125 0.550800 0.029400
0.948812 0.550800 0.029400
0.978500 0.550800 0.029400
0.028500 0.582675 0.029400
0.058187 0.582675 0.029400
0.087875 0.582675 0.029400
0.117563 0.582675 0.029400
0.147250 0.582675 0.029400
0.176937 0.582675 0.029400
0.206625 0.582675 0.029400
0.236312 0.582675 0.029400
0.266000 0.582675 0.029400
0.295687 0.582675 0.029400
0.325375 0.582675 0.029400
0.355063 0.582675 0.029400
0.384750 0.582675 0.029400
0.414438 0.582675 0.029400
0.444125 0.582675 0.029400
0.473813 0.582675 0.029400
0.503500 0.582675 0.029400
0.533188 0.582675 0.029400
0.562875 0.582675 0.029400
0.592562 0.582675 0.029400
0.622250 0.582675 0.029400
0.651937 0.582675 0.029400
0.681625 0.582675 0.029400
0.711313 0.582675 0.029400
0.741000 0.582675 0.029400
0.770687 0.582675 0.029400
0.800375 0.582675 0.029400
0.830063 0.582675 0.029400
0.859750 0.582675 0.029400
0.889437 0.582675 0.029400
0.919125 0.582675 0.029400
0.948812 0.582675 0.029400
0.978500 0.582675 0.029400
0.028500 0.614550 0.029400
0.058187 0.614550 0.029400
0.087875 0.614550 0.029400
0.117563 0.614550 0.029400
0.147250 0.614550 0.029400
0.176937 0.614550 0.029400
0.206625 0.614550 0.029400
0.236312 0.614550 0.029400
0.266000 0.614550 0.029400
0.295687 0.614550 0.029400
0.325375 0.614550 0.029400
0.355063 0.614550 0.029400
0.384750 0.614550 0.029400
0.414438 0.614550 0.029400
0.444125 0.614550 0.029400
0.473813 0.614550 0.029400
0.503500 0.614550 0.029400
0.533188 0.614550 0.029400
0.562875 0.614550 0.029400
0.592562 0.614550 0.029400
0.622250 0.614550 0.029400
0.651937 0.614550 0.029400
0.681625 0.614550 0.029400
0.711313 0.614550 0.029400
0.741000 0.614550 0.029400
0.770687 0.614550 0.029400
0.800375 0.614550 0.029400
0.830063 0.614550 0.029400
0.859750 0.614550 0.029400
0.889437 0.614550 0.029400
0.919125 0.614550 0.029400
0.948812 0.614550 0.029400
0.978500 0.614550 0.029400
0.028500 0.646425 0.029400
0.058187 0.646425 0.029400
0.087875 0.646425 0.029400
0.117563 0.646425 0.029400
0.147250 0.646425 0.029400
0.176937 0.646425 0.029400
0.206625 0.646425 0.029400
0.236312 0.646425 0.029400
0.266000 0.646425 0.029400
0.295687 0.646425 0.029400
0.325375 0.646425 0.029400
0.355063 0.646425 0.029400
0.384750 0.646425 0.029400
0.414438 0.646425 0.029400
0.444125 0.646425 0.029400
0.473813 0.646425 0.029400
0.503500 0.646425 0.029400
0.533188 0.646425 0.029400
0.562875 0.646425 0.029400
0.592562 0.646425 0.029400
0.622250 0.646425 0.029400
0.651937 0.646425 0.029400
0.681625 0.646425 0.029400
0.711313 0.646425 0.029400
0.741000 0.646425 0.029400
0.770687 0.646425 0.029400
0.800375 0.646425 0.029400
0.830063 0.646425 0.029400
0.859750 0.646425 0.029400
0.889437 0.646425 0.029400
0.919125 0.646425 0.029400
0.948812 0.646425 0.029400
0.978500 0.646425 0.029400
0.028500 0.678300 0.029400
0.058187 0.678300 0.029400
0.087875 0.678300 0.029400
0.117563 0.678300 0.029400
0.147250 0.678300 0.029400
0.176937 0.678300 0.029400
0.206625 0.678300 0.029400
0.236312 0.678300 0.029400
0.266000 0.678300 0.029400
0.295687 0.678300 0.029400
0.325375 0.678300 0.029400
0.355063 0.678300 0.029400
0.384750 0.678300 0.029400
0.414438 0.678300 0.029400
0.444125 0.678300 0.029400
0.473813 0.678300 0.029400
0.503500 0.678300 0.029400
0.533188 0.678300 0.029400
0.562875 0.678300 0.029400
0.592562 0.678300 0.029400
0.622250 0.678300 0.029400
0.651937 0.678300 0.029400
0.681625 0.678300 0.029400
0.711313 0.678300 0.029400
0.741000 0.678300 0.029400
0.770687 0.678300 0.029400
0.800375 0.678300 0.029400
0.830063 0.678300 0.029400
0.859750 0.678300 0.029400
0.889437 0.678300 0.029400
0.919125 0.678300 0.029400
0.948812 0.678300 0.029400
0.978500 0.678300 0.029400
0.028500 0.710175 0.029400
0.058187 0.710175 0.029400
0.087875 0.710175 0.029400
0.117563 0.710175 0.029400
0.147250 0.710175 0.029400
0.176937 0.710175 0.029400
0.206625 0.710175 0.029400
0.236312 0.710175 0.029400
0.266000 0.710175 0.029400
0.295687 0.710175 0.029400
0.325375 0.710175 0.029400
0.355063 0.710175 0.029400
0.384750 0.710175 0.029400
0.414438 0.710175 0.029400
0.444125 0.710175 0.029400
0.473813 0.710175 0.029400
0.503500 0.710175 0.029400
0.533188 0.710175 0.029400
0.562875 0.710175 0.029400
0.592562 0.710175 0.029400
0.622250 0.710175 0.029400
0.651937 0.710175 0.029400
0.681625 0.710175 0.029400
0.711313 0.710175 0.029400
0.741000 0.710175 0.029400
0.770687 0.710175 0.029400
0.800375 0.710175 0.029400
0.830063 0.710175 0.029400
0.859750 0.710175 0.029400
0.889437 0.710175 0.029400
0.919125 0.710175 0.029400
0.948812 0.710175 0.029400
0.978500 0.710175 0.029400
0.028500 0.742050 0.029400
0.058187 0.742050 0.029400
0.087875 0.742050 0.029400
0.117563 0.742050 0.029400
0.147250 0.742050 0.029400
0.176937 0.742050 0.029400
0.206625 0.742050 0.029400
0.236312 0.742050 0.029400
0.266000 0.742050 0.029400
0.295687 0.742050 0.029400
0.325375 0.742050 0.029400
0.355063 0.742050 0.029400
0.384750 0.742050 0.029400
0.414438 0.742050 0.029400
0.444125 0.742050 0.029400
0.473813 0.742050 0.029400
0.503500 0.742050 0.029400
0.533188 0.742050 0.029400
0.562875 0.742050 0.029400
0.592562 0.742050 0.029400
0.622250 0.742050 0.029400
0.651937 0.742050 0.029400
0.681625 0.742050 0.029400
0.711313 0.742050 0.029400
0.741000 0.742050 0.029400
0.770687 0.742050 0.029400
0.800375 0.742050 0.029400
0.830063 0.742050 0.029400
0.859750 0.742050 0.029400
0.889437 0.742050 0.029400
0.919125 0.742050 0.029400
0.948812 0.742050 0.029400
0.978500 0.742050 0.029400
0.028500 0.773925 0.029400
0.058187 0.773925 0.029400
0.087875 0.773925 0.029400
0.117563 0.773925 0.029400
0.147250 0.773925 0.029400
0.176937 0.773925 0.029400
0.206625 0.773925 0.029400
0.236312 0.773925 0.029400
0.266000 0.773925 0.029400
0.295687 0.773925 0.029400
0.325375 0.773925 0.029400
0.355063 0.773925 0.029400
0.384750 0.773925 0.029400
0.414438 0.773925 0.029400
0.444125 0.773925 0.029400
0.473813 0.773925 0.029400
0.503500 0.773925 0.029400
0.533188 0.773925 0.029400
0.562875 0.773925 0.029400
0.592562 0.773925 0.029400
0.622250 0.773925 0.029400
0.651937 0.773925 0.029400
0.681625 0.773925 0.029400
0.711313 0.773925 0.029400
0.741000 0.773925 0.029400
0.770687 0.773925 0.029400
0.800375 0.773925 0.029400
0.830063 0.773925 0.029400
0.859750 0.773925 0.029400
0.889437 0.773925 0.029400
0.919125 0.773925 0.029400
0.948812 0.773925 0.029400
0.978500 0.773925 0.029400
0.028500 0.805800 0.029400
0.058187 0.805800 0.029400
0.087875 0.805800 0.029400
0.117563 0.805800 0.029400
0.147250 0.805800 0.029400
0.176937 0.805800 0.029400
0.206625 0.805800 0.029400
0.236312 0.805800 0.029400
0.266000 0.805800 0.029400
0.295687 0.805800 0.029400
0.325375 0.805800 0.029400
0.355063 0.805800 0.029400
0.384750 0.805800 0.029400
0.414438 0.805800 0.029400
0.444125 0.805800 0.029400
0.473813 0.805800 0.029400
0.503500 0.805800 0.029400
0.533188 0.805800 0.029400
0.562875 0.805800 0.029400
0.592562 0.805800 0.029400
0.622250 0.805800 0.029400
0.651937 0.805800 0.029400
0.681625 0.805800 0.029400
0.711313 0.805800 0.029400
0.741000 0.805800 0.029400
0.770687 0.805800 0.029400
0.800375 0.805800 0.029400
0.830063 0.805800 0.029400
0.859750 0.805800 0.029400
0.889437 0.805800 0.029400
0.919125 0.805800 0.029400
0.948812 0.805800 0.029400
0.978500 0.805800 0.029400
0.028500 0.837675 0.029400
0.058187 0.837675 0.029400
0.087875 0.837675 0.029400
0.117563 0.837675 0.029400
0.147250 0.837675 0.029400
0.176937 0.837675 0.029400
0.206625 0.837675 0.029400
0.236312 0.837675 0.029400
0.266000 0.837675 0.029400
0.295687 0.837675 0.029400
0.325375 0.837675 0.029400
0.355063 0.837675 0.029400
0.384750 0.837675 0.029400
0.414438 0.837675 0.029400
0.444125 0.837675 0.029400
0.473813 0.837675 0.029400
0.503500 0.837675 0.029400
0.533188 0.837675 0.029400
0.562875 0.837675 0.029400
0.592562 0.837675 0.029400
0.622250 0.837675 0.029400
0.651937 0.837675 0.029400
0.681625 0.837675 0.029400
0.711313 0.837675 0.029400
0.741000 0.837675 0.029400
0.770687 0.837675 0.029400
0.800375 0.837675 0.029400
0.830063 0.837675 0.029400
0.859750 0.837675 0.029400
0.889437 0.837675 0.029400
0.919125 0.837675 0.029400
0.948812 0.837675 0.029400
0.978500 0.837675 0.029400
0.028500 0.869550 0.029400
0.058187 0.869550 0.029400
0.087875 0.869550 0.029400
0.117563 0.869550 0.029400
0.147250 0.869550 0.029400
0.176937 0.869550 0.029400
0.206625 0.869550 0.029400
0.236312 0.869550 0.029400
0.266000 0.869550 0.029400
0.295687 0.869550 0.029400
0.325375 0.869550 0.029400
0.355063 0.869550 0.029400
0.384750 0.869550 0.029400
0.414438 0.869550 0.029400
0.444125 0.869550 0.029400
0.473813 0.869550 0.029400
0.503500 0.869550 0.029400
0.533188 0.869550 0.029400
0.562875 0.869550 0.029400
0.592562 0.869550 0.029400
0.622250 0.869550 0.029400
0.651937 0.869550 0.029400
0.681625 0.869550 0.029400
0.711313 0.869550 0.029400
0.741000 0.869550 0.029400
0.770687 0.869550 0.029400
0.800375 0.869550 0.029400
0.830063 0.869550 0.029400
0.859750 0.869550 0.029400
