luts/fresh.cube
TITLE "Fresh"
LUT_3D_SIZE 9
0.028500 0.040800 0.029400
0.147250 0.040800 0.029400
0.266000 0.040800 0.029400
0.384750 0.040800 0.029400
0.503500 0.040800 0.029400
0.622250 0.040800 0.029400
0.741000 0.040800 0.029400
0.859750 0.040800 0.029400
0.978500 0.040800 0.029400
0.028500 0.168300 0.029400
0.147250 0.168300 0.029400
0.266000 0.168300 0.029400
0.384750 0.168300 0.029400
0.503500 0.168300 0.029400
0.622250 0.168300 0.029400
0.741000 0.168300 0.029400
0.859750 0.168300 0.029400
0.978500 0.168300 0.029400
0.028500 0.295800 0.029400
0.147250 0.295800 0.029400
0.266000 0.295800 0.029400
0.384750 0.295800 0.029400
0.503500 0.295800 0.029400
0.622250 0.295800 0.029400
0.741000 0.295800 0.029400
0.859750 0.295800 0.029400
0.978500 0.295800 0.029400
0.028500 0.423300 0.029400
0.147250 0.423300 0.029400
0.266000 0.423300 0.029400
0.384750 0.423300 0.029400
0.503500 0.423300 0.029400
0.622250 0.423300 0.029400
0.741000 0.423300 0.029400
0.859750 0.423300 0.029400
0.978500 0.423300 0.029400
0.028500 0.550800 0.029400
0.147250 0.550800 0.029400
0.266000 0.550800 0.029400
0.384750 0.550800 0.029400
0.503500 0.550800 0.029400
0.622250 0.550800 0.029400
0.741000 0.550800 0.029400
0.859750 0.550800 0.029400
0.978500 0.550800 0.029400
0.028500 0.678300 0.029400
0.147250 0.678300 0.029400
0.266000 0.678300 0.029400
0.384750 0.678300 0.029400
0.503500 0.678300 0.029400
0.622250 0.678300 0.029400
0.741000 0.678300 0.029400
0.859750 0.678300 0.029400
0.978500 0.678300 0.029400
0.028500 0.805800 0.029400
0.147250 0.805800 0.029400
0.266000 0.805800 0.029400
0.384750 0.805800 0.029400
0.503500 0.805800 0.029400
0.622250 0.805800 0.029400
0.741000 0.805800 0.029400
0.859750 0.805800 0.029400
0.978500 0.805800 0.029400
0.028500 0.933300 0.029400
0.147250 0.933300 0.029400
0.266000 0.933300 0.029400
0.384750 0.933300 0.029400
0.503500 0.933300 0.029400
0.622250 0.933300 0.029400
0.741000 0.933300 0.029400
0.859750 0.933300 0.029400
0.978500 0.933300 0.029400
0.028500 1.000000 0.029400
0.147250 1.000000 0.029400
0.266000 1.000000 0.029400
0.384750 1.000000 0.029400
0.503500 1.000000 0.029400
0.622250 1.000000 0.029400
0.741000 1.000000 0.029400
0.859750 1.000000 0.029400
0.978500 1.000000 0.029400
0.028500 0.040800 0.151900
0.147250 0.040800 0.151900
0.266000 0.040800 0.151900
0.384750 0.040800 0.151900
0.503500 0.040800 0.151900
0.622250 0.040800 0.151900
0.741000 0.040800 0.151900
0.859750 0.040800 0.151900
0.978500 0.040800 0.151900
0.028500 0.168300 0.151900
0.147250 0.168300 0.151900
0.266000 0.168300 0.151900
0.384750 0.168300 0.151900
0.503500 0.168300 0.151900
0.622250 0.168300 0.151900
0.741000 0.168300 0.151900
0.859750 0.168300 0.151900
0.978500 0.168300 0.151900
0.028500 0.295800 0.151900
0.147250 0.295800 0.151900
0.266000 0.295800 0.151900
0.384750 0.295800 0.151900
0.503500 0.295800 0.151900
0.622250 0.295800 0.151900
0.741000 0.295800 0.151900
0.859750 0.295800 0.151900
0.978500 0.295800 0.151900
0.028500 0.423300 0.151900
0.147250 0.423300 0.151900
0.266000 0.423300 0.151900
0.384750 0.423300 0.151900
0.503500 0.423300 0.151900
0.622250 0.423300 0.151900
0.741000 0.423300 0.151900
0.859750 0.423300 0.151900
0.978500 0.423300 0.151900
0.028500 0.550800 0.151900
0.147250 0.550800 0.151900
0.266000 0.550800 0.151900
0.384750 0.550800 0.151900
0.503500 0.550800 0.151900
0.622250 0.550800 0.151900
0.741000 0.550800 0.151900
0.859750 0.550800 0.151900
0.978500 0.550800 0.151900
0.028500 0.678300 0.151900
0.147250 0.678300 0.151900
0.266000 0.678300 0.151900
0.384750 0.678300 0.151900
0.503500 0.678300 0.151900
0.622250 0.678300 0.151900
0.741000 0.678300 0.151900
0.859750 0.678300 0.151900
0.978500 0.678300 0.151900
0.028500 0.805800 0.151900
0.147250 0.805800 0.151900
0.266000 0.805800 0.151900
0.384750 0.805800 0.151900
0.503500 0.805800 0.151900
0.622250 0.805800 0.151900
0.741000 0.805800 0.151900
0.859750 0.805800 0.151900
0.978500 0.805800 0.151900
0.028500 0.933300 0.151900
0.147250 0.933300 0.151900
0.266000 0.933300 0.151900
0.384750 0.933300 0.151900
0.503500 0.933300 0.151900
0.622250 0.933300 0.151900
0.741000 0.933300 0.151900
0.859750 0.933300 0.151900
0.978500 0.933300 0.151900
0.028500 1.000000 0.151900
0.147250 1.000000 0.151900
0.266000 1.000000 0.151900
0.384750 1.000000 0.151900
0.503500 1.000000 0.151900
0.622250 1.000000 0.151900
0.741000 1.000000 0.151900
0.859750 1.000000 0.151900
0.978500 1.000000 0.151900
0.028500 0.040800 0.274400
0.147250 0.040800 0.274400
0.266000 0.040800 0.274400
0.384750 0.040800 0.274400
0.503500 0.040800 0.274400
0.622250 0.040800 0.274400
0.741000 0.040800 0.274400
0.859750 0.040800 0.274400
0.978500 0.040800 0.274400
0.028500 0.168300 0.274400
0.147250 0.168300 0.274400
0.266000 0.168300 0.274400
0.384750 0.168300 0.274400
0.503500 0.168300 0.274400
0.622250 0.168300 0.274400
0.741000 0.168300 0.274400
0.859750 0.168300 0.274400
0.978500 0.168300 0.274400
0.028500 0.295800 0.274400
0.147250 0.295800 0.274400
0.266000 0.295800 0.274400
0.384750 0.295800 0.274400
0.503500 0.295800 0.274400
0.622250 0.295800 0.274400
0.741000 0.295800 0.274400
0.859750 0.295800 0.274400
0.978500 0.295800 0.274400
0.028500 0.423300 0.274400
0.147250 0.423300 0.274400
0.266000 0.423300 0.274400
0.384750 0.423300 0.274400
0.503500 0.423300 0.274400
0.622250 0.423300 0.274400
0.741000 0.423300 0.274400
0.859750 0.423300 0.274400
0.978500 0.423300 0.274400
0.028500 0.550800 0.274400
0.147250 0.550800 0.274400
0.266000 0.550800 0.274400
0.384750 0.550800 0.274400
0.503500 0.550800 0.274400
0.622250 0.550800 0.274400
0.741000 0.550800 0.274400
0.859750 0.550800 0.274400
0.978500 0.550800 0.274400
0.028500 0.678300 0.274400
0.147250 0.678300 0.274400
0.266000 0.678300 0.274400
0.384750 0.678300 0.274400
0.503500 0.678300 0.274400
0.622250 0.678300 0.274400
0.741000 0.678300 0.274400
0.859750 0.678300 0.274400
0.978500 0.678300 0.274400
0.028500 0.805800 0.274400
0.147250 0.805800 0.274400
0.266000 0.805800 0.274400
0.384750 0.805800 0.274400
0.503500 0.805800 0.274400
0.622250 0.805800 0.274400
0.741000 0.805800 0.274400
0.859750 0.805800 0.274400
0.978500 0.805800 0.274400
0.028500 0.933300 0.274400
0.147250 0.933300 0.274400
0.266000 0.933300 0.274400
0.384750 0.933300 0.274400
0.503500 0.933300 0.274400
0.622250 0.933300 0.274400
0.741000 0.933300 0.274400
0.859750 0.933300 0.274400
0.978500 0.933300 0.274400
0.028500 1.000000 0.274400
0.147250 1.000000 0.274400
0.266000 1.000000 0.274400
0.384750 1.000000 0.274400
0.503500 1.000000 0.274400
0.622250 1.000000 0.274400
0.741000 1.000000 0.274400
0.859750 1.000000 0.274400
0.978500 1.000000 0.274400
0.028500 0.040800 0.396900
0.147250 0.040800 0.396900
0.266000 0.040800 0.396900
0.384750 0.040800 0.396900
0.503500 0.040800 0.396900
0.622250 0.040800 0.396900
0.741000 0.040800 0.396900
0.859750 0.040800 0.396900
0.978500 0.040800 0.396900
0.028500 0.168300 0.396900
0.147250 0.168300 0.396900
0.266000 0.168300 0.396900
0.384750 0.168300 0.396900
0.503500 0.168300 0.396900
0.622250 0.168300 0.396900
0.741000 0.168300 0.396900
0.859750 0.168300 0.396900
0.978500 0.168300 0.396900
0.028500 0.295800 0.396900
0.147250 0.295800 0.396900
0.266000 0.295800 0.396900
0.384750 0.295800 0.396900
0.503500 0.295800 0.396900
0.622250 0.295800 0.396900
0.741000 0.295800 0.396900
0.859750 0.295800 0.396900
0.978500 0.295800 0.396900
0.028500 0.423300 0.396900
0.147250 0.423300 0.396900
0.266000 0.423300 0.396900
0.384750 0.423300 0.396900
0.503500 0.423300 0.396900
0.622250 0.423300 0.396900
0.741000 0.423300 0.396900
0.859750 0.423300 0.396900
0.978500 0.423300 0.396900
0.028500 0.550800 0.396900
0.147250 0.550800 0.396900
0.266000 0.550800 0.396900
0.384750 0.550800 0.396900
0.503500 0.550800 0.396900
0.622250 0.550800 0.396900
0.741000 0.550800 0.396900
0.859750 0.550800 0.396900
0.978500 0.550800 0.396900
0.028500 0.678300 0.396900
0.147250 0.678300 0.396900
0.266000 0.678300 0.396900
0.384750 0.678300 0.396900
0.503500 0.678300 0.396900
0.622250 0.678300 0.396900
0.741000 0.678300 0.396900
0.859750 0.678300 0.396900
0.978500 0.678300 0.396900
0.028500 0.805800 0.396900
0.147250 0.805800 0.396900
0.266000 0.805800 0.396900
0.384750 0.805800 0.396900
0.503500 0.805800 0.396900
0.622250 0.805800 0.396900
0.741000 0.805800 0.396900
0.859750 0.805800 0.396900
0.978500 0.805800 0.396900
0.028500 0.933300 0.396900
0.147250 0.933300 0.396900
0.266000 0.933300 0.396900
0.384750 0.933300 0.396900
0.503500 0.933300 0.396900
0.622250 0.933300 0.396900
0.741000 0.933300 0.396900
0.859750 0.933300 0.396900
0.978500 0.933300 0.396900
0.028500 1.000000 0.396900
0.147250 1.000000 0.396900
0.266000 1.000000 0.396900
0.384750 1.000000 0.396900
0.503500 1.000000 0.396900
0.622250 1.000000 0.396900
0.741000 1.000000 0.396900
0.859750 1.000000 0.396900
0.978500 1.000000 0.396900
0.028500 0.040800 0.519400
0.147250 0.040800 0.519400
0.266000 0.040800 0.519400
0.384750 0.040800 0.519400
0.503500 0.040800 0.519400
0.622250 0.040800 0.519400
0.741000 0.040800 0.519400
0.859750 0.040800 0.519400
0.978500 0.040800 0.519400
0.028500 0.168300 0.519400
0.147250 0.168300 0.519400
0.266000 0.168300 0.519400
0.384750 0.168300 0.519400
0.503500 0.168300 0.519400
0.622250 0.168300 0.519400
0.741000 0.168300 0.519400
0.859750 0.168300 0.519400
0.978500 0.168300 0.519400
0.028500 0.295800 0.519400
0.147250 0.295800 0.519400
0.266000 0.295800 0.519400
0.384750 0.295800 0.519400
0.503500 0.295800 0.519400
0.622250 0.295800 0.519400
0.741000 0.295800 0.519400
0.859750 0.295800 0.519400
0.978500 0.295800 0.519400
0.028500 0.423300 0.519400
0.147250 0.423300 0.519400
0.266000 0.423300 0.519400
0.384750 0.423300 0.519400
0.503500 0.423300 0.519400
0.622250 0.423300 0.519400
0.741000 0.423300 0.519400
0.859750 0.423300 0.519400
0.978500 0.423300 0.519400
0.028500 0.550800 0.519400
0.147250 0.550800 0.519400
0.266000 0.550800 0.519400
0.384750 0.550800 0.519400
0.503500 0.550800 0.519400
0.622250 0.550800 0.519400
0.741000 0.550800 0.519400
0.859750 0.550800 0.519400
0.978500 0.550800 0.519400
0.028500 0.678300 0.519400
0.147250 0.678300 0.519400
0.266000 0.678300 0.519400
0.384750 0.678300 0.519400
0.503500 0.678300 0.519400
0.622250 0.678300 0.519400
0.741000 0.678300 0.519400
0.859750 0.678300 0.519400
0.978500 0.678300 0.519400
0.028500 0.805800 0.519400
0.147250 0.805800 0.519400
0.266000 0.805800 0.519400
0.384750 0.805800 0.519400
0.503500 0.805800 0.519400
0.622250 0.805800 0.519400
0.741000 0.805800 0.519400
0.859750 0.805800 0.519400
0.978500 0.805800 0.519400
0.028500 0.933300 0.519400
0.147250 0.933300 0.519400
0.266000 0.933300 0.519400
0.384750 0.933300 0.519400
0.503500 0.933300 0.519400
0.622250 0.933300 0.519400
0.741000 0.933300 0.519400
0.859750 0.933300 0.519400
0.978500 0.933300 0.519400
0.028500 1.000000 0.519400
0.147250 1.000000 0.519400
0.266000 1.000000 0.519400
0.384750 1.000000 0.519400
0.503500 1.000000 0.519400
0.622250 1.000000 0.519400
0.741000 1.000000 0.519400
0.859750 1.000000 0.519400
0.978500 1.000000 0.519400
0.028500 0.040800 0.641900
0.147250 0.040800 0.641900
0.266000 0.040800 0.641900
0.384750 0.040800 0.641900
0.503500 0.040800 0.641900
0.622250 0.040800 0.641900
0.741000 0.040800 0.641900
0.859750 0.040800 0.641900
0.978500 0.040800 0.641900
0.028500 0.168300 0.641900
0.147250 0.168300 0.641900
0.266000 0.168300 0.641900
0.384750 0.168300 0.641900
0.503500 0.168300 0.641900
0.622250 0.168300 0.641900
0.741000 0.168300 0.641900
0.859750 0.168300 0.641900
0.978500 0.168300 0.641900
0.028500 0.295800 0.641900
0.147250 0.295800 0.641900
0.266000 0.295800 0.641900
0.384750 0.295800 0.641900
0.503500 0.295800 0.641900
0.622250 0.295800 0.641900
0.741000 0.295800 0.641900
0.859750 0.295800 0.641900
0.978500 0.295800 0.641900
0.028500 0.423300 0.641900
0.147250 0.423300 0.641900
0.266000 0.423300 0.641900
0.384750 0.423300 0.641900
0.503500 0.423300 0.641900
0.622250 0.423300 0.641900
0.741000 0.423300 0.641900
0.859750 0.423300 0.641900
0.978500 0.423300 0.641900
0.028500 0.550800 0.641900
0.147250 0.550800 0.641900
0.266000 0.550800 0.641900
0.384750 0.550800 0.641900
0.503500 0.550800 0.641900
0.622250 0.550800 0.641900
0.741000 0.550800 0.641900
0.859750 0.550800 0.641900
0.978500 0.550800 0.641900
0.028500 0.678300 0.641900
0.147250 0.678300 0.641900
0.266000 0.678300 0.641900
0.384750 0.678300 0.641900
0.503500 0.678300 0.641900
0.622250 0.678300 0.641900
0.741000 0.678300 0.641900
0.859750 0.678300 0.641900
0.978500 0.678300 0.641900
0.028500 0.805800 0.641900
0.147250 0.805800 0.641900
0.266000 0.805800 0.641900
0.384750 0.805800 0.641900
0.503500 0.805800 0.641900
0.622250 0.805800 0.641900
0.741000 0.805800 0.641900
0.859750 0.805800 0.641900
0.978500 0.805800 0.641900
0.028500 0.933300 0.641900
0.147250 0.933300 0.641900
0.266000 0.933300 0.641900
0.384750 0.933300 0.641900
0.503500 0.933300 0.641900
0.622250 0.933300 0.641900
0.741000 0.933300 0.641900
0.859750 0.933300 0.641900
0.978500 0.933300 0.641900
0.028500 1.000000 0.641900
0.147250 1.000000 0.641900
0.266000 1.000000 0.641900
0.384750 1.000000 0.641900
0.503500 1.000000 0.641900
0.622250 1.000000 0.641900
0.741000 1.000000 0.641900
0.859750 1.000000 0.641900
0.978500 1.000000 0.641900
0.028500 0.040800 0.764400
0.147250 0.040800 0.764400
0.266000 0.040800 0.764400
0.384750 0.040800 0.764400
0.503500 0.040800 0.764400
0.622250 0.040800 0.764400
0.741000 0.040800 0.764400
0.859750 0.040800 0.764400
0.978500 0.040800 0.764400
0.028500 0.168300 0.764400
0.147250 0.168300 0.764400
0.266000 0.168300 0.764400
0.384750 0.168300 0.764400
0.503500 0.168300 0.764400
0.622250 0.168300 0.764400
0.741000 0.168300 0.764400
0.859750 0.168300 0.764400
0.978500 0.168300 0.764400
0.028500 0.295800 0.764400
0.147250 0.295800 0.764400
0.266000 0.295800 0.764400
0.384750 0.295800 0.764400
0.503500 0.295800 0.764400
0.622250 0.295800 0.764400
0.741000 0.295800 0.764400
0.859750 0.295800 0.764400
0.978500 0.295800 0.764400
0.028500 0.423300 0.764400
0.147250 0.423300 0.764400
0.266000 0.423300 0.764400
0.384750 0.423300 0.764400
0.503500 0.423300 0.764400
0.622250 0.423300 0.764400
0.741000 0.423300 0.764400
0.859750 0.423300 0.764400
0.978500 0.423300 0.764400
0.028500 0.550800 0.764400
0.147250 0.550800 0.764400
0.266000 0.550800 0.764400
0.384750 0.550800 0.764400
0.503500 0.550800 0.764400
0.622250 0.550800 0.764400
0.741000 0.550800 0.764400
0.859750 0.550800 0.764400
0.978500 0.550800 0.764400
0.028500 0.678300 0.764400
0.147250 0.678300 0.764400
0.266000 0.678300 0.764400
0.384750 0.678300 0.764400
0.503500 0.678300 0.764400
0.622250 0.678300 0.764400
0.741000 0.678300 0.764400
0.859750 0.678300 0.764400
0.978500 0.678300 0.764400
0.028500 0.805800 0.764400
0.147250 0.805800 0.764400
0.266000 0.805800 0.764400
0.384750 0.805800 0.764400
0.503500 0.805800 0.764400
0.622250 0.805800 0.764400
0.741000 0.805800 0.764400
0.859750 0.805800 0.764400
0.978500 0.805800 0.764400
0.028500 0.933300 0.764400
0.147250 0.933300 0.764400
0.266000 0.933300 0.764400
0.384750 0.933300 0.764400
0.503500 0.933300 0.764400
0.622250 0.933300 0.764400
0.741000 0.933300 0.764400
0.859750 0.933300 0.764400
0.978500 0.933300 0.764400
0.028500 1.000000 0.764400
0.147250 1.000000 0.764400
0.266000 1.000000 0.764400
0.384750 1.000000 0.764400
0.503500 1.000000 0.764400
0.622250 1.000000 0.764400
0.741000 1.000000 0.764400
0.859750 1.000000 0.764400
0.978500 1.000000 0.764400
0.028500 0.040800 0.886900
0.147250 0.040800 0.886900
0.266000 0.040800 0.886900
0.384750 0.040800 0.886900
0.503500 0.040800 0.886900
0.622250 0.040800 0.886900
0.741000 0.040800 0.886900
0.859750 0.040800 0.886900
0.978500 0.040800 0.886900
0.028500 0.168300 0.886900
0.147250 0.168300 0.886900
0.266000 0.168300 0.886900
0.384750 0.168300 0.886900
0.503500 0.168300 0.886900
0.622250 0.168300 0.886900
0.741000 0.168300 0.886900
0.859750 0.168300 0.886900
0.978500 0.168300 0.886900
0.028500 0.295800 0.886900
0.147250 0.295800 0.886900
0.266000 0.295800 0.886900
0.384750 0.295800 0.886900
0.503500 0.295800 0.886900
0.622250 0.295800 0.886900
0.741000 0.295800 0.886900
0.859750 0.295800 0.886900
0.978500 0.295800 0.886900
0.028500 0.423300 0.886900
0.147250 0.423300 0.886900
0.266000 0.423300 0.886900
0.384750 0.423300 0.886900
0.503500 0.423300 0.886900
0.622250 0.423300 0.886900
0.741000 0.423300 0.886900
0.859750 0.423300 0.886900
0.978500 0.423300 0.886900
0.028500 0.550800 0.886900
0.147250 0.550800 0.886900
0.266000 0.550800 0.886900
0.384750 0.550800 0.886900
0.503500 0.550800 0.886900
0.622250 0.550800 0.886900
0.741000 0.550800 0.886900
0.859750 0.550800 0.886900
0.978500 0.550800 0.886900
0.028500 0.678300 0.886900
0.147250 0.678300 0.886900
0.266000 0.678300 0.886900
0.384750 0.678300 0.886900
0.503500 0.678300 0.886900
0.622250 0.678300 0.886900
0.741000 0.678300 0.886900
0.859750 0.678300 0.886900
0.978500 0.678300 0.886900
0.028500 0.805800 0.886900
0.147250 0.805800 0.886900
0.266000 0.805800 0.886900
0.384750 0.805800 0.886900
0.503500 0.805800 0.886900
0.622250 0.805800 0.886900
0.741000 0.805800 0.886900
0.859750 0.805800 0.886900
0.978500 0.805800 0.886900
0.028500 0.933300 0.886900
0.147250 0.933300 0.886900
0.266000 0.933300 0.886900
0.384750 0.933300 0.886900
0.503500 0.933300 0.886900
0.622250 0.933300 0.886900
0.741000 0.933300 0.886900
0.859750 0.933300 0.886900
0.978500 0.933300 0.886900
0.028500 1.000000 0.886900
0.147250 1.000000 0.886900
0.266000 1.000000 0.886900
0.384750 1.000000 0.886900
0.503500 1.000000 0.886900
0.622250 1.000000 0.886900
0.741000 1.000000 0.886900
0.859750 1.000000 0.886900
0.978500 1.000000 0.886900
0.028500 0.040800 1.000000
0.147250 0.040800 1.000000
0.266000 0.040800 1.000000
0.384750 0.040800 1.000000
0.503500 0.040800 1.000000
0.622250 0.040800 1.000000
0.741000 0.040800 1.000000
0.859750 0.040800 1.000000
0.978500 0.040800 1.000000
0.028500 0.168300 1.000000
0.147250 0.168300 1.000000
0.266000 0.168300 1.000000
0.384750 0.168300 1.000000
0.503500 0.168300 1.000000
0.622250 0.168300 1.000000
0.741000 0.168300 1.000000
0.859750 0.168300 1.000000
0.978500 0.168300 1.000000
0.028500 0.295800 1.000000
0.147250 0.295800 1.000000
0.266000 0.295800 1.000000
0.384750 0.295800 1.000000
0.503500 0.295800 1.000000
0.622250 0.295800 1.000000
0.741000 0.295800 1.000000
0.859750 0.295800 1.000000
0.978500 0.295800 1.000000
0.028500 0.423300 1.000000
0.147250 0.423300 1.000000
0.266000 0.423300 1.000000
0.384750 0.423300 1.000000
0.503500 0.423300 1.000000
0.622250 0.423300 1.000000
0.741000 0.423300 1.000000
0.859750 0.423300 1.000000
0.978500 0.423300 1.000000
0.028500 0.550800 1.000000
0.147250 0.550800 1.000000
0.266000 0.550800 1.000000
0.384750 0.550800 1.000000
0.503500 0.550800 1.000000
0.622250 0.550800 1.000000
0.741000 0.550800 1.000000
0.859750 0.550800 1.000000
0.978500 0.550800 1.000000
0.028500 0.678300 1.000000
0.147250 0.678300 1.000000
0.266000 0.678300 1.000000
0.384750 0.678300 1.000000
0.503500 0.678300 1.000000
0.622250 0.678300 1.000000
0.741000 0.678300 1.000000
0.859750 0.678300 1.000000
0.978500 0.678300 1.000000
0.028500 0.805800 1.000000
0.147250 0.805800 1.000000
0.266000 0.805800 1.000000
0.384750 0.805800 1.000000
0.503500 0.805800 1.000000
0.622250 0.805800 1.000000
0.741000 0.805800 1.000000
0.859750 0.805800 1.000000
0.978500 0.805800 1.000000
0.028500 0.933300 1.000000
0.147250 0.933300 1.000000
0.266000 0.933300 1.000000
0.384750 0.933300 1.000000
0.503500 0.933300 1.000000
0.622250 0.933300 1.000000
0.741000 0.933300 1.000000
0.859750 0.933300 1.000000
0.978500 0.933300 1.000000
0.028500 1.000000 1.000000
0.147250 1.000000 1.000000
0.266000 1.000000 1.000000
0.384750 1.000000 1.000000
0.503500 1.000000 1.000000
0.622250 1.000000 1.000000
0.741000 1.000000 1.000000
0.859750 1.000000 1.000000
0.978500 1.000000 1.000000
