luts/moody.cube
TITLE "Moody"
LUT_3D_SIZE 5
0.000000 0.000000 0.000000
0.224409 0.000000 0.000000
0.573819 0.000000 0.000000
0.923228 0.000000 0.000000
1.000000 0.000000 0.000000
0.000000 0.200850 0.000000
0.190884 0.190884 0.000000
0.540294 0.180919 0.000000
0.889703 0.170953 0.000000
1.000000 0.160988 0.000000
0.000000 0.526700 0.000000
0.157359 0.516734 0.000000
0.506769 0.506769 0.000000
0.856178 0.496803 0.000000
1.000000 0.486837 0.000000
0.000000 0.852550 0.000000
0.123834 0.842584 0.000000
0.473244 0.832619 0.000000
0.822653 0.822653 0.000000
1.000000 0.812688 0.000000
0.000000 1.000000 0.000000
0.090309 1.000000 0.000000
0.439719 1.000000 0.000000
0.789128 1.000000 0.000000
1.000000 1.000000 0.000000
0.000000 0.000000 0.230991
0.221025 0.000000 0.221025
0.570434 0.000000 0.211059
0.919844 0.000000 0.201094
1.000000 0.000000 0.191128
0.000000 0.197466 0.197466
0.187500 0.187500 0.187500
0.536909 0.177534 0.177534
0.886319 0.167569 0.167569
1.000000 0.157603 0.157603
0.000000 0.523316 0.163941
0.153975 0.513350 0.153975
0.503384 0.503384 0.144009
0.852794 0.493419 0.134044
1.000000 0.483453 0.124078
0.000000 0.849166 0.130416
0.120450 0.839200 0.120450
0.469859 0.829234 0.110484
0.819269 0.819269 0.100519
1.000000 0.809303 0.090553
0.000000 1.000000 0.096891
0.086925 1.000000 0.086925
0.436334 1.000000 0.076959
0.785744 1.000000 0.066994
1.000000 1.000000 0.057028
0.000000 0.000000 0.586981
0.217641 0.000000 0.577016
0.567050 0.000000 0.567050
0.916459 0.000000 0.557084
1.000000 0.000000 0.547119
0.000000 0.194081 0.553456
0.184116 0.184116 0.543491
0.533525 0.174150 0.533525
0.882934 0.164184 0.523559
1.000000 0.154219 0.513594
0.000000 0.519931 0.519931
0.150591 0.509966 0.509966
0.500000 0.500000 0.500000
0.849409 0.490034 0.490034
1.000000 0.480069 0.480069
0.000000 0.845781 0.486406
0.117066 0.835816 0.476441
0.466475 0.825850 0.466475
0.815884 0.815884 0.456509
1.000000 0.805919 0.446544
0.000000 1.000000 0.452881
0.083541 1.000000 0.442916
0.432950 1.000000 0.432950
0.782359 1.000000 0.422984
1.000000 1.000000 0.413019
0.000000 0.000000 0.942972
0.214256 0.000000 0.933006
0.563666 0.000000 0.923041
0.913075 0.000000 0.913075
1.000000 0.000000 0.903109
0.000000 0.190697 0.909447
0.180731 0.180731 0.899481
0.530141 0.170766 0.889516
0.879550 0.160800 0.879550
1.000000 0.150834 0.869584
0.000000 0.516547 0.875922
0.147206 0.506581 0.865956
0.496616 0.496616 0.855991
0.846025 0.486650 0.846025
1.000000 0.476684 0.836059
0.000000 0.842397 0.842397
0.113681 0.832431 0.832431
0.463091 0.822466 0.822466
0.812500 0.812500 0.812500
1.000000 0.802534 0.802534
0.000000 1.000000 0.808872
0.080156 1.000000 0.798906
0.429566 1.000000 0.788941
0.778975 1.000000 0.778975
1.000000 1.000000 0.769009
0.000000 0.000000 1.000000
0.210872 0.000000 1.000000
0.560281 0.000000 1.000000
0.909691 0.000000 1.000000
1.000000 0.000000 1.000000
0.000000 0.187312 1.000000
0.177347 0.177347 1.000000
0.526756 0.167381 1.000000
0.876166 0.157416 1.000000
1.000000 0.147450 1.000000
0.000000 0.513162 1.000000
0.143822 0.503197 1.000000
0.493231 0.493231 1.000000
0.842641 0.483266 1.000000
1.000000 0.473300 1.000000
0.000000 0.839012 1.000000
0.110297 0.829047 1.000000
0.459706 0.819081 1.000000
0.809116 0.809116 1.000000
1.000000 0.799150 1.000000
0.000000 1.000000 1.000000
0.076772 1.000000 1.000000
0.426181 1.000000 1.000000
0.775591 1.000000 1.000000
1.000000 1.000000 1.000000
