luts/moody.cube
TITLE "Moody"
LUT_3D_SIZE 33
0.000000 0.000000 0.000000
0.000000 0.000000 0.000000
0.000000 0.000000 0.000000
0.006029 0.000000 0.000000
0.049705 0.000000 0.000000
0.093381 0.000000 0.000000
0.137057 0.000000 0.000000
0.180733 0.000000 0.000000
0.224409 0.000000 0.000000
0.268086 0.000000 0.000000
0.311762 0.000000 0.000000
0.355438 0.000000 0.000000
0.399114 0.000000 0.000000
0.442790 0.000000 0.000000
0.486466 0.000000 0.000000
0.530143 0.000000 0.000000
0.573819 0.000000 0.000000
0.617495 0.000000 0.000000
0.661171 0.000000 0.000000
0.704847 0.000000 0.000000
0.748523 0.000000 0.000000
0.792200 0.000000 0.000000
0.835876 0.000000 0.000000
0.879552 0.000000 0.000000
0.923228 0.000000 0.000000
0.966904 0.000000 0.000000
1.000000 0.000000 0.000000
1.000000 0.000000 0.000000
1.000000 0.000000 0.000000
1.000000 0.000000 0.000000
1.000000 0.000000 0.000000
1.000000 0.000000 0.000000
1.000000 0.000000 0.000000
0.000000 0.000000 0.000000
0.000000 0.000000 0.000000
0.000000 0.000000 0.000000
0.001838 0.000000 0.000000
0.045514 0.000000 0.000000
0.089190 0.000000 0.000000
0.132866 0.000000 0.000000
0.176543 0.000000 0.000000
0.220219 0.000000 0.000000
0.263895 0.000000 0.000000
0.307571 0.000000 0.000000
0.351247 0.000000 0.000000
0.394923 0.000000 0.000000
0.438600 0.000000 0.000000
0.482276 0.000000 0.000000
0.525952 0.000000 0.000000
0.569628 0.000000 0.000000
0.613304 0.000000 0.000000
0.656980 0.000000 0.000000
0.700657 0.000000 0.000000
0.744333 0.000000 0.000000
0.788009 0.000000 0.000000
0.831685 0.000000 0.000000
0.875361 0.000000 0.000000
0.919037 0.000000 0.000000
0.962714 0.000000 0.000000
1.000000 0.000000 0.000000
1.000000 0.000000 0.000000
1.000000 0.000000 0.000000
1.000000 0.000000 0.000000
1.000000 0.000000 0.000000
1.000000 0.000000 0.000000
1.000000 0.000000 0.000000
0.000000 0.000000 0.000000
0.000000 0.000000 0.000000
0.000000 0.000000 0.000000
0.000000 0.000000 0.000000
0.041323 0.000000 0.000000
0.085000 0.000000 0.000000
0.128676 0.000000 0.000000
0.172352 0.000000 0.000000
0.216028 0.000000 0.000000
0.259704 0.000000 0.000000
0.303380 0.000000 0.000000
0.347057 0.000000 0.000000
0.390733 0.000000 0.000000
0.434409 0.000000 0.000000
0.478085 0.000000 0.000000
0.521761 0.000000 0.000000
0.565437 0.000000 0.000000
0.609114 0.000000 0.000000
0.652790 0.000000 0.000000
0.696466 0.000000 0.000000
0.740142 0.000000 0.000000
0.783818 0.000000 0.000000
0.827495 0.000000 0.000000
0.871171 0.000000 0.000000
0.914847 0.000000 0.000000
0.958523 0.000000 0.000000
1.000000 0.000000 0.000000
1.000000 0.000000 0.000000
1.000000 0.000000 0.000000
1.000000 0.000000 0.000000
1.000000 0.000000 0.000000
1.000000 0.000000 0.000000
1.000000 0.000000 0.000000
0.000000 0.000000 0.000000
0.000000 0.000000 0.000000
0.000000 0.000000 0.000000
0.000000 0.000000 0.000000
0.037133 0.000000 0.000000
0.080809 0.000000 0.000000
0.124485 0.000000 0.000000
0.168161 0.000000 0.000000
0.211837 0.000000 0.000000
0.255514 0.000000 0.000000
0.299190 0.000000 0.000000
0.342866 0.000000 0.000000
0.386542 0.000000 0.000000
0.430218 0.000000 0.000000
0.473895 0.000000 0.000000
0.517571 0.000000 0.000000
0.561247 0.000000 0.000000
0.604923 0.000000 0.000000
0.648599 0.000000 0.000000
0.692275 0.000000 0.000000
0.735952 0.000000 0.000000
0.779628 0.000000 0.000000
0.823304 0.000000 0.000000
0.866980 0.000000 0.000000
0.910656 0.000000 0.000000
0.954332 0.000000 0.000000
0.998009 0.000000 0.000000
1.000000 0.000000 0.000000
1.000000 0.000000 0.000000
1.000000 0.000000 0.000000
1.000000 0.000000 0.000000
1.000000 0.000000 0.000000
1.000000 0.000000 0.000000
0.000000 0.037925 0.000000
0.000000 0.036679 0.000000
0.000000 0.035434 0.000000
0.000000 0.034188 0.000000
0.032942 0.032942 0.000000
0.076618 0.031696 0.000000
0.120295 0.030451 0.000000
0.163971 0.029205 0.000000
0.207647 0.027959 0.000000
0.251323 0.026714 0.000000
0.294999 0.025468 0.000000
0.338675 0.024222 0.000000
0.382352 0.022977 0.000000
0.426028 0.021731 0.000000
0.469704 0.020485 0.000000
0.513380 0.019239 0.000000
0.557056 0.017994 0.000000
0.600732 0.016748 0.000000
0.644409 0.015502 0.000000
0.688085 0.014257 0.000000
0.731761 0.013011 0.000000
0.775437 0.011765 0.000000
0.819113 0.010520 0.000000
0.862789 0.009274 0.000000
0.906466 0.008028 0.000000
0.950142 0.006782 0.000000
0.993818 0.005537 0.000000
1.000000 0.004291 0.000000
1.000000 0.003045 0.000000
1.000000 0.001800 0.000000
1.000000 0.000554 0.000000
1.000000 0.000000 0.000000
1.000000 0.000000 0.000000
0.000000 0.078656 0.000000
0.000000 0.077411 0.000000
0.000000 0.076165 0.000000
0.000000 0.074919 0.000000
0.028752 0.073673 0.000000
0.072428 0.072428 0.000000
0.116104 0.071182 0.000000
0.159780 0.069936 0.000000
0.203456 0.068691 0.000000
0.247132 0.067445 0.000000
0.290809 0.066199 0.000000
0.334485 0.064954 0.000000
0.378161 0.063708 0.000000
0.421837 0.062462 0.000000
0.465513 0.061216 0.000000
0.509189 0.059971 0.000000
0.552866 0.058725 0.000000
0.596542 0.057479 0.000000
0.640218 0.056234 0.000000
0.683894 0.054988 0.000000
0.727570 0.053742 0.000000
0.771246 0.052496 0.000000
0.814923 0.051251 0.000000
0.858599 0.050005 0.000000
0.902275 0.048759 0.000000
0.945951 0.047514 0.000000
0.989627 0.046268 0.000000
1.000000 0.045022 0.000000
1.000000 0.043777 0.000000
1.000000 0.042531 0.000000
1.000000 0.041285 0.000000
1.000000 0.040039 0.000000
1.000000 0.038794 0.000000
0.000000 0.119387 0.000000
0.000000 0.118142 0.000000
0.000000 0.116896 0.000000
0.000000 0.115650 0.000000
0.024561 0.114405 0.000000
0.068237 0.113159 0.000000
0.111913 0.111913 0.000000
0.155589 0.110668 0.000000
0.199266 0.109422 0.000000
0.242942 0.108176 0.000000
0.286618 0.106930 0.000000
0.330294 0.105685 0.000000
0.373970 0.104439 0.000000
0.417646 0.103193 0.000000
0.461323 0.101948 0.000000
0.504999 0.100702 0.000000
0.548675 0.099456 0.000000
0.592351 0.098211 0.000000
0.636027 0.096965 0.000000
0.679704 0.095719 0.000000
0.723380 0.094473 0.000000
0.767056 0.093228 0.000000
0.810732 0.091982 0.000000
0.854408 0.090736 0.000000
0.898084 0.089491 0.000000
0.941761 0.088245 0.000000
0.985437 0.086999 0.000000
1.000000 0.085754 0.000000
1.000000 0.084508 0.000000
1.000000 0.083262 0.000000
1.000000 0.082016 0.000000
1.000000 0.080771 0.000000
1.000000 0.079525 0.000000
0.000000 0.160119 0.000000
0.000000 0.158873 0.000000
0.000000 0.157627 0.000000
0.000000 0.156382 0.000000
0.020370 0.155136 0.000000
0.064046 0.153890 0.000000
0.107723 0.152645 0.000000
0.151399 0.151399 0.000000
0.195075 0.150153 0.000000
0.238751 0.148907 0.000000
0.282427 0.147662 0.000000
0.326104 0.146416 0.000000
0.369780 0.145170 0.000000
0.413456 0.143925 0.000000
0.457132 0.142679 0.000000
0.500808 0.141433 0.000000
0.544484 0.140188 0.000000
0.588161 0.138942 0.000000
0.631837 0.137696 0.000000
0.675513 0.136450 0.000000
0.719189 0.135205 0.000000
0.762865 0.133959 0.000000
0.806541 0.132713 0.000000
0.850218 0.131468 0.000000
0.893894 0.130222 0.000000
0.937570 0.128976 0.000000
0.981246 0.127730 0.000000
1.000000 0.126485 0.000000
1.000000 0.125239 0.000000
1.000000 0.123993 0.000000
1.000000 0.122748 0.000000
1.000000 0.121502 0.000000
1.000000 0.120256 0.000000
0.000000 0.200850 0.000000
0.000000 0.199604 0.000000
0.000000 0.198359 0.000000
0.000000 0.197113 0.000000
0.016180 0.195867 0.000000
0.059856 0.194621 0.000000
0.103532 0.193376 0.000000
0.147208 0.192130 0.000000
0.190884 0.190884 0.000000
0.234561 0.189639 0.000000
0.278237 0.188393 0.000000
0.321913 0.187147 0.000000
0.365589 0.185902 0.000000
0.409265 0.184656 0.000000
0.452941 0.183410 0.000000
0.496618 0.182164 0.000000
0.540294 0.180919 0.000000
0.583970 0.179673 0.000000
0.627646 0.178427 0.000000
0.671322 0.177182 0.000000
0.714998 0.175936 0.000000
0.758675 0.174690 0.000000
0.802351 0.173445 0.000000
0.846027 0.172199 0.000000
0.889703 0.170953 0.000000
0.933379 0.169707 0.000000
0.977055 0.168462 0.000000
1.000000 0.167216 0.000000
1.000000 0.165970 0.000000
1.000000 0.164725 0.000000
1.000000 0.163479 0.000000
1.000000 0.162233 0.000000
1.000000 0.160988 0.000000
0.000000 0.241581 0.000000
0.000000 0.240336 0.000000
0.000000 0.239090 0.000000
0.000000 0.237844 0.000000
0.011989 0.236598 0.000000
0.055665 0.235353 0.000000
0.099341 0.234107 0.000000
0.143018 0.232861 0.000000
0.186694 0.231616 0.000000
0.230370 0.230370 0.000000
0.274046 0.229124 0.000000
0.317722 0.227879 0.000000
0.361398 0.226633 0.000000
0.405075 0.225387 0.000000
0.448751 0.224141 0.000000
0.492427 0.222896 0.000000
0.536103 0.221650 0.000000
0.579779 0.220404 0.000000
0.623455 0.219159 0.000000
0.667132 0.217913 0.000000
0.710808 0.216667 0.000000
0.754484 0.215421 0.000000
0.798160 0.214176 0.000000
0.841836 0.212930 0.000000
0.885512 0.211684 0.000000
0.929189 0.210439 0.000000
0.972865 0.209193 0.000000
1.000000 0.207947 0.000000
1.000000 0.206702 0.000000
1.000000 0.205456 0.000000
1.000000 0.204210 0.000000
1.000000 0.202964 0.000000
1.000000 0.201719 0.000000
0.000000 0.282312 0.000000
0.000000 0.281067 0.000000
0.000000 0.279821 0.000000
0.000000 0.278575 0.000000
0.007798 0.277330 0.000000
0.051475 0.276084 0.000000
0.095151 0.274838 0.000000
0.138827 0.273593 0.000000
0.182503 0.272347 0.000000
0.226179 0.271101 0.000000
0.269855 0.269855 0.000000
0.313532 0.268610 0.000000
0.357208 0.267364 0.000000
0.400884 0.266118 0.000000
0.444560 0.264873 0.000000
0.488236 0.263627 0.000000
0.531913 0.262381 0.000000
0.575589 0.261136 0.000000
0.619265 0.259890 0.000000
0.662941 0.258644 0.000000
0.706617 0.257398 0.000000
0.750293 0.256153 0.000000
0.793970 0.254907 0.000000
0.837646 0.253661 0.000000
0.881322 0.252416 0.000000
0.924998 0.251170 0.000000
0.968674 0.249924 0.000000
1.000000 0.248679 0.000000
1.000000 0.247433 0.000000
1.000000 0.246187 0.000000
1.000000 0.244941 0.000000
1.000000 0.243696 0.000000
1.000000 0.242450 0.000000
0.000000 0.323044 0.000000
0.000000 0.321798 0.000000
0.000000 0.320552 0.000000
0.000000 0.319307 0.000000
0.003608 0.318061 0.000000
0.047284 0.316815 0.000000
0.090960 0.315570 0.000000
0.134636 0.314324 0.000000
0.178313 0.313078 0.000000
0.221989 0.311832 0.000000
0.265665 0.310587 0.000000
0.309341 0.309341 0.000000
0.353017 0.308095 0.000000
0.396693 0.306850 0.000000
0.440370 0.305604 0.000000
0.484046 0.304358 0.000000
0.527722 0.303113 0.000000
0.571398 0.301867 0.000000
0.615074 0.300621 0.000000
0.658750 0.299375 0.000000
0.702427 0.298130 0.000000
0.746103 0.296884 0.000000
0.789779 0.295638 0.000000
0.833455 0.294393 0.000000
0.877131 0.293147 0.000000
0.920807 0.291901 0.000000
0.964484 0.290655 0.000000
1.000000 0.289410 0.000000
1.000000 0.288164 0.000000
1.000000 0.286918 0.000000
1.000000 0.285673 0.000000
1.000000 0.284427 0.000000
1.000000 0.283181 0.000000
0.000000 0.363775 0.000000
0.000000 0.362529 0.000000
0.000000 0.361284 0.000000
0.000000 0.360038 0.000000
0.000000 0.358792 0.000000
0.043093 0.357546 0.000000
0.086770 0.356301 0.000000
0.130446 0.355055 0.000000
0.174122 0.353809 0.000000
0.217798 0.352564 0.000000
0.261474 0.351318 0.000000
0.305150 0.350072 0.000000
0.348827 0.348827 0.000000
0.392503 0.347581 0.000000
0.436179 0.346335 0.000000
0.479855 0.345089 0.000000
0.523531 0.343844 0.000000
0.567207 0.342598 0.000000
0.610884 0.341352 0.000000
0.654560 0.340107 0.000000
0.698236 0.338861 0.000000
0.741912 0.337615 0.000000
0.785588 0.336370 0.000000
0.829264 0.335124 0.000000
0.872941 0.333878 0.000000
0.916617 0.332632 0.000000
0.960293 0.331387 0.000000
1.000000 0.330141 0.000000
1.000000 0.328895 0.000000
1.000000 0.327650 0.000000
1.000000 0.326404 0.000000
1.000000 0.325158 0.000000
1.000000 0.323913 0.000000
0.000000 0.404506 0.000000
0.000000 0.403261 0.000000
0.000000 0.402015 0.000000
0.000000 0.400769 0.000000
0.000000 0.399523 0.000000
0.038903 0.398278 0.000000
0.082579 0.397032 0.000000
0.126255 0.395786 0.000000
0.169931 0.394541 0.000000
0.213607 0.393295 0.000000
0.257284 0.392049 0.000000
0.300960 0.390804 0.000000
0.344636 0.389558 0.000000
0.388312 0.388312 0.000000
0.431988 0.387066 0.000000
0.475664 0.385821 0.000000
0.519341 0.384575 0.000000
0.563017 0.383329 0.000000
0.606693 0.382084 0.000000
0.650369 0.380838 0.000000
0.694045 0.379592 0.000000
0.737721 0.378346 0.000000
0.781398 0.377101 0.000000
0.825074 0.375855 0.000000
0.868750 0.374609 0.000000
0.912426 0.373364 0.000000
0.956102 0.372118 0.000000
0.999779 0.370872 0.000000
1.000000 0.369627 0.000000
1.000000 0.368381 0.000000
1.000000 0.367135 0.000000
1.000000 0.365889 0.000000
1.000000 0.364644 0.000000
0.000000 0.445238 0.000000
0.000000 0.443992 0.000000
0.000000 0.442746 0.000000
0.000000 0.441500 0.000000
0.000000 0.440255 0.000000
0.034712 0.439009 0.000000
0.078388 0.437763 0.000000
0.122064 0.436518 0.000000
0.165741 0.435272 0.000000
0.209417 0.434026 0.000000
0.253093 0.432780 0.000000
0.296769 0.431535 0.000000
0.340445 0.430289 0.000000
0.384121 0.429043 0.000000
0.427798 0.427798 0.000000
0.471474 0.426552 0.000000
0.515150 0.425306 0.000000
0.558826 0.424061 0.000000
0.602502 0.422815 0.000000
0.646179 0.421569 0.000000
0.689855 0.420323 0.000000
0.733531 0.419078 0.000000
0.777207 0.417832 0.000000
0.820883 0.416586 0.000000
0.864559 0.415341 0.000000
0.908236 0.414095 0.000000
0.951912 0.412849 0.000000
0.995588 0.411604 0.000000
1.000000 0.410358 0.000000
1.000000 0.409112 0.000000
1.000000 0.407866 0.000000
1.000000 0.406621 0.000000
1.000000 0.405375 0.000000
0.000000 0.485969 0.000000
0.000000 0.484723 0.000000
0.000000 0.483477 0.000000
0.000000 0.482232 0.000000
0.000000 0.480986 0.000000
0.030521 0.479740 0.000000
0.074198 0.478495 0.000000
0.117874 0.477249 0.000000
0.161550 0.476003 0.000000
0.205226 0.474757 0.000000
0.248902 0.473512 0.000000
0.292579 0.472266 0.000000
0.336255 0.471020 0.000000
0.379931 0.469775 0.000000
0.423607 0.468529 0.000000
0.467283 0.467283 0.000000
0.510959 0.466037 0.000000
0.554636 0.464792 0.000000
0.598312 0.463546 0.000000
0.641988 0.462300 0.000000
0.685664 0.461055 0.000000
0.729340 0.459809 0.000000
0.773016 0.458563 0.000000
0.816693 0.457318 0.000000
0.860369 0.456072 0.000000
0.904045 0.454826 0.000000
0.947721 0.453580 0.000000
0.991397 0.452335 0.000000
1.000000 0.451089 0.000000
1.000000 0.449843 0.000000
1.000000 0.448598 0.000000
1.000000 0.447352 0.000000
1.000000 0.446106 0.000000
0.000000 0.526700 0.000000
0.000000 0.525454 0.000000
0.000000 0.524209 0.000000
0.000000 0.522963 0.000000
0.000000 0.521717 0.000000
0.026331 0.520471 0.000000
0.070007 0.519226 0.000000
0.113683 0.517980 0.000000
0.157359 0.516734 0.000000
0.201036 0.515489 0.000000
0.244712 0.514243 0.000000
0.288388 0.512997 0.000000
0.332064 0.511752 0.000000
0.375740 0.510506 0.000000
0.419416 0.509260 0.000000
0.463093 0.508014 0.000000
0.506769 0.506769 0.000000
0.550445 0.505523 0.000000
0.594121 0.504277 0.000000
0.637797 0.503032 0.000000
0.681473 0.501786 0.000000
0.725150 0.500540 0.000000
0.768826 0.499295 0.000000
0.812502 0.498049 0.000000
0.856178 0.496803 0.000000
0.899854 0.495557 0.000000
0.943530 0.494312 0.000000
0.987207 0.493066 0.000000
1.000000 0.491820 0.000000
1.000000 0.490575 0.000000
1.000000 0.489329 0.000000
1.000000 0.488083 0.000000
1.000000 0.486837 0.000000
0.000000 0.567431 0.000000
0.000000 0.566186 0.000000
0.000000 0.564940 0.000000
0.000000 0.563694 0.000000
0.000000 0.562448 0.000000
0.022140 0.561203 0.000000
0.065816 0.559957 0.000000
0.109493 0.558711 0.000000
0.153169 0.557466 0.000000
0.196845 0.556220 0.000000
0.240521 0.554974 0.000000
0.284197 0.553729 0.000000
0.327873 0.552483 0.000000
0.371550 0.551237 0.000000
0.415226 0.549991 0.000000
0.458902 0.548746 0.000000
0.502578 0.547500 0.000000
0.546254 0.546254 0.000000
0.589930 0.545009 0.000000
0.633607 0.543763 0.000000
0.677283 0.542517 0.000000
0.720959 0.541271 0.000000
0.764635 0.540026 0.000000
0.808311 0.538780 0.000000
0.851987 0.537534 0.000000
0.895664 0.536289 0.000000
0.939340 0.535043 0.000000
0.983016 0.533797 0.000000
1.000000 0.532552 0.000000
1.000000 0.531306 0.000000
1.000000 0.530060 0.000000
1.000000 0.528814 0.000000
1.000000 0.527569 0.000000
0.000000 0.608162 0.000000
0.000000 0.606917 0.000000
0.000000 0.605671 0.000000
0.000000 0.604425 0.000000
0.000000 0.603180 0.000000
0.017950 0.601934 0.000000
0.061626 0.600688 0.000000
0.105302 0.599443 0.000000
0.148978 0.598197 0.000000
0.192654 0.596951 0.000000
0.236330 0.595705 0.000000
0.280007 0.594460 0.000000
0.323683 0.593214 0.000000
0.367359 0.591968 0.000000
0.411035 0.590723 0.000000
0.454711 0.589477 0.000000
0.498387 0.588231 0.000000
0.542064 0.586986 0.000000
0.585740 0.585740 0.000000
0.629416 0.584494 0.000000
0.673092 0.583248 0.000000
0.716768 0.582003 0.000000
0.760445 0.580757 0.000000
0.804121 0.579511 0.000000
0.847797 0.578266 0.000000
0.891473 0.577020 0.000000
0.935149 0.575774 0.000000
0.978825 0.574529 0.000000
1.000000 0.573283 0.000000
1.000000 0.572037 0.000000
1.000000 0.570791 0.000000
1.000000 0.569546 0.000000
1.000000 0.568300 0.000000
0.000000 0.648894 0.000000
0.000000 0.647648 0.000000
0.000000 0.646402 0.000000
0.000000 0.645157 0.000000
0.000000 0.643911 0.000000
0.013759 0.642665 0.000000
0.057435 0.641420 0.000000
0.101111 0.640174 0.000000
0.144788 0.638928 0.000000
0.188464 0.637682 0.000000
0.232140 0.636437 0.000000
0.275816 0.635191 0.000000
0.319492 0.633945 0.000000
0.363168 0.632700 0.000000
0.406845 0.631454 0.000000
0.450521 0.630208 0.000000
0.494197 0.628962 0.000000
0.537873 0.627717 0.000000
0.581549 0.626471 0.000000
0.625225 0.625225 0.000000
0.668902 0.623980 0.000000
0.712578 0.622734 0.000000
0.756254 0.621488 0.000000
0.799930 0.620243 0.000000
0.843606 0.618997 0.000000
0.887282 0.617751 0.000000
0.930959 0.616505 0.000000
0.974635 0.615260 0.000000
1.000000 0.614014 0.000000
1.000000 0.612768 0.000000
1.000000 0.611523 0.000000
1.000000 0.610277 0.000000
1.000000 0.609031 0.000000
0.000000 0.689625 0.000000
0.000000 0.688379 0.000000
0.000000 0.687134 0.000000
0.000000 0.685888 0.000000
0.000000 0.684642 0.000000
0.009568 0.683396 0.000000
0.053245 0.682151 0.000000
0.096921 0.680905 0.000000
0.140597 0.679659 0.000000
0.184273 0.678414 0.000000
0.227949 0.677168 0.000000
0.271625 0.675922 0.000000
0.315302 0.674677 0.000000
0.358978 0.673431 0.000000
0.402654 0.672185 0.000000
0.446330 0.670939 0.000000
0.490006 0.669694 0.000000
0.533682 0.668448 0.000000
0.577359 0.667202 0.000000
0.621035 0.665957 0.000000
0.664711 0.664711 0.000000
0.708387 0.663465 0.000000
0.752063 0.662220 0.000000
0.795739 0.660974 0.000000
0.839416 0.659728 0.000000
0.883092 0.658482 0.000000
0.926768 0.657237 0.000000
0.970444 0.655991 0.000000
1.000000 0.654745 0.000000
1.000000 0.653500 0.000000
1.000000 0.652254 0.000000
1.000000 0.651008 0.000000
1.000000 0.649763 0.000000
0.000000 0.730356 0.000000
0.000000 0.729111 0.000000
0.000000 0.727865 0.000000
0.000000 0.726619 0.000000
0.000000 0.725373 0.000000
0.005378 0.724128 0.000000
0.049054 0.722882 0.000000
0.092730 0.721636 0.000000
0.136406 0.720391 0.000000
0.180082 0.719145 0.000000
0.223759 0.717899 0.000000
0.267435 0.716654 0.000000
0.311111 0.715408 0.000000
0.354787 0.714162 0.000000
0.398463 0.712916 0.000000
0.442139 0.711671 0.000000
0.485816 0.710425 0.000000
0.529492 0.709179 0.000000
0.573168 0.707934 0.000000
0.616844 0.706688 0.000000
0.660520 0.705442 0.000000
0.704196 0.704196 0.000000
0.747873 0.702951 0.000000
0.791549 0.701705 0.000000
0.835225 0.700459 0.000000
0.878901 0.699214 0.000000
0.922577 0.697968 0.000000
0.966254 0.696722 0.000000
1.000000 0.695477 0.000000
1.000000 0.694231 0.000000
1.000000 0.692985 0.000000
1.000000 0.691739 0.000000
1.000000 0.690494 0.000000
0.000000 0.771087 0.000000
0.000000 0.769842 0.000000
0.000000 0.768596 0.000000
0.000000 0.767350 0.000000
0.000000 0.766105 0.000000
0.001187 0.764859 0.000000
0.044863 0.763613 0.000000
0.088539 0.762368 0.000000
0.132216 0.761122 0.000000
0.175892 0.759876 0.000000
0.219568 0.758630 0.000000
0.263244 0.757385 0.000000
0.306920 0.756139 0.000000
0.350596 0.754893 0.000000
0.394273 0.753648 0.000000
0.437949 0.752402 0.000000
0.481625 0.751156 0.000000
0.525301 0.749911 0.000000
0.568977 0.748665 0.000000
0.612654 0.747419 0.000000
0.656330 0.746173 0.000000
0.700006 0.744928 0.000000
0.743682 0.743682 0.000000
0.787358 0.742436 0.000000
0.831034 0.741191 0.000000
0.874711 0.739945 0.000000
0.918387 0.738699 0.000000
0.962063 0.737454 0.000000
1.000000 0.736208 0.000000
1.000000 0.734962 0.000000
1.000000 0.733716 0.000000
1.000000 0.732471 0.000000
1.000000 0.731225 0.000000
0.000000 0.811819 0.000000
0.000000 0.810573 0.000000
0.000000 0.809327 0.000000
0.000000 0.808082 0.000000
0.000000 0.806836 0.000000
0.000000 0.805590 0.000000
0.040673 0.804345 0.000000
0.084349 0.803099 0.000000
0.128025 0.801853 0.000000
0.171701 0.800607 0.000000
0.215377 0.799362 0.000000
0.259054 0.798116 0.000000
0.302730 0.796870 0.000000
0.346406 0.795625 0.000000
0.390082 0.794379 0.000000
0.433758 0.793133 0.000000
0.477434 0.791887 0.000000
0.521111 0.790642 0.000000
0.564787 0.789396 0.000000
0.608463 0.788150 0.000000
0.652139 0.786905 0.000000
0.695815 0.785659 0.000000
0.739491 0.784413 0.000000
0.783168 0.783168 0.000000
0.826844 0.781922 0.000000
0.870520 0.780676 0.000000
0.914196 0.779430 0.000000
0.957872 0.778185 0.000000
1.000000 0.776939 0.000000
1.000000 0.775693 0.000000
1.000000 0.774448 0.000000
1.000000 0.773202 0.000000
1.000000 0.771956 0.000000
0.000000 0.852550 0.000000
0.000000 0.851304 0.000000
0.000000 0.850059 0.000000
0.000000 0.848813 0.000000
0.000000 0.847567 0.000000
0.000000 0.846321 0.000000
0.036482 0.845076 0.000000
0.080158 0.843830 0.000000
0.123834 0.842584 0.000000
0.167511 0.841339 0.000000
0.211187 0.840093 0.000000
0.254863 0.838847 0.000000
0.298539 0.837602 0.000000
0.342215 0.836356 0.000000
0.385891 0.835110 0.000000
0.429568 0.833864 0.000000
0.473244 0.832619 0.000000
0.516920 0.831373 0.000000
0.560596 0.830127 0.000000
0.604272 0.828882 0.000000
0.647948 0.827636 0.000000
0.691625 0.826390 0.000000
0.735301 0.825145 0.000000
0.778977 0.823899 0.000000
0.822653 0.822653 0.000000
0.866329 0.821407 0.000000
0.910005 0.820162 0.000000
0.953682 0.818916 0.000000
0.997358 0.817670 0.000000
1.000000 0.816425 0.000000
1.000000 0.815179 0.000000
1.000000 0.813933 0.000000
1.000000 0.812688 0.000000
0.000000 0.893281 0.000000
0.000000 0.892036 0.000000
0.000000 0.890790 0.000000
0.000000 0.889544 0.000000
0.000000 0.888298 0.000000
0.000000 0.887053 0.000000
0.032291 0.885807 0.000000
0.075968 0.884561 0.000000
0.119644 0.883316 0.000000
0.163320 0.882070 0.000000
0.206996 0.880824 0.000000
0.250672 0.879579 0.000000
0.294348 0.878333 0.000000
0.338025 0.877087 0.000000
0.381701 0.875841 0.000000
0.425377 0.874596 0.000000
0.469053 0.873350 0.000000
0.512729 0.872104 0.000000
0.556405 0.870859 0.000000
0.600082 0.869613 0.000000
0.643758 0.868367 0.000000
0.687434 0.867121 0.000000
0.731110 0.865876 0.000000
0.774786 0.864630 0.000000
0.818462 0.863384 0.000000
0.862139 0.862139 0.000000
0.905815 0.860893 0.000000
0.949491 0.859647 0.000000
0.993167 0.858402 0.000000
1.000000 0.857156 0.000000
1.000000 0.855910 0.000000
1.000000 0.854664 0.000000
1.000000 0.853419 0.000000
0.000000 0.934012 0.000000
0.000000 0.932767 0.000000
0.000000 0.931521 0.000000
0.000000 0.930275 0.000000
0.000000 0.929030 0.000000
0.000000 0.927784 0.000000
0.028101 0.926538 0.000000
0.071777 0.925293 0.000000
0.115453 0.924047 0.000000
0.159129 0.922801 0.000000
0.202805 0.921555 0.000000
0.246482 0.920310 0.000000
0.290158 0.919064 0.000000
0.333834 0.917818 0.000000
0.377510 0.916573 0.000000
0.421186 0.915327 0.000000
0.464863 0.914081 0.000000
0.508539 0.912836 0.000000
0.552215 0.911590 0.000000
0.595891 0.910344 0.000000
0.639567 0.909098 0.000000
0.683243 0.907853 0.000000
0.726920 0.906607 0.000000
0.770596 0.905361 0.000000
0.814272 0.904116 0.000000
0.857948 0.902870 0.000000
0.901624 0.901624 0.000000
0.945300 0.900379 0.000000
0.988977 0.899133 0.000000
