luts/moody.cube
TITLE "Moody"
LUT_3D_SIZE 9
0.000000 0.000000 0.000000
0.049705 0.000000 0.000000
0.224409 0.000000 0.000000
0.399114 0.000000 0.000000
0.573819 0.000000 0.000000
0.748523 0.000000 0.000000
0.923228 0.000000 0.000000
1.000000 0.000000 0.000000
1.000000 0.000000 0.000000
0.000000 0.037925 0.000000
0.032942 0.032942 0.000000
0.207647 0.027959 0.000000
0.382352 0.022977 0.000000
0.557056 0.017994 0.000000
0.731761 0.013011 0.000000
0.906466 0.008028 0.000000
1.000000 0.003045 0.000000
1.000000 0.000000 0.000000
0.000000 0.200850 0.000000
0.016180 0.195867 0.000000
0.190884 0.190884 0.000000
0.365589 0.185902 0.000000
0.540294 0.180919 0.000000
0.714998 0.175936 0.000000
0.889703 0.170953 0.000000
1.000000 0.165970 0.000000
1.000000 0.160988 0.000000
0.000000 0.363775 0.000000
0.000000 0.358792 0.000000
0.174122 0.353809 0.000000
0.348827 0.348827 0.000000
0.523531 0.343844 0.000000
0.698236 0.338861 0.000000
0.872941 0.333878 0.000000
1.000000 0.328895 0.000000
1.000000 0.323913 0.000000
0.000000 0.526700 0.000000
0.000000 0.521717 0.000000
0.157359 0.516734 0.000000
0.332064 0.511752 0.000000
0.506769 0.506769 0.000000
0.681473 0.501786 0.000000
0.856178 0.496803 0.000000
1.000000 0.491820 0.000000
1.000000 0.486837 0.000000
0.000000 0.689625 0.000000
0.000000 0.684642 0.000000
0.140597 0.679659 0.000000
0.315302 0.674677 0.000000
0.490006 0.669694 0.000000
0.664711 0.664711 0.000000
0.839416 0.659728 0.000000
1.000000 0.654745 0.000000
1.000000 0.649763 0.000000
0.000000 0.852550 0.000000
0.000000 0.847567 0.000000
0.123834 0.842584 0.000000
0.298539 0.837602 0.000000
0.473244 0.832619 0.000000
0.647948 0.827636 0.000000
0.822653 0.822653 0.000000
0.997358 0.817670 0.000000
1.000000 0.812688 0.000000
0.000000 1.000000 0.000000
0.000000 1.000000 0.000000
0.107072 1.000000 0.000000
0.281777 1.000000 0.000000
0.456481 0.995544 0.000000
0.631186 0.990561 0.000000
0.805891 0.985578 0.000000
0.980595 0.980595 0.000000
1.000000 0.975612 0.000000
0.000000 1.000000 0.000000
0.000000 1.000000 0.000000
0.090309 1.000000 0.000000
0.265014 1.000000 0.000000
0.439719 1.000000 0.000000
0.614423 1.000000 0.000000
0.789128 1.000000 0.000000
0.963833 1.000000 0.000000
1.000000 1.000000 0.000000
0.000000 0.000000 0.052995
0.048012 0.000000 0.048012
0.222717 0.000000 0.043030
0.397422 0.000000 0.038047
0.572127 0.000000 0.033064
0.746831 0.000000 0.028081
0.921536 0.000000 0.023098
1.000000 0.000000 0.018116
1.000000 0.000000 0.013133
0.000000 0.036233 0.036233
0.031250 0.031250 0.031250
0.205955 0.026267 0.026267
0.380659 0.021284 0.021284
0.555364 0.016302 0.016302
0.730069 0.011319 0.011319
0.904773 0.006336 0.006336
1.000000 0.001353 0.001353
1.000000 0.000000 0.000000
0.000000 0.199158 0.019470
0.014488 0.194175 0.014488
0.189192 0.189192 0.009505
0.363897 0.184209 0.004522
0.538602 0.179227 0.000000
0.713306 0.174244 0.000000
0.888011 0.169261 0.000000
1.000000 0.164278 0.000000
1.000000 0.159295 0.000000
0.000000 0.362083 0.002708
0.000000 0.357100 0.000000
0.172430 0.352117 0.000000
0.347134 0.347134 0.000000
0.521839 0.342152 0.000000
0.696544 0.337169 0.000000
0.871248 0.332186 0.000000
1.000000 0.327203 0.000000
1.000000 0.322220 0.000000
0.000000 0.525008 0.000000
0.000000 0.520025 0.000000
0.155667 0.515042 0.000000
0.330372 0.510059 0.000000
0.505077 0.505077 0.000000
0.679781 0.500094 0.000000
0.854486 0.495111 0.000000
1.000000 0.490128 0.000000
1.000000 0.485145 0.000000
0.000000 0.687933 0.000000
0.000000 0.682950 0.000000
0.138905 0.677967 0.000000
0.313609 0.672984 0.000000
0.488314 0.668002 0.000000
0.663019 0.663019 0.000000
0.837723 0.658036 0.000000
1.000000 0.653053 0.000000
1.000000 0.648070 0.000000
0.000000 0.850858 0.000000
0.000000 0.845875 0.000000
0.122142 0.840892 0.000000
0.296847 0.835909 0.000000
0.471552 0.830927 0.000000
0.646256 0.825944 0.000000
0.820961 0.820961 0.000000
0.995666 0.815978 0.000000
1.000000 0.810995 0.000000
0.000000 1.000000 0.000000
0.000000 1.000000 0.000000
0.105380 1.000000 0.000000
0.280084 0.998834 0.000000
0.454789 0.993852 0.000000
0.629494 0.988869 0.000000
0.804198 0.983886 0.000000
0.978903 0.978903 0.000000
1.000000 0.973920 0.000000
0.000000 1.000000 0.000000
0.000000 1.000000 0.000000
0.088617 1.000000 0.000000
0.263322 1.000000 0.000000
0.438027 1.000000 0.000000
0.612731 1.000000 0.000000
0.787436 1.000000 0.000000
0.962141 1.000000 0.000000
1.000000 1.000000 0.000000
0.000000 0.000000 0.230991
0.046320 0.000000 0.226008
0.221025 0.000000 0.221025
0.395730 0.000000 0.216042
0.570434 0.000000 0.211059
0.745139 0.000000 0.206077
0.919844 0.000000 0.201094
1.000000 0.000000 0.196111
1.000000 0.000000 0.191128
0.000000 0.034541 0.214228
0.029558 0.029558 0.209245
0.204262 0.024575 0.204262
0.378967 0.019592 0.199280
0.553672 0.014609 0.194297
0.728377 0.009627 0.189314
0.903081 0.004644 0.184331
1.000000 0.000000 0.179348
1.000000 0.000000 0.174366
0.000000 0.197466 0.197466
0.012795 0.192483 0.192483
0.187500 0.187500 0.187500
0.362205 0.182517 0.182517
0.536909 0.177534 0.177534
0.711614 0.172552 0.172552
0.886319 0.167569 0.167569
1.000000 0.162586 0.162586
1.000000 0.157603 0.157603
0.000000 0.360391 0.180703
0.000000 0.355408 0.175720
0.170738 0.350425 0.170738
0.345442 0.345442 0.165755
0.520147 0.340459 0.160772
0.694852 0.335477 0.155789
0.869556 0.330494 0.150806
1.000000 0.325511 0.145823
1.000000 0.320528 0.140841
0.000000 0.523316 0.163941
0.000000 0.518333 0.158958
0.153975 0.513350 0.153975
0.328680 0.508367 0.148992
0.503384 0.503384 0.144009
0.678089 0.498402 0.139027
0.852794 0.493419 0.134044
1.000000 0.488436 0.129061
1.000000 0.483453 0.124078
0.000000 0.686241 0.147178
0.000000 0.681258 0.142195
0.137213 0.676275 0.137213
0.311917 0.671292 0.132230
0.486622 0.666309 0.127247
0.661327 0.661327 0.122264
0.836031 0.656344 0.117281
1.000000 0.651361 0.112298
1.000000 0.646378 0.107316
0.000000 0.849166 0.130416
0.000000 0.844183 0.125433
0.120450 0.839200 0.120450
0.295155 0.834217 0.115467
0.469859 0.829234 0.110484
0.644564 0.824252 0.105502
0.819269 0.819269 0.100519
0.993973 0.814286 0.095536
1.000000 0.809303 0.090553
0.000000 1.000000 0.113653
0.000000 1.000000 0.108670
0.103688 1.000000 0.103688
0.278392 0.997142 0.098705
0.453097 0.992159 0.093722
0.627802 0.987177 0.088739
0.802506 0.982194 0.083756
0.977211 0.977211 0.078773
1.000000 0.972228 0.073791
0.000000 1.000000 0.096891
0.000000 1.000000 0.091908
0.086925 1.000000 0.086925
0.261630 1.000000 0.081942
0.436334 1.000000 0.076959
0.611039 1.000000 0.071977
0.785744 1.000000 0.066994
0.960448 1.000000 0.062011
1.000000 1.000000 0.057028
0.000000 0.000000 0.408986
0.044628 0.000000 0.404003
0.219333 0.000000 0.399020
0.394037 0.000000 0.394037
0.568742 0.000000 0.389055
0.743447 0.000000 0.384072
0.918152 0.000000 0.379089
1.000000 0.000000 0.374106
1.000000 0.000000 0.369123
0.000000 0.032848 0.392223
0.027866 0.027866 0.387241
0.202570 0.022883 0.382258
0.377275 0.017900 0.377275
0.551980 0.012917 0.372292
0.726684 0.007934 0.367309
0.901389 0.002952 0.362327
1.000000 0.000000 0.357344
1.000000 0.000000 0.352361
0.000000 0.195773 0.375461
0.011103 0.190791 0.370478
0.185808 0.185808 0.365495
0.360513 0.180825 0.360513
0.535217 0.175842 0.355530
0.709922 0.170859 0.350547
0.884627 0.165877 0.345564
1.000000 0.160894 0.340581
1.000000 0.155911 0.335598
0.000000 0.358698 0.358698
0.000000 0.353716 0.353716
0.169045 0.348733 0.348733
0.343750 0.343750 0.343750
0.518455 0.338767 0.338767
0.693159 0.333784 0.333784
0.867864 0.328802 0.328802
1.000000 0.323819 0.323819
1.000000 0.318836 0.318836
0.000000 0.521623 0.341936
0.000000 0.516641 0.336953
0.152283 0.511658 0.331970
0.326987 0.506675 0.326987
0.501692 0.501692 0.322005
0.676397 0.496709 0.317022
0.851102 0.491727 0.312039
1.000000 0.486744 0.307056
1.000000 0.481761 0.302073
0.000000 0.684548 0.325173
0.000000 0.679566 0.320191
0.135520 0.674583 0.315208
0.310225 0.669600 0.310225
0.484930 0.664617 0.305242
0.659634 0.659634 0.300259
0.834339 0.654652 0.295277
1.000000 0.649669 0.290294
1.000000 0.644686 0.285311
0.000000 0.847473 0.308411
0.000000 0.842491 0.303428
0.118758 0.837508 0.298445
0.293463 0.832525 0.293463
0.468167 0.827542 0.288480
0.642872 0.822559 0.283497
0.817577 0.817577 0.278514
0.992281 0.812594 0.273531
1.000000 0.807611 0.268548
0.000000 1.000000 0.291648
0.000000 1.000000 0.286666
0.101995 1.000000 0.281683
0.276700 0.995450 0.276700
0.451405 0.990467 0.271717
0.626109 0.985484 0.266734
0.800814 0.980502 0.261752
0.975519 0.975519 0.256769
1.000000 0.970536 0.251786
0.000000 1.000000 0.274886
0.000000 1.000000 0.269903
0.085233 1.000000 0.264920
0.259938 1.000000 0.259938
0.434642 1.000000 0.254955
0.609347 1.000000 0.249972
0.784052 1.000000 0.244989
0.958756 1.000000 0.240006
1.000000 1.000000 0.235023
0.000000 0.000000 0.586981
0.042936 0.000000 0.581998
0.217641 0.000000 0.577016
0.392345 0.000000 0.572033
0.567050 0.000000 0.567050
0.741755 0.000000 0.562067
0.916459 0.000000 0.557084
1.000000 0.000000 0.552102
1.000000 0.000000 0.547119
0.000000 0.031156 0.570219
0.026173 0.026173 0.565236
0.200878 0.021191 0.560253
0.375583 0.016208 0.555270
0.550288 0.011225 0.550288
0.724992 0.006242 0.545305
0.899697 0.001259 0.540322
1.000000 0.000000 0.535339
1.000000 0.000000 0.530356
0.000000 0.194081 0.553456
0.009411 0.189098 0.548473
0.184116 0.184116 0.543491
0.358820 0.179133 0.538508
0.533525 0.174150 0.533525
0.708230 0.169167 0.528542
0.882934 0.164184 0.523559
1.000000 0.159202 0.518577
1.000000 0.154219 0.513594
0.000000 0.357006 0.536694
0.000000 0.352023 0.531711
0.167353 0.347041 0.526728
0.342058 0.342058 0.521745
0.516763 0.337075 0.516763
0.691467 0.332092 0.511780
0.866172 0.327109 0.506797
1.000000 0.322127 0.501814
1.000000 0.317144 0.496831
0.000000 0.519931 0.519931
0.000000 0.514948 0.514948
0.150591 0.509966 0.509966
0.325295 0.504983 0.504983
0.500000 0.500000 0.500000
0.674705 0.495017 0.495017
0.849409 0.490034 0.490034
1.000000 0.485052 0.485052
1.000000 0.480069 0.480069
0.000000 0.682856 0.503169
0.000000 0.677873 0.498186
0.133828 0.672891 0.493203
0.308533 0.667908 0.488220
0.483237 0.662925 0.483237
0.657942 0.657942 0.478255
0.832647 0.652959 0.473272
1.000000 0.647977 0.468289
1.000000 0.642994 0.463306
0.000000 0.845781 0.486406
0.000000 0.840798 0.481423
0.117066 0.835816 0.476441
0.291770 0.830833 0.471458
0.466475 0.825850 0.466475
0.641180 0.820867 0.461492
0.815884 0.815884 0.456509
0.990589 0.810902 0.451527
1.000000 0.805919 0.446544
0.000000 1.000000 0.469644
0.000000 1.000000 0.464661
0.100303 0.998741 0.459678
0.275008 0.993758 0.454695
0.449713 0.988775 0.449713
0.624417 0.983792 0.444730
0.799122 0.978809 0.439747
0.973827 0.973827 0.434764
1.000000 0.968844 0.429781
0.000000 1.000000 0.452881
0.000000 1.000000 0.447898
0.083541 1.000000 0.442916
0.258245 1.000000 0.437933
0.432950 1.000000 0.432950
0.607655 1.000000 0.427967
0.782359 1.000000 0.422984
0.957064 1.000000 0.418002
1.000000 1.000000 0.413019
0.000000 0.000000 0.764977
0.041244 0.000000 0.759994
0.215948 0.000000 0.755011
0.390653 0.000000 0.750028
0.565358 0.000000 0.745045
0.740062 0.000000 0.740062
0.914767 0.000000 0.735080
1.000000 0.000000 0.730097
1.000000 0.000000 0.725114
0.000000 0.029464 0.748214
0.024481 0.024481 0.743231
0.199186 0.019498 0.738248
0.373891 0.014516 0.733266
0.548595 0.009533 0.728283
0.723300 0.004550 0.723300
0.898005 0.000000 0.718317
1.000000 0.000000 0.713334
1.000000 0.000000 0.708352
0.000000 0.192389 0.731452
0.007719 0.187406 0.726469
0.182423 0.182423 0.721486
0.357128 0.177441 0.716503
0.531833 0.172458 0.711520
0.706538 0.167475 0.706538
0.881242 0.162492 0.701555
1.000000 0.157509 0.696572
1.000000 0.152527 0.691589
0.000000 0.355314 0.714689
0.000000 0.350331 0.709706
0.165661 0.345348 0.704723
0.340366 0.340366 0.699741
0.515070 0.335383 0.694758
0.689775 0.330400 0.689775
0.864480 0.325417 0.684792
1.000000 0.320434 0.679809
1.000000 0.315452 0.674827
0.000000 0.518239 0.697927
0.000000 0.513256 0.692944
0.148898 0.508273 0.687961
0.323603 0.503291 0.682978
0.498308 0.498308 0.677995
0.673013 0.493325 0.673013
0.847717 0.488342 0.668030
1.000000 0.483359 0.663047
1.000000 0.478377 0.658064
0.000000 0.681164 0.681164
0.000000 0.676181 0.676181
0.132136 0.671198 0.671198
0.306841 0.666216 0.666216
0.481545 0.661233 0.661233
0.656250 0.656250 0.656250
0.830955 0.651267 0.651267
1.000000 0.646284 0.646284
1.000000 0.641302 0.641302
0.000000 0.844089 0.664402
0.000000 0.839106 0.659419
0.115373 0.834123 0.654436
0.290078 0.829141 0.649453
0.464783 0.824158 0.644470
0.639487 0.819175 0.639487
0.814192 0.814192 0.634505
0.988897 0.809209 0.629522
1.000000 0.804227 0.624539
0.000000 1.000000 0.647639
0.000000 1.000000 0.642656
0.098611 0.997048 0.637673
0.273316 0.992066 0.632691
0.448020 0.987083 0.627708
0.622725 0.982100 0.622725
0.797430 0.977117 0.617742
0.972134 0.972134 0.612759
1.000000 0.967152 0.607777
0.000000 1.000000 0.630877
0.000000 1.000000 0.625894
0.081848 1.000000 0.620911
0.256553 1.000000 0.615928
0.431258 1.000000 0.610945
0.605962 1.000000 0.605962
0.780667 1.000000 0.600980
0.955372 1.000000 0.595997
1.000000 1.000000 0.591014
0.000000 0.000000 0.942972
0.039552 0.000000 0.937989
0.214256 0.000000 0.933006
0.388961 0.000000 0.928023
0.563666 0.000000 0.923041
0.738370 0.000000 0.918058
0.913075 0.000000 0.913075
1.000000 0.000000 0.908092
1.000000 0.000000 0.903109
0.000000 0.027772 0.926209
0.022789 0.022789 0.921227
0.197494 0.017806 0.916244
0.372198 0.012823 0.911261
0.546903 0.007841 0.906278
0.721608 0.002858 0.901295
0.896312 0.000000 0.896312
1.000000 0.000000 0.891330
1.000000 0.000000 0.886347
0.000000 0.190697 0.909447
0.006027 0.185714 0.904464
0.180731 0.180731 0.899481
0.355436 0.175748 0.894498
0.530141 0.170766 0.889516
0.704845 0.165783 0.884533
0.879550 0.160800 0.879550
1.000000 0.155817 0.874567
1.000000 0.150834 0.869584
0.000000 0.353622 0.892684
0.000000 0.348639 0.887702
0.163969 0.343656 0.882719
0.338673 0.338673 0.877736
0.513378 0.333691 0.872753
0.688083 0.328708 0.867770
0.862788 0.323725 0.862788
1.000000 0.318742 0.857805
1.000000 0.313759 0.852822
0.000000 0.516547 0.875922
0.000000 0.511564 0.870939
0.147206 0.506581 0.865956
0.321911 0.501598 0.860973
0.496616 0.496616 0.855991
0.671320 0.491633 0.851008
0.846025 0.486650 0.846025
1.000000 0.481667 0.841042
1.000000 0.476684 0.836059
0.000000 0.679472 0.859159
0.000000 0.674489 0.854177
0.130444 0.669506 0.849194
0.305148 0.664523 0.844211
0.479853 0.659541 0.839228
0.654558 0.654558 0.834245
0.829263 0.649575 0.829263
1.000000 0.644592 0.824280
1.000000 0.639609 0.819297
0.000000 0.842397 0.842397
0.000000 0.837414 0.837414
0.113681 0.832431 0.832431
0.288386 0.827448 0.827448
0.463091 0.822466 0.822466
0.637795 0.817483 0.817483
0.812500 0.812500 0.812500
0.987205 0.807517 0.807517
1.000000 0.802534 0.802534
0.000000 1.000000 0.825634
0.000000 1.000000 0.820652
0.096919 0.995356 0.815669
0.271623 0.990373 0.810686
0.446328 0.985391 0.805703
0.621033 0.980408 0.800720
0.795737 0.975425 0.795737
0.970442 0.970442 0.790755
1.000000 0.965459 0.785772
0.000000 1.000000 0.808872
0.000000 1.000000 0.803889
0.080156 1.000000 0.798906
0.254861 1.000000 0.793923
0.429566 1.000000 0.788941
0.604270 1.000000 0.783958
0.778975 1.000000 0.778975
0.953680 1.000000 0.773992
1.000000 1.000000 0.769009
0.000000 0.000000 1.000000
0.037859 0.000000 1.000000
0.212564 0.000000 1.000000
0.387269 0.000000 1.000000
0.561973 0.000000 1.000000
0.736678 0.000000 1.000000
0.911383 0.000000 1.000000
1.000000 0.000000 1.000000
1.000000 0.000000 1.000000
0.000000 0.026080 1.000000
0.021097 0.021097 1.000000
0.195802 0.016114 1.000000
0.370506 0.011131 1.000000
0.545211 0.006148 1.000000
0.719916 0.001166 1.000000
0.894620 0.000000 1.000000
1.000000 0.000000 1.000000
1.000000 0.000000 1.000000
0.000000 0.189005 1.000000
0.004334 0.184022 1.000000
0.179039 0.179039 1.000000
0.353744 0.174056 1.000000
0.528448 0.169073 1.000000
0.703153 0.164091 1.000000
0.877858 0.159108 1.000000
1.000000 0.154125 1.000000
1.000000 0.149142 1.000000
0.000000 0.351930 1.000000
0.000000 0.346947 1.000000
0.162277 0.341964 1.000000
0.336981 0.336981 1.000000
0.511686 0.331998 1.000000
0.686391 0.327016 1.000000
0.861095 0.322033 1.000000
1.000000 0.317050 1.000000
1.000000 0.312067 1.000000
0.000000 0.514855 1.000000
0.000000 0.509872 1.000000
0.145514 0.504889 1.000000
0.320219 0.499906 1.000000
0.494923 0.494923 1.000000
0.669628 0.489941 1.000000
0.844333 0.484958 1.000000
1.000000 0.479975 1.000000
1.000000 0.474992 1.000000
0.000000 0.677780 1.000000
0.000000 0.672797 1.000000
0.128752 0.667814 1.000000
0.303456 0.662831 1.000000
0.478161 0.657848 1.000000
0.652866 0.652866 1.000000
0.827570 0.647883 1.000000
1.000000 0.642900 1.000000
1.000000 0.637917 0.997292
0.000000 0.840705 1.000000
0.000000 0.835722 1.000000
0.111989 0.830739 1.000000
0.286694 0.825756 1.000000
0.461398 0.820773 1.000000
0.636103 0.815791 0.995478
0.810808 0.810808 0.990495
0.985513 0.805825 0.985513
1.000000 0.800842 0.980530
0.000000 1.000000 1.000000
0.000000 0.998647 0.998647
0.095227 0.993664 0.993664
0.269931 0.988681 0.988681
0.444636 0.983698 0.983698
0.619341 0.978716 0.978716
0.794045 0.973733 0.973733
0.968750 0.968750 0.968750
1.000000 0.963767 0.963767
0.000000 1.000000 0.986867
0.000000 1.000000 0.981884
0.078464 1.000000 0.976902
0.253169 1.000000 0.971919
0.427873 1.000000 0.966936
0.602578 1.000000 0.961953
0.777283 1.000000 0.956970
0.951987 1.000000 0.951987
1.000000 1.000000 0.947005
0.000000 0.000000 1.000000
0.036167 0.000000 1.000000
0.210872 0.000000 1.000000
0.385577 0.000000 1.000000
0.560281 0.000000 1.000000
0.734986 0.000000 1.000000
0.909691 0.000000 1.000000
1.000000 0.000000 1.000000
1.000000 0.000000 1.000000
0.000000 0.024388 1.000000
0.019405 0.019405 1.000000
0.194109 0.014422 1.000000
0.368814 0.009439 1.000000
0.543519 0.004456 1.000000
0.718223 0.000000 1.000000
0.892928 0.000000 1.000000
1.000000 0.000000 1.000000
1.000000 0.000000 1.000000
0.000000 0.187312 1.000000
0.002642 0.182330 1.000000
0.177347 0.177347 1.000000
0.352052 0.172364 1.000000
0.526756 0.167381 1.000000
0.701461 0.162398 1.000000
0.876166 0.157416 1.000000
1.000000 0.152433 1.000000
1.000000 0.147450 1.000000
0.000000 0.350237 1.000000
0.000000 0.345255 1.000000
0.160584 0.340272 1.000000
0.335289 0.335289 1.000000
0.509994 0.330306 1.000000
0.684698 0.325323 1.000000
0.859403 0.320341 1.000000
1.000000 0.315358 1.000000
1.000000 0.310375 1.000000
0.000000 0.513162 1.000000
0.000000 0.508180 1.000000
0.143822 0.503197 1.000000
0.318527 0.498214 1.000000
0.493231 0.493231 1.000000
0.667936 0.488248 1.000000
0.842641 0.483266 1.000000
1.000000 0.478283 1.000000
1.000000 0.473300 1.000000
0.000000 0.676087 1.000000
0.000000 0.671105 1.000000
0.127059 0.666122 1.000000
0.301764 0.661139 1.000000
0.476469 0.656156 1.000000
0.651173 0.651173 1.000000
0.825878 0.646191 1.000000
1.000000 0.641208 1.000000
1.000000 0.636225 1.000000
0.000000 0.839012 1.000000
0.000000 0.834030 1.000000
0.110297 0.829047 1.000000
0.285002 0.824064 1.000000
0.459706 0.819081 1.000000
0.634411 0.814098 1.000000
0.809116 0.809116 1.000000
0.983820 0.804133 1.000000
1.000000 0.799150 1.000000
0.000000 1.000000 1.000000
0.000000 0.996955 1.000000
0.093534 0.991972 1.000000
0.268239 0.986989 1.000000
0.442944 0.982006 1.000000
0.617648 0.977023 1.000000
0.792353 0.972041 1.000000
0.967058 0.967058 1.000000
1.000000 0.962075 1.000000
0.000000 1.000000 1.000000
0.000000 1.000000 1.000000
0.076772 1.000000 1.000000
0.251477 1.000000 1.000000
0.426181 1.000000 1.000000
0.600886 1.000000 1.000000
0.775591 1.000000 1.000000
0.950295 1.000000 1.000000
1.000000 1.000000 1.000000
