luts/soft.cube
TITLE "Soft"
LUT_3D_SIZE 9
0.060000 0.060000 0.060000
0.170000 0.060000 0.060000
0.280000 0.060000 0.060000
0.390000 0.060000 0.060000
0.500000 0.060000 0.060000
0.610000 0.060000 0.060000
0.720000 0.060000 0.060000
0.830000 0.060000 0.060000
0.940000 0.060000 0.060000
0.060000 0.170000 0.060000
0.170000 0.170000 0.060000
0.280000 0.170000 0.060000
0.390000 0.170000 0.060000
0.500000 0.170000 0.060000
0.610000 0.170000 0.060000
0.720000 0.170000 0.060000
0.830000 0.170000 0.060000
0.940000 0.170000 0.060000
0.060000 0.280000 0.060000
0.170000 0.280000 0.060000
0.280000 0.280000 0.060000
0.390000 0.280000 0.060000
0.500000 0.280000 0.060000
0.610000 0.280000 0.060000
0.720000 0.280000 0.060000
0.830000 0.280000 0.060000
0.940000 0.280000 0.060000
0.060000 0.390000 0.060000
0.170000 0.390000 0.060000
0.280000 0.390000 0.060000
0.390000 0.390000 0.060000
0.500000 0.390000 0.060000
0.610000 0.390000 0.060000
0.720000 0.390000 0.060000
0.830000 0.390000 0.060000
0.940000 0.390000 0.060000
0.060000 0.500000 0.060000
0.170000 0.500000 0.060000
0.280000 0.500000 0.060000
0.390000 0.500000 0.060000
0.500000 0.500000 0.060000
0.610000 0.500000 0.060000
0.720000 0.500000 0.060000
0.830000 0.500000 0.060000
0.940000 0.500000 0.060000
0.060000 0.610000 0.060000
0.170000 0.610000 0.060000
0.280000 0.610000 0.060000
0.390000 0.610000 0.060000
0.500000 0.610000 0.060000
0.610000 0.610000 0.060000
0.720000 0.610000 0.060000
0.830000 0.610000 0.060000
0.940000 0.610000 0.060000
0.060000 0.720000 0.060000
0.170000 0.720000 0.060000
0.280000 0.720000 0.060000
0.390000 0.720000 0.060000
0.500000 0.720000 0.060000
0.610000 0.720000 0.060000
0.720000 0.720000 0.060000
0.830000 0.720000 0.060000
0.940000 0.720000 0.060000
0.060000 0.830000 0.060000
0.170000 0.830000 0.060000
0.280000 0.830000 0.060000
0.390000 0.830000 0.060000
0.500000 0.830000 0.060000
0.610000 0.830000 0.060000
0.720000 0.830000 0.060000
0.830000 0.830000 0.060000
0.940000 0.830000 0.060000
0.060000 0.940000 0.060000
0.170000 0.940000 0.060000
0.280000 0.940000 0.060000
0.390000 0.940000 0.060000
0.500000 0.940000 0.060000
0.610000 0.940000 0.060000
0.720000 0.940000 0.060000
0.830000 0.940000 0.060000
0.940000 0.940000 0.060000
0.060000 0.060000 0.170000
0.170000 0.060000 0.170000
0.280000 0.060000 0.170000
0.390000 0.060000 0.170000
0.500000 0.060000 0.170000
0.610000 0.060000 0.170000
0.720000 0.060000 0.170000
0.830000 0.060000 0.170000
0.940000 0.060000 0.170000
0.060000 0.170000 0.170000
0.170000 0.170000 0.170000
0.280000 0.170000 0.170000
0.390000 0.170000 0.170000
0.500000 0.170000 0.170000
0.610000 0.170000 0.170000
0.720000 0.170000 0.170000
0.830000 0.170000 0.170000
0.940000 0.170000 0.170000
0.060000 0.280000 0.170000
0.170000 0.280000 0.170000
0.280000 0.280000 0.170000
0.390000 0.280000 0.170000
0.500000 0.280000 0.170000
0.610000 0.280000 0.170000
0.720000 0.280000 0.170000
0.830000 0.280000 0.170000
0.940000 0.280000 0.170000
0.060000 0.390000 0.170000
0.170000 0.390000 0.170000
0.280000 0.390000 0.170000
0.390000 0.390000 0.170000
0.500000 0.390000 0.170000
0.610000 0.390000 0.170000
0.720000 0.390000 0.170000
0.830000 0.390000 0.170000
0.940000 0.390000 0.170000
0.060000 0.500000 0.170000
0.170000 0.500000 0.170000
0.280000 0.500000 0.170000
0.390000 0.500000 0.170000
0.500000 0.500000 0.170000
0.610000 0.500000 0.170000
0.720000 0.500000 0.170000
0.830000 0.500000 0.170000
0.940000 0.500000 0.170000
0.060000 0.610000 0.170000
0.170000 0.610000 0.170000
0.280000 0.610000 0.170000
0.390000 0.610000 0.170000
0.500000 0.610000 0.170000
0.610000 0.610000 0.170000
0.720000 0.610000 0.170000
0.830000 0.610000 0.170000
0.940000 0.610000 0.170000
0.060000 0.720000 0.170000
0.170000 0.720000 0.170000
0.280000 0.720000 0.170000
0.390000 0.720000 0.170000
0.500000 0.720000 0.170000
0.610000 0.720000 0.170000
0.720000 0.720000 0.170000
0.830000 0.720000 0.170000
0.940000 0.720000 0.170000
0.060000 0.830000 0.170000
0.170000 0.830000 0.170000
0.280000 0.830000 0.170000
0.390000 0.830000 0.170000
0.500000 0.830000 0.170000
0.610000 0.830000 0.170000
0.720000 0.830000 0.170000
0.830000 0.830000 0.170000
0.940000 0.830000 0.170000
0.060000 0.940000 0.170000
0.170000 0.940000 0.170000
0.280000 0.940000 0.170000
0.390000 0.940000 0.170000
0.500000 0.940000 0.170000
0.610000 0.940000 0.170000
0.720000 0.940000 0.170000
0.830000 0.940000 0.170000
0.940000 0.940000 0.170000
0.060000 0.060000 0.280000
0.170000 0.060000 0.280000
0.280000 0.060000 0.280000
0.390000 0.060000 0.280000
0.500000 0.060000 0.280000
0.610000 0.060000 0.280000
0.720000 0.060000 0.280000
0.830000 0.060000 0.280000
0.940000 0.060000 0.280000
0.060000 0.170000 0.280000
0.170000 0.170000 0.280000
0.280000 0.170000 0.280000
0.390000 0.170000 0.280000
0.500000 0.170000 0.280000
0.610000 0.170000 0.280000
0.720000 0.170000 0.280000
0.830000 0.170000 0.280000
0.940000 0.170000 0.280000
0.060000 0.280000 0.280000
0.170000 0.280000 0.280000
0.280000 0.280000 0.280000
0.390000 0.280000 0.280000
0.500000 0.280000 0.280000
0.610000 0.280000 0.280000
0.720000 0.280000 0.280000
0.830000 0.280000 0.280000
0.940000 0.280000 0.280000
0.060000 0.390000 0.280000
0.170000 0.390000 0.280000
0.280000 0.390000 0.280000
0.390000 0.390000 0.280000
0.500000 0.390000 0.280000
0.610000 0.390000 0.280000
0.720000 0.390000 0.280000
0.830000 0.390000 0.280000
0.940000 0.390000 0.280000
0.060000 0.500000 0.280000
0.170000 0.500000 0.280000
0.280000 0.500000 0.280000
0.390000 0.500000 0.280000
0.500000 0.500000 0.280000
0.610000 0.500000 0.280000
0.720000 0.500000 0.280000
0.830000 0.500000 0.280000
0.940000 0.500000 0.280000
0.060000 0.610000 0.280000
0.170000 0.610000 0.280000
0.280000 0.610000 0.280000
0.390000 0.610000 0.280000
0.500000 0.610000 0.280000
0.610000 0.610000 0.280000
0.720000 0.610000 0.280000
0.830000 0.610000 0.280000
0.940000 0.610000 0.280000
0.060000 0.720000 0.280000
0.170000 0.720000 0.280000
0.280000 0.720000 0.280000
0.390000 0.720000 0.280000
0.500000 0.720000 0.280000
0.610000 0.720000 0.280000
0.720000 0.720000 0.280000
0.830000 0.720000 0.280000
0.940000 0.720000 0.280000
0.060000 0.830000 0.280000
0.170000 0.830000 0.280000
0.280000 0.830000 0.280000
0.390000 0.830000 0.280000
0.500000 0.830000 0.280000
0.610000 0.830000 0.280000
0.720000 0.830000 0.280000
0.830000 0.830000 0.280000
0.940000 0.830000 0.280000
0.060000 0.940000 0.280000
0.170000 0.940000 0.280000
0.280000 0.940000 0.280000
0.390000 0.940000 0.280000
0.500000 0.940000 0.280000
0.610000 0.940000 0.280000
0.720000 0.940000 0.280000
0.830000 0.940000 0.280000
0.940000 0.940000 0.280000
0.060000 0.060000 0.390000
0.170000 0.060000 0.390000
0.280000 0.060000 0.390000
0.390000 0.060000 0.390000
0.500000 0.060000 0.390000
0.610000 0.060000 0.390000
0.720000 0.060000 0.390000
0.830000 0.060000 0.390000
0.940000 0.060000 0.390000
0.060000 0.170000 0.390000
0.170000 0.170000 0.390000
0.280000 0.170000 0.390000
0.390000 0.170000 0.390000
0.500000 0.170000 0.390000
0.610000 0.170000 0.390000
0.720000 0.170000 0.390000
0.830000 0.170000 0.390000
0.940000 0.170000 0.390000
0.060000 0.280000 0.390000
0.170000 0.280000 0.390000
0.280000 0.280000 0.390000
0.390000 0.280000 0.390000
0.500000 0.280000 0.390000
0.610000 0.280000 0.390000
0.720000 0.280000 0.390000
0.830000 0.280000 0.390000
0.940000 0.280000 0.390000
0.060000 0.390000 0.390000
0.170000 0.390000 0.390000
0.280000 0.390000 0.390000
0.390000 0.390000 0.390000
0.500000 0.390000 0.390000
0.610000 0.390000 0.390000
0.720000 0.390000 0.390000
0.830000 0.390000 0.390000
0.940000 0.390000 0.390000
0.060000 0.500000 0.390000
0.170000 0.500000 0.390000
0.280000 0.500000 0.390000
0.390000 0.500000 0.390000
0.500000 0.500000 0.390000
0.610000 0.500000 0.390000
0.720000 0.500000 0.390000
0.830000 0.500000 0.390000
0.940000 0.500000 0.390000
0.060000 0.610000 0.390000
0.170000 0.610000 0.390000
0.280000 0.610000 0.390000
0.390000 0.610000 0.390000
0.500000 0.610000 0.390000
0.610000 0.610000 0.390000
0.720000 0.610000 0.390000
0.830000 0.610000 0.390000
0.940000 0.610000 0.390000
0.060000 0.720000 0.390000
0.170000 0.720000 0.390000
0.280000 0.720000 0.390000
0.390000 0.720000 0.390000
0.500000 0.720000 0.390000
0.610000 0.720000 0.390000
0.720000 0.720000 0.390000
0.830000 0.720000 0.390000
0.940000 0.720000 0.390000
0.060000 0.830000 0.390000
0.170000 0.830000 0.390000
0.280000 0.830000 0.390000
0.390000 0.830000 0.390000
0.500000 0.830000 0.390000
0.610000 0.830000 0.390000
0.720000 0.830000 0.390000
0.830000 0.830000 0.390000
0.940000 0.830000 0.390000
0.060000 0.940000 0.390000
0.170000 0.940000 0.390000
0.280000 0.940000 0.390000
0.390000 0.940000 0.390000
0.500000 0.940000 0.390000
0.610000 0.940000 0.390000
0.720000 0.940000 0.390000
0.830000 0.940000 0.390000
0.940000 0.940000 0.390000
0.060000 0.060000 0.500000
0.170000 0.060000 0.500000
0.280000 0.060000 0.500000
0.390000 0.060000 0.500000
0.500000 0.060000 0.500000
0.610000 0.060000 0.500000
0.720000 0.060000 0.500000
0.830000 0.060000 0.500000
0.940000 0.060000 0.500000
0.060000 0.170000 0.500000
0.170000 0.170000 0.500000
0.280000 0.170000 0.500000
0.390000 0.170000 0.500000
0.500000 0.170000 0.500000
0.610000 0.170000 0.500000
0.720000 0.170000 0.500000
0.830000 0.170000 0.500000
0.940000 0.170000 0.500000
0.060000 0.280000 0.500000
0.170000 0.280000 0.500000
0.280000 0.280000 0.500000
0.390000 0.280000 0.500000
0.500000 0.280000 0.500000
0.610000 0.280000 0.500000
0.720000 0.280000 0.500000
0.830000 0.280000 0.500000
0.940000 0.280000 0.500000
0.060000 0.390000 0.500000
0.170000 0.390000 0.500000
0.280000 0.390000 0.500000
0.390000 0.390000 0.500000
0.500000 0.390000 0.500000
0.610000 0.390000 0.500000
0.720000 0.390000 0.500000
0.830000 0.390000 0.500000
0.940000 0.390000 0.500000
0.060000 0.500000 0.500000
0.170000 0.500000 0.500000
0.280000 0.500000 0.500000
0.390000 0.500000 0.500000
0.500000 0.500000 0.500000
0.610000 0.500000 0.500000
0.720000 0.500000 0.500000
0.830000 0.500000 0.500000
0.940000 0.500000 0.500000
0.060000 0.610000 0.500000
0.170000 0.610000 0.500000
0.280000 0.610000 0.500000
0.390000 0.610000 0.500000
0.500000 0.610000 0.500000
0.610000 0.610000 0.500000
0.720000 0.610000 0.500000
0.830000 0.610000 0.500000
0.940000 0.610000 0.500000
0.060000 0.720000 0.500000
0.170000 0.720000 0.500000
0.280000 0.720000 0.500000
0.390000 0.720000 0.500000
0.500000 0.720000 0.500000
0.610000 0.720000 0.500000
0.720000 0.720000 0.500000
0.830000 0.720000 0.500000
0.940000 0.720000 0.500000
0.060000 0.830000 0.500000
0.170000 0.830000 0.500000
0.280000 0.830000 0.500000
0.390000 0.830000 0.500000
0.500000 0.830000 0.500000
0.610000 0.830000 0.500000
0.720000 0.830000 0.500000
0.830000 0.830000 0.500000
0.940000 0.830000 0.500000
0.060000 0.940000 0.500000
0.170000 0.940000 0.500000
0.280000 0.940000 0.500000
0.390000 0.940000 0.500000
0.500000 0.940000 0.500000
0.610000 0.940000 0.500000
0.720000 0.940000 0.500000
0.830000 0.940000 0.500000
0.940000 0.940000 0.500000
0.060000 0.060000 0.610000
0.170000 0.060000 0.610000
0.280000 0.060000 0.610000
0.390000 0.060000 0.610000
0.500000 0.060000 0.610000
0.610000 0.060000 0.610000
0.720000 0.060000 0.610000
0.830000 0.060000 0.610000
0.940000 0.060000 0.610000
0.060000 0.170000 0.610000
0.170000 0.170000 0.610000
0.280000 0.170000 0.610000
0.390000 0.170000 0.610000
0.500000 0.170000 0.610000
0.610000 0.170000 0.610000
0.720000 0.170000 0.610000
0.830000 0.170000 0.610000
0.940000 0.170000 0.610000
0.060000 0.280000 0.610000
0.170000 0.280000 0.610000
0.280000 0.280000 0.610000
0.390000 0.280000 0.610000
0.500000 0.280000 0.610000
0.610000 0.280000 0.610000
0.720000 0.280000 0.610000
0.830000 0.280000 0.610000
0.940000 0.280000 0.610000
0.060000 0.390000 0.610000
0.170000 0.390000 0.610000
0.280000 0.390000 0.610000
0.390000 0.390000 0.610000
0.500000 0.390000 0.610000
0.610000 0.390000 0.610000
0.720000 0.390000 0.610000
0.830000 0.390000 0.610000
0.940000 0.390000 0.610000
0.060000 0.500000 0.610000
0.170000 0.500000 0.610000
0.280000 0.500000 0.610000
0.390000 0.500000 0.610000
0.500000 0.500000 0.610000
0.610000 0.500000 0.610000
0.720000 0.500000 0.610000
0.830000 0.500000 0.610000
0.940000 0.500000 0.610000
0.060000 0.610000 0.610000
0.170000 0.610000 0.610000
0.280000 0.610000 0.610000
0.390000 0.610000 0.610000
0.500000 0.610000 0.610000
0.610000 0.610000 0.610000
0.720000 0.610000 0.610000
0.830000 0.610000 0.610000
0.940000 0.610000 0.610000
0.060000 0.720000 0.610000
0.170000 0.720000 0.610000
0.280000 0.720000 0.610000
0.390000 0.720000 0.610000
0.500000 0.720000 0.610000
0.610000 0.720000 0.610000
0.720000 0.720000 0.610000
0.830000 0.720000 0.610000
0.940000 0.720000 0.610000
0.060000 0.830000 0.610000
0.170000 0.830000 0.610000
0.280000 0.830000 0.610000
0.390000 0.830000 0.610000
0.500000 0.830000 0.610000
0.610000 0.830000 0.610000
0.720000 0.830000 0.610000
0.830000 0.830000 0.610000
0.940000 0.830000 0.610000
0.060000 0.940000 0.610000
0.170000 0.940000 0.610000
0.280000 0.940000 0.610000
0.390000 0.940000 0.610000
0.500000 0.940000 0.610000
0.610000 0.940000 0.610000
0.720000 0.940000 0.610000
0.830000 0.940000 0.610000
0.940000 0.940000 0.610000
0.060000 0.060000 0.720000
0.170000 0.060000 0.720000
0.280000 0.060000 0.720000
0.390000 0.060000 0.720000
0.500000 0.060000 0.720000
0.610000 0.060000 0.720000
0.720000 0.060000 0.720000
0.830000 0.060000 0.720000
0.940000 0.060000 0.720000
0.060000 0.170000 0.720000
0.170000 0.170000 0.720000
0.280000 0.170000 0.720000
0.390000 0.170000 0.720000
0.500000 0.170000 0.720000
0.610000 0.170000 0.720000
0.720000 0.170000 0.720000
0.830000 0.170000 0.720000
0.940000 0.170000 0.720000
0.060000 0.280000 0.720000
0.170000 0.280000 0.720000
0.280000 0.280000 0.720000
0.390000 0.280000 0.720000
0.500000 0.280000 0.720000
0.610000 0.280000 0.720000
0.720000 0.280000 0.720000
0.830000 0.280000 0.720000
0.940000 0.280000 0.720000
0.060000 0.390000 0.720000
0.170000 0.390000 0.720000
0.280000 0.390000 0.720000
0.390000 0.390000 0.720000
0.500000 0.390000 0.720000
0.610000 0.390000 0.720000
0.720000 0.390000 0.720000
0.830000 0.390000 0.720000
0.940000 0.390000 0.720000
0.060000 0.500000 0.720000
0.170000 0.500000 0.720000
0.280000 0.500000 0.720000
0.390000 0.500000 0.720000
0.500000 0.500000 0.720000
0.610000 0.500000 0.720000
0.720000 0.500000 0.720000
0.830000 0.500000 0.720000
0.940000 0.500000 0.720000
0.060000 0.610000 0.720000
0.170000 0.610000 0.720000
0.280000 0.610000 0.720000
0.390000 0.610000 0.720000
0.500000 0.610000 0.720000
0.610000 0.610000 0.720000
0.720000 0.610000 0.720000
0.830000 0.610000 0.720000
0.940000 0.610000 0.720000
0.060000 0.720000 0.720000
0.170000 0.720000 0.720000
0.280000 0.720000 0.720000
0.390000 0.720000 0.720000
0.500000 0.720000 0.720000
0.610000 0.720000 0.720000
0.720000 0.720000 0.720000
0.830000 0.720000 0.720000
0.940000 0.720000 0.720000
0.060000 0.830000 0.720000
0.170000 0.830000 0.720000
0.280000 0.830000 0.720000
0.390000 0.830000 0.720000
0.500000 0.830000 0.720000
0.610000 0.830000 0.720000
0.720000 0.830000 0.720000
0.830000 0.830000 0.720000
0.940000 0.830000 0.720000
0.060000 0.940000 0.720000
0.170000 0.940000 0.720000
0.280000 0.940000 0.720000
0.390000 0.940000 0.720000
0.500000 0.940000 0.720000
0.610000 0.940000 0.720000
0.720000 0.940000 0.720000
0.830000 0.940000 0.720000
0.940000 0.940000 0.720000
0.060000 0.060000 0.830000
0.170000 0.060000 0.830000
0.280000 0.060000 0.830000
0.390000 0.060000 0.830000
0.500000 0.060000 0.830000
0.610000 0.060000 0.830000
0.720000 0.060000 0.830000
0.830000 0.060000 0.830000
0.940000 0.060000 0.830000
0.060000 0.170000 0.830000
0.170000 0.170000 0.830000
0.280000 0.170000 0.830000
0.390000 0.170000 0.830000
0.500000 0.170000 0.830000
0.610000 0.170000 0.830000
0.720000 0.170000 0.830000
0.830000 0.170000 0.830000
0.940000 0.170000 0.830000
0.060000 0.280000 0.830000
0.170000 0.280000 0.830000
0.280000 0.280000 0.830000
0.390000 0.280000 0.830000
0.500000 0.280000 0.830000
0.610000 0.280000 0.830000
0.720000 0.280000 0.830000
0.830000 0.280000 0.830000
0.940000 0.280000 0.830000
0.060000 0.390000 0.830000
0.170000 0.390000 0.830000
0.280000 0.390000 0.830000
0.390000 0.390000 0.830000
0.500000 0.390000 0.830000
0.610000 0.390000 0.830000
0.720000 0.390000 0.830000
0.830000 0.390000 0.830000
0.940000 0.390000 0.830000
0.060000 0.500000 0.830000
0.170000 0.500000 0.830000
0.280000 0.500000 0.830000
0.390000 0.500000 0.830000
0.500000 0.500000 0.830000
0.610000 0.500000 0.830000
0.720000 0.500000 0.830000
0.830000 0.500000 0.830000
0.940000 0.500000 0.830000
0.060000 0.610000 0.830000
0.170000 0.610000 0.830000
0.280000 0.610000 0.830000
0.390000 0.610000 0.830000
0.500000 0.610000 0.830000
0.610000 0.610000 0.830000
0.720000 0.610000 0.830000
0.830000 0.610000 0.830000
0.940000 0.610000 0.830000
0.060000 0.720000 0.830000
0.170000 0.720000 0.830000
0.280000 0.720000 0.830000
0.390000 0.720000 0.830000
0.500000 0.720000 0.830000
0.610000 0.720000 0.830000
0.720000 0.720000 0.830000
0.830000 0.720000 0.830000
0.940000 0.720000 0.830000
0.060000 0.830000 0.830000
0.170000 0.830000 0.830000
0.280000 0.830000 0.830000
0.390000 0.830000 0.830000
0.500000 0.830000 0.830000
0.610000 0.830000 0.830000
0.720000 0.830000 0.830000
0.830000 0.830000 0.830000
0.940000 0.830000 0.830000
0.060000 0.940000 0.830000
0.170000 0.940000 0.830000
0.280000 0.940000 0.830000
0.390000 0.940000 0.830000
0.500000 0.940000 0.830000
0.610000 0.940000 0.830000
0.720000 0.940000 0.830000
0.830000 0.940000 0.830000
0.940000 0.940000 0.830000
0.060000 0.060000 0.940000
0.170000 0.060000 0.940000
0.280000 0.060000 0.940000
0.390000 0.060000 0.940000
0.500000 0.060000 0.940000
0.610000 0.060000 0.940000
0.720000 0.060000 0.940000
0.830000 0.060000 0.940000
0.940000 0.060000 0.940000
0.060000 0.170000 0.940000
0.170000 0.170000 0.940000
0.280000 0.170000 0.940000
0.390000 0.170000 0.940000
0.500000 0.170000 0.940000
0.610000 0.170000 0.940000
0.720000 0.170000 0.940000
0.830000 0.170000 0.940000
0.940000 0.170000 0.940000
0.060000 0.280000 0.940000
0.170000 0.280000 0.940000
0.280000 0.280000 0.940000
0.390000 0.280000 0.940000
0.500000 0.280000 0.940000
0.610000 0.280000 0.940000
0.720000 0.280000 0.940000
0.830000 0.280000 0.940000
0.940000 0.280000 0.940000
0.060000 0.390000 0.940000
0.170000 0.390000 0.940000
0.280000 0.390000 0.940000
0.390000 0.390000 0.940000
0.500000 0.390000 0.940000
0.610000 0.390000 0.940000
0.720000 0.390000 0.940000
0.830000 0.390000 0.940000
0.940000 0.390000 0.940000
0.060000 0.500000 0.940000
0.170000 0.500000 0.940000
0.280000 0.500000 0.940000
0.390000 0.500000 0.940000
0.500000 0.500000 0.940000
0.610000 0.500000 0.940000
0.720000 0.500000 0.940000
0.830000 0.500000 0.940000
0.940000 0.500000 0.940000
0.060000 0.610000 0.940000
0.170000 0.610000 0.940000
0.280000 0.610000 0.940000
0.390000 0.610000 0.940000
0.500000 0.610000 0.940000
0.610000 0.610000 0.940000
0.720000 0.610000 0.940000
0.830000 0.610000 0.940000
0.940000 0.610000 0.940000
0.060000 0.720000 0.940000
0.170000 0.720000 0.940000
0.280000 0.720000 0.940000
0.390000 0.720000 0.940000
0.500000 0.720000 0.940000
0.610000 0.720000 0.940000
0.720000 0.720000 0.940000
0.830000 0.720000 0.940000
0.940000 0.720000 0.940000
0.060000 0.830000 0.940000
0.170000 0.830000 0.940000
0.280000 0.830000 0.940000
0.390000 0.830000 0.940000
0.500000 0.830000 0.940000
0.610000 0.830000 0.940000
0.720000 0.830000 0.940000
0.830000 0.830000 0.940000
0.940000 0.830000 0.940000
0.060000 0.940000 0.940000
0.170000 0.940000 0.940000
0.280000 0.940000 0.940000
0.390000 0.940000 0.940000
0.500000 0.940000 0.940000
0.610000 0.940000 0.940000
0.720000 0.940000 0.940000
0.830000 0.940000 0.940000
0.940000 0.940000 0.940000
