luts/soft.cube
TITLE "Soft"
LUT_3D_SIZE 5
0.060000 0.060000 0.060000
0.280000 0.060000 0.060000
0.500000 0.060000 0.060000
0.720000 0.060000 0.060000
0.940000 0.060000 0.060000
0.060000 0.280000 0.060000
0.280000 0.280000 0.060000
0.500000 0.280000 0.060000
0.720000 0.280000 0.060000
0.940000 0.280000 0.060000
0.060000 0.500000 0.060000
0.280000 0.500000 0.060000
0.500000 0.500000 0.060000
0.720000 0.500000 0.060000
0.940000 0.500000 0.060000
0.060000 0.720000 0.060000
0.280000 0.720000 0.060000
0.500000 0.720000 0.060000
0.720000 0.720000 0.060000
0.940000 0.720000 0.060000
0.060000 0.940000 0.060000
0.280000 0.940000 0.060000
0.500000 0.940000 0.060000
0.720000 0.940000 0.060000
0.940000 0.940000 0.060000
0.060000 0.060000 0.280000
0.280000 0.060000 0.280000
0.500000 0.060000 0.280000
0.720000 0.060000 0.280000
0.940000 0.060000 0.280000
0.060000 0.280000 0.280000
0.280000 0.280000 0.280000
0.500000 0.280000 0.280000
0.720000 0.280000 0.280000
0.940000 0.280000 0.280000
0.060000 0.500000 0.280000
0.280000 0.500000 0.280000
0.500000 0.500000 0.280000
0.720000 0.500000 0.280000
0.940000 0.500000 0.280000
0.060000 0.720000 0.280000
0.280000 0.720000 0.280000
0.500000 0.720000 0.280000
0.720000 0.720000 0.280000
0.940000 0.720000 0.280000
0.060000 0.940000 0.280000
0.280000 0.940000 0.280000
0.500000 0.940000 0.280000
0.720000 0.940000 0.280000
0.940000 0.940000 0.280000
0.060000 0.060000 0.500000
0.280000 0.060000 0.500000
0.500000 0.060000 0.500000
0.720000 0.060000 0.500000
0.940000 0.060000 0.500000
0.060000 0.280000 0.500000
0.280000 0.280000 0.500000
0.500000 0.280000 0.500000
0.720000 0.280000 0.500000
0.940000 0.280000 0.500000
0.060000 0.500000 0.500000
0.280000 0.500000 0.500000
0.500000 0.500000 0.500000
0.720000 0.500000 0.500000
0.940000 0.500000 0.500000
0.060000 0.720000 0.500000
0.280000 0.720000 0.500000
0.500000 0.720000 0.500000
0.720000 0.720000 0.500000
0.940000 0.720000 0.500000
0.060000 0.940000 0.500000
0.280000 0.940000 0.500000
0.500000 0.940000 0.500000
0.720000 0.940000 0.500000
0.940000 0.940000 0.500000
0.060000 0.060000 0.720000
0.280000 0.060000 0.720000
0.500000 0.060000 0.720000
0.720000 0.060000 0.720000
0.940000 0.060000 0.720000
0.060000 0.280000 0.720000
0.280000 0.280000 0.720000
0.500000 0.280000 0.720000
0.720000 0.280000 0.720000
0.940000 0.280000 0.720000
0.060000 0.500000 0.720000
0.280000 0.500000 0.720000
0.500000 0.500000 0.720000
0.720000 0.500000 0.720000
0.940000 0.500000 0.720000
0.060000 0.720000 0.720000
0.280000 0.720000 0.720000
0.500000 0.720000 0.720000
0.720000 0.720000 0.720000
0.940000 0.720000 0.720000
0.060000 0.940000 0.720000
0.280000 0.940000 0.720000
0.500000 0.940000 0.720000
0.720000 0.940000 0.720000
0.940000 0.940000 0.720000
0.060000 0.060000 0.940000
0.280000 0.060000 0.940000
0.500000 0.060000 0.940000
0.720000 0.060000 0.940000
0.940000 0.060000 0.940000
0.060000 0.280000 0.940000
0.280000 0.280000 0.940000
0.500000 0.280000 0.940000
0.720000 0.280000 0.940000
0.940000 0.280000 0.940000
0.060000 0.500000 0.940000
0.280000 0.500000 0.940000
0.500000 0.500000 0.940000
0.720000 0.500000 0.940000
0.940000 0.500000 0.940000
0.060000 0.720000 0.940000
0.280000 0.720000 0.940000
0.500000 0.720000 0.940000
0.720000 0.720000 0.940000
0.940000 0.720000 0.940000
0.060000 0.940000 0.940000
0.280000 0.940000 0.940000
0.500000 0.940000 0.940000
0.720000 0.940000 0.940000
0.940000 0.940000 0.940000
