luts/soft.cube
TITLE "Soft"
LUT_3D_SIZE 33
0.060000 0.060000 0.060000
0.087500 0.060000 0.060000
0.115000 0.060000 0.060000
0.142500 0.060000 0.060000
0.170000 0.060000 0.060000
0.197500 0.060000 0.060000
0.225000 0.060000 0.060000
0.252500 0.060000 0.060000
0.280000 0.060000 0.060000
0.307500 0.060000 0.060000
0.335000 0.060000 0.060000
0.362500 0.060000 0.060000
0.390000 0.060000 0.060000
0.417500 0.060000 0.060000
0.445000 0.060000 0.060000
0.472500 0.060000 0.060000
0.500000 0.060000 0.060000
0.527500 0.060000 0.060000
0.555000 0.060000 0.060000
0.582500 0.060000 0.060000
0.610000 0.060000 0.060000
0.637500 0.060000 0.060000
0.665000 0.060000 0.060000
0.692500 0.060000 0.060000
0.720000 0.060000 0.060000
0.747500 0.060000 0.060000
0.775000 0.060000 0.060000
0.802500 0.060000 0.060000
0.830000 0.060000 0.060000
0.857500 0.060000 0.060000
0.885000 0.060000 0.060000
0.912500 0.060000 0.060000
0.940000 0.060000 0.060000
0.060000 0.087500 0.060000
0.087500 0.087500 0.060000
0.115000 0.087500 0.060000
0.142500 0.087500 0.060000
0.170000 0.087500 0.060000
0.197500 0.087500 0.060000
0.225000 0.087500 0.060000
0.252500 0.087500 0.060000
0.280000 0.087500 0.060000
0.307500 0.087500 0.060000
0.335000 0.087500 0.060000
0.362500 0.087500 0.060000
0.390000 0.087500 0.060000
0.417500 0.087500 0.060000
0.445000 0.087500 0.060000
0.472500 0.087500 0.060000
0.500000 0.087500 0.060000
0.527500 0.087500 0.060000
0.555000 0.087500 0.060000
0.582500 0.087500 0.060000
0.610000 0.087500 0.060000
0.637500 0.087500 0.060000
0.665000 0.087500 0.060000
0.692500 0.087500 0.060000
0.720000 0.087500 0.060000
0.747500 0.087500 0.060000
0.775000 0.087500 0.060000
0.802500 0.087500 0.060000
0.830000 0.087500 0.060000
0.857500 0.087500 0.060000
0.885000 0.087500 0.060000
0.912500 0.087500 0.060000
0.940000 0.087500 0.060000
0.060000 0.115000 0.060000
0.087500 0.115000 0.060000
0.115000 0.115000 0.060000
0.142500 0.115000 0.060000
0.170000 0.115000 0.060000
0.197500 0.115000 0.060000
0.225000 0.115000 0.060000
0.252500 0.115000 0.060000
0.280000 0.115000 0.060000
0.307500 0.115000 0.060000
0.335000 0.115000 0.060000
0.362500 0.115000 0.060000
0.390000 0.115000 0.060000
0.417500 0.115000 0.060000
0.445000 0.115000 0.060000
0.472500 0.115000 0.060000
0.500000 0.115000 0.060000
0.527500 0.115000 0.060000
0.555000 0.115000 0.060000
0.582500 0.115000 0.060000
0.610000 0.115000 0.060000
0.637500 0.115000 0.060000
0.665000 0.115000 0.060000
0.692500 0.115000 0.060000
0.720000 0.115000 0.060000
0.747500 0.115000 0.060000
0.775000 0.115000 0.060000
0.802500 0.115000 0.060000
0.830000 0.115000 0.060000
0.857500 0.115000 0.060000
0.885000 0.115000 0.060000
0.912500 0.115000 0.060000
0.940000 0.115000 0.060000
0.060000 0.142500 0.060000
0.087500 0.142500 0.060000
0.115000 0.142500 0.060000
0.142500 0.142500 0.060000
0.170000 0.142500 0.060000
0.197500 0.142500 0.060000
0.225000 0.142500 0.060000
0.252500 0.142500 0.060000
0.280000 0.142500 0.060000
0.307500 0.142500 0.060000
0.335000 0.142500 0.060000
0.362500 0.142500 0.060000
0.390000 0.142500 0.060000
0.417500 0.142500 0.060000
0.445000 0.142500 0.060000
0.472500 0.142500 0.060000
0.500000 0.142500 0.060000
0.527500 0.142500 0.060000
0.555000 0.142500 0.060000
0.582500 0.142500 0.060000
0.610000 0.142500 0.060000
0.637500 0.142500 0.060000
0.665000 0.142500 0.060000
0.692500 0.142500 0.060000
0.720000 0.142500 0.060000
0.747500 0.142500 0.060000
0.775000 0.142500 0.060000
0.802500 0.142500 0.060000
0.830000 0.142500 0.060000
0.857500 0.142500 0.060000
0.885000 0.142500 0.060000
0.912500 0.142500 0.060000
0.940000 0.142500 0.060000
0.060000 0.170000 0.060000
0.087500 0.170000 0.060000
0.115000 0.170000 0.060000
0.142500 0.170000 0.060000
0.170000 0.170000 0.060000
0.197500 0.170000 0.060000
0.225000 0.170000 0.060000
0.252500 0.170000 0.060000
0.280000 0.170000 0.060000
0.307500 0.170000 0.060000
0.335000 0.170000 0.060000
0.362500 0.170000 0.060000
0.390000 0.170000 0.060000
0.417500 0.170000 0.060000
0.445000 0.170000 0.060000
0.472500 0.170000 0.060000
0.500000 0.170000 0.060000
0.527500 0.170000 0.060000
0.555000 0.170000 0.060000
0.582500 0.170000 0.060000
0.610000 0.170000 0.060000
0.637500 0.170000 0.060000
0.665000 0.170000 0.060000
0.692500 0.170000 0.060000
0.720000 0.170000 0.060000
0.747500 0.170000 0.060000
0.775000 0.170000 0.060000
0.802500 0.170000 0.060000
0.830000 0.170000 0.060000
0.857500 0.170000 0.060000
0.885000 0.170000 0.060000
0.912500 0.170000 0.060000
0.940000 0.170000 0.060000
0.060000 0.197500 0.060000
0.087500 0.197500 0.060000
0.115000 0.197500 0.060000
0.142500 0.197500 0.060000
0.170000 0.197500 0.060000
0.197500 0.197500 0.060000
0.225000 0.197500 0.060000
0.252500 0.197500 0.060000
0.280000 0.197500 0.060000
0.307500 0.197500 0.060000
0.335000 0.197500 0.060000
0.362500 0.197500 0.060000
0.390000 0.197500 0.060000
0.417500 0.197500 0.060000
0.445000 0.197500 0.060000
0.472500 0.197500 0.060000
0.500000 0.197500 0.060000
0.527500 0.197500 0.060000
0.555000 0.197500 0.060000
0.582500 0.197500 0.060000
0.610000 0.197500 0.060000
0.637500 0.197500 0.060000
0.665000 0.197500 0.060000
0.692500 0.197500 0.060000
0.720000 0.197500 0.060000
0.747500 0.197500 0.060000
0.775000 0.197500 0.060000
0.802500 0.197500 0.060000
0.830000 0.197500 0.060000
0.857500 0.197500 0.060000
0.885000 0.197500 0.060000
0.912500 0.197500 0.060000
0.940000 0.197500 0.060000
0.060000 0.225000 0.060000
0.087500 0.225000 0.060000
0.115000 0.225000 0.060000
0.142500 0.225000 0.060000
0.170000 0.225000 0.060000
0.197500 0.225000 0.060000
0.225000 0.225000 0.060000
0.252500 0.225000 0.060000
0.280000 0.225000 0.060000
0.307500 0.225000 0.060000
0.335000 0.225000 0.060000
0.362500 0.225000 0.060000
0.390000 0.225000 0.060000
0.417500 0.225000 0.060000
0.445000 0.225000 0.060000
0.472500 0.225000 0.060000
0.500000 0.225000 0.060000
0.527500 0.225000 0.060000
0.555000 0.225000 0.060000
0.582500 0.225000 0.060000
0.610000 0.225000 0.060000
0.637500 0.225000 0.060000
0.665000 0.225000 0.060000
0.692500 0.225000 0.060000
0.720000 0.225000 0.060000
0.747500 0.225000 0.060000
0.775000 0.225000 0.060000
0.802500 0.225000 0.060000
0.830000 0.225000 0.060000
0.857500 0.225000 0.060000
0.885000 0.225000 0.060000
0.912500 0.225000 0.060000
0.940000 0.225000 0.060000
0.060000 0.252500 0.060000
0.087500 0.252500 0.060000
0.115000 0.252500 0.060000
0.142500 0.252500 0.060000
0.170000 0.252500 0.060000
0.197500 0.252500 0.060000
0.225000 0.252500 0.060000
0.252500 0.252500 0.060000
0.280000 0.252500 0.060000
0.307500 0.252500 0.060000
0.335000 0.252500 0.060000
0.362500 0.252500 0.060000
0.390000 0.252500 0.060000
0.417500 0.252500 0.060000
0.445000 0.252500 0.060000
0.472500 0.252500 0.060000
0.500000 0.252500 0.060000
0.527500 0.252500 0.060000
0.555000 0.252500 0.060000
0.582500 0.252500 0.060000
0.610000 0.252500 0.060000
0.637500 0.252500 0.060000
0.665000 0.252500 0.060000
0.692500 0.252500 0.060000
0.720000 0.252500 0.060000
0.747500 0.252500 0.060000
0.775000 0.252500 0.060000
0.802500 0.252500 0.060000
0.830000 0.252500 0.060000
0.857500 0.252500 0.060000
0.885000 0.252500 0.060000
0.912500 0.252500 0.060000
0.940000 0.252500 0.060000
0.060000 0.280000 0.060000
0.087500 0.280000 0.060000
0.115000 0.280000 0.060000
0.142500 0.280000 0.060000
0.170000 0.280000 0.060000
0.197500 0.280000 0.060000
0.225000 0.280000 0.060000
0.252500 0.280000 0.060000
0.280000 0.280000 0.060000
0.307500 0.280000 0.060000
0.335000 0.280000 0.060000
0.362500 0.280000 0.060000
0.390000 0.280000 0.060000
0.417500 0.280000 0.060000
0.445000 0.280000 0.060000
0.472500 0.280000 0.060000
0.500000 0.280000 0.060000
0.527500 0.280000 0.060000
0.555000 0.280000 0.060000
0.582500 0.280000 0.060000
0.610000 0.280000 0.060000
0.637500 0.280000 0.060000
0.665000 0.280000 0.060000
0.692500 0.280000 0.060000
0.720000 0.280000 0.060000
0.747500 0.280000 0.060000
0.775000 0.280000 0.060000
0.802500 0.280000 0.060000
0.830000 0.280000 0.060000
0.857500 0.280000 0.060000
0.885000 0.280000 0.060000
0.912500 0.280000 0.060000
0.940000 0.280000 0.060000
0.060000 0.307500 0.060000
0.087500 0.307500 0.060000
0.115000 0.307500 0.060000
0.142500 0.307500 0.060000
0.170000 0.307500 0.060000
0.197500 0.307500 0.060000
0.225000 0.307500 0.060000
0.252500 0.307500 0.060000
0.280000 0.307500 0.060000
0.307500 0.307500 0.060000
0.335000 0.307500 0.060000
0.362500 0.307500 0.060000
0.390000 0.307500 0.060000
0.417500 0.307500 0.060000
0.445000 0.307500 0.060000
0.472500 0.307500 0.060000
0.500000 0.307500 0.060000
0.527500 0.307500 0.060000
0.555000 0.307500 0.060000
0.582500 0.307500 0.060000
0.610000 0.307500 0.060000
0.637500 0.307500 0.060000
0.665000 0.307500 0.060000
0.692500 0.307500 0.060000
0.720000 0.307500 0.060000
0.747500 0.307500 0.060000
0.775000 0.307500 0.060000
0.802500 0.307500 0.060000
0.830000 0.307500 0.060000
0.857500 0.307500 0.060000
0.885000 0.307500 0.060000
0.912500 0.307500 0.060000
0.940000 0.307500 0.060000
0.060000 0.335000 0.060000
0.087500 0.335000 0.060000
0.115000 0.335000 0.060000
0.142500 0.335000 0.060000
0.170000 0.335000 0.060000
0.197500 0.335000 0.060000
0.225000 0.335000 0.060000
0.252500 0.335000 0.060000
0.280000 0.335000 0.060000
0.307500 0.335000 0.060000
0.335000 0.335000 0.060000
0.362500 0.335000 0.060000
0.390000 0.335000 0.060000
0.417500 0.335000 0.060000
0.445000 0.335000 0.060000
0.472500 0.335000 0.060000
0.500000 0.335000 0.060000
0.527500 0.335000 0.060000
0.555000 0.335000 0.060000
0.582500 0.335000 0.060000
0.610000 0.335000 0.060000
0.637500 0.335000 0.060000
0.665000 0.335000 0.060000
0.692500 0.335000 0.060000
0.720000 0.335000 0.060000
0.747500 0.335000 0.060000
0.775000 0.335000 0.060000
0.802500 0.335000 0.060000
0.830000 0.335000 0.060000
0.857500 0.335000 0.060000
0.885000 0.335000 0.060000
0.912500 0.335000 0.060000
0.940000 0.335000 0.060000
0.060000 0.362500 0.060000
0.087500 0.362500 0.060000
0.115000 0.362500 0.060000
0.142500 0.362500 0.060000
0.170000 0.362500 0.060000
0.197500 0.362500 0.060000
0.225000 0.362500 0.060000
0.252500 0.362500 0.060000
0.280000 0.362500 0.060000
0.307500 0.362500 0.060000
0.335000 0.362500 0.060000
0.362500 0.362500 0.060000
0.390000 0.362500 0.060000
0.417500 0.362500 0.060000
0.445000 0.362500 0.060000
0.472500 0.362500 0.060000
0.500000 0.362500 0.060000
0.527500 0.362500 0.060000
0.555000 0.362500 0.060000
0.582500 0.362500 0.060000
0.610000 0.362500 0.060000
0.637500 0.362500 0.060000
0.665000 0.362500 0.060000
0.692500 0.362500 0.060000
0.720000 0.362500 0.060000
0.747500 0.362500 0.060000
0.775000 0.362500 0.060000
0.802500 0.362500 0.060000
0.830000 0.362500 0.060000
0.857500 0.362500 0.060000
0.885000 0.362500 0.060000
0.912500 0.362500 0.060000
0.940000 0.362500 0.060000
0.060000 0.390000 0.060000
0.087500 0.390000 0.060000
0.115000 0.390000 0.060000
0.142500 0.390000 0.060000
0.170000 0.390000 0.060000
0.197500 0.390000 0.060000
0.225000 0.390000 0.060000
0.252500 0.390000 0.060000
0.280000 0.390000 0.060000
0.307500 0.390000 0.060000
0.335000 0.390000 0.060000
0.362500 0.390000 0.060000
0.390000 0.390000 0.060000
0.417500 0.390000 0.060000
0.445000 0.390000 0.060000
0.472500 0.390000 0.060000
0.500000 0.390000 0.060000
0.527500 0.390000 0.060000
0.555000 0.390000 0.060000
0.582500 0.390000 0.060000
0.610000 0.390000 0.060000
0.637500 0.390000 0.060000
0.665000 0.390000 0.060000
0.692500 0.390000 0.060000
0.720000 0.390000 0.060000
0.747500 0.390000 0.060000
0.775000 0.390000 0.060000
0.802500 0.390000 0.060000
0.830000 0.390000 0.060000
0.857500 0.390000 0.060000
0.885000 0.390000 0.060000
0.912500 0.390000 0.060000
0.940000 0.390000 0.060000
0.060000 0.417500 0.060000
0.087500 0.417500 0.060000
0.115000 0.417500 0.060000
0.142500 0.417500 0.060000
0.170000 0.417500 0.060000
0.197500 0.417500 0.060000
0.225000 0.417500 0.060000
0.252500 0.417500 0.060000
0.280000 0.417500 0.060000
0.307500 0.417500 0.060000
0.335000 0.417500 0.060000
0.362500 0.417500 0.060000
0.390000 0.417500 0.060000
0.417500 0.417500 0.060000
0.445000 0.417500 0.060000
0.472500 0.417500 0.060000
0.500000 0.417500 0.060000
0.527500 0.417500 0.060000
0.555000 0.417500 0.060000
0.582500 0.417500 0.060000
0.610000 0.417500 0.060000
0.637500 0.417500 0.060000
0.665000 0.417500 0.060000
0.692500 0.417500 0.060000
0.720000 0.417500 0.060000
0.747500 0.417500 0.060000
0.775000 0.417500 0.060000
0.802500 0.417500 0.060000
0.830000 0.417500 0.060000
0.857500 0.417500 0.060000
0.885000 0.417500 0.060000
0.912500 0.417500 0.060000
0.940000 0.417500 0.060000
0.060000 0.445000 0.060000
0.087500 0.445000 0.060000
0.115000 0.445000 0.060000
0.142500 0.445000 0.060000
0.170000 0.445000 0.060000
0.197500 0.445000 0.060000
0.225000 0.445000 0.060000
0.252500 0.445000 0.060000
0.280000 0.445000 0.060000
0.307500 0.445000 0.060000
0.335000 0.445000 0.060000
0.362500 0.445000 0.060000
0.390000 0.445000 0.060000
0.417500 0.445000 0.060000
0.445000 0.445000 0.060000
0.472500 0.445000 0.060000
0.500000 0.445000 0.060000
0.527500 0.445000 0.060000
0.555000 0.445000 0.060000
0.582500 0.445000 0.060000
0.610000 0.445000 0.060000
0.637500 0.445000 0.060000
0.665000 0.445000 0.060000
0.692500 0.445000 0.060000
0.720000 0.445000 0.060000
0.747500 0.445000 0.060000
0.775000 0.445000 0.060000
0.802500 0.445000 0.060000
0.830000 0.445000 0.060000
0.857500 0.445000 0.060000
0.885000 0.445000 0.060000
0.912500 0.445000 0.060000
0.940000 0.445000 0.060000
0.060000 0.472500 0.060000
0.087500 0.472500 0.060000
0.115000 0.472500 0.060000
0.142500 0.472500 0.060000
0.170000 0.472500 0.060000
0.197500 0.472500 0.060000
0.225000 0.472500 0.060000
0.252500 0.472500 0.060000
0.280000 0.472500 0.060000
0.307500 0.472500 0.060000
0.335000 0.472500 0.060000
0.362500 0.472500 0.060000
0.390000 0.472500 0.060000
0.417500 0.472500 0.060000
0.445000 0.472500 0.060000
0.472500 0.472500 0.060000
0.500000 0.472500 0.060000
0.527500 0.472500 0.060000
0.555000 0.472500 0.060000
0.582500 0.472500 0.060000
0.610000 0.472500 0.060000
0.637500 0.472500 0.060000
0.665000 0.472500 0.060000
0.692500 0.472500 0.060000
0.720000 0.472500 0.060000
0.747500 0.472500 0.060000
0.775000 0.472500 0.060000
0.802500 0.472500 0.060000
0.830000 0.472500 0.060000
0.857500 0.472500 0.060000
0.885000 0.472500 0.060000
0.912500 0.472500 0.060000
0.940000 0.472500 0.060000
0.060000 0.500000 0.060000
0.087500 0.500000 0.060000
0.115000 0.500000 0.060000
0.142500 0.500000 0.060000
0.170000 0.500000 0.060000
0.197500 0.500000 0.060000
0.225000 0.500000 0.060000
0.252500 0.500000 0.060000
0.280000 0.500000 0.060000
0.307500 0.500000 0.060000
0.335000 0.500000 0.060000
0.362500 0.500000 0.060000
0.390000 0.500000 0.060000
0.417500 0.500000 0.060000
0.445000 0.500000 0.060000
0.472500 0.500000 0.060000
0.500000 0.500000 0.060000
0.527500 0.500000 0.060000
0.555000 0.500000 0.060000
0.582500 0.500000 0.060000
0.610000 0.500000 0.060000
0.637500 0.500000 0.060000
0.665000 0.500000 0.060000
0.692500 0.500000 0.060000
0.720000 0.500000 0.060000
0.747500 0.500000 0.060000
0.775000 0.500000 0.060000
0.802500 0.500000 0.060000
0.830000 0.500000 0.060000
0.857500 0.500000 0.060000
0.885000 0.500000 0.060000
0.912500 0.500000 0.060000
0.940000 0.500000 0.060000
0.060000 0.527500 0.060000
0.087500 0.527500 0.060000
0.115000 0.527500 0.060000
0.142500 0.527500 0.060000
0.170000 0.527500 0.060000
0.197500 0.527500 0.060000
0.225000 0.527500 0.060000
0.252500 0.527500 0.060000
0.280000 0.527500 0.060000
0.307500 0.527500 0.060000
0.335000 0.527500 0.060000
0.362500 0.527500 0.060000
0.390000 0.527500 0.060000
0.417500 0.527500 0.060000
0.445000 0.527500 0.060000
0.472500 0.527500 0.060000
0.500000 0.527500 0.060000
0.527500 0.527500 0.060000
0.555000 0.527500 0.060000
0.582500 0.527500 0.060000
0.610000 0.527500 0.060000
0.637500 0.527500 0.060000
0.665000 0.527500 0.060000
0.692500 0.527500 0.060000
0.720000 0.527500 0.060000
0.747500 0.527500 0.060000
0.775000 0.527500 0.060000
0.802500 0.527500 0.060000
0.830000 0.527500 0.060000
0.857500 0.527500 0.060000
0.885000 0.527500 0.060000
0.912500 0.527500 0.060000
0.940000 0.527500 0.060000
0.060000 0.555000 0.060000
0.087500 0.555000 0.060000
0.115000 0.555000 0.060000
0.142500 0.555000 0.060000
0.170000 0.555000 0.060000
0.197500 0.555000 0.060000
0.225000 0.555000 0.060000
0.252500 0.555000 0.060000
0.280000 0.555000 0.060000
0.307500 0.555000 0.060000
0.335000 0.555000 0.060000
0.362500 0.555000 0.060000
0.390000 0.555000 0.060000
0.417500 0.555000 0.060000
0.445000 0.555000 0.060000
0.472500 0.555000 0.060000
0.500000 0.555000 0.060000
0.527500 0.555000 0.060000
0.555000 0.555000 0.060000
0.582500 0.555000 0.060000
0.610000 0.555000 0.060000
0.637500 0.555000 0.060000
0.665000 0.555000 0.060000
0.692500 0.555000 0.060000
0.720000 0.555000 0.060000
0.747500 0.555000 0.060000
0.775000 0.555000 0.060000
0.802500 0.555000 0.060000
0.830000 0.555000 0.060000
0.857500 0.555000 0.060000
0.885000 0.555000 0.060000
0.912500 0.555000 0.060000
0.940000 0.555000 0.060000
0.060000 0.582500 0.060000
0.087500 0.582500 0.060000
0.115000 0.582500 0.060000
0.142500 0.582500 0.060000
0.170000 0.582500 0.060000
0.197500 0.582500 0.060000
0.225000 0.582500 0.060000
0.252500 0.582500 0.060000
0.280000 0.582500 0.060000
0.307500 0.582500 0.060000
0.335000 0.582500 0.060000
0.362500 0.582500 0.060000
0.390000 0.582500 0.060000
0.417500 0.582500 0.060000
0.445000 0.582500 0.060000
0.472500 0.582500 0.060000
0.500000 0.582500 0.060000
0.527500 0.582500 0.060000
0.555000 0.582500 0.060000
0.582500 0.582500 0.060000
0.610000 0.582500 0.060000
0.637500 0.582500 0.060000
0.665000 0.582500 0.060000
0.692500 0.582500 0.060000
0.720000 0.582500 0.060000
0.747500 0.582500 0.060000
0.775000 0.582500 0.060000
0.802500 0.582500 0.060000
0.830000 0.582500 0.060000
0.857500 0.582500 0.060000
0.885000 0.582500 0.060000
0.912500 0.582500 0.060000
0.940000 0.582500 0.060000
0.060000 0.610000 0.060000
0.087500 0.610000 0.060000
0.115000 0.610000 0.060000
0.142500 0.610000 0.060000
0.170000 0.610000 0.060000
0.197500 0.610000 0.060000
0.225000 0.610000 0.060000
0.252500 0.610000 0.060000
0.280000 0.610000 0.060000
0.307500 0.610000 0.060000
0.335000 0.610000 0.060000
0.362500 0.610000 0.060000
0.390000 0.610000 0.060000
0.417500 0.610000 0.060000
0.445000 0.610000 0.060000
0.472500 0.610000 0.060000
0.500000 0.610000 0.060000
0.527500 0.610000 0.060000
0.555000 0.610000 0.060000
0.582500 0.610000 0.060000
0.610000 0.610000 0.060000
0.637500 0.610000 0.060000
0.665000 0.610000 0.060000
0.692500 0.610000 0.060000
0.720000 0.610000 0.060000
0.747500 0.610000 0.060000
0.775000 0.610000 0.060000
0.802500 0.610000 0.060000
0.830000 0.610000 0.060000
0.857500 0.610000 0.060000
0.885000 0.610000 0.060000
0.912500 0.610000 0.060000
0.940000 0.610000 0.060000
0.060000 0.637500 0.060000
0.087500 0.637500 0.060000
0.115000 0.637500 0.060000
0.142500 0.637500 0.060000
0.170000 0.637500 0.060000
0.197500 0.637500 0.060000
0.225000 0.637500 0.060000
0.252500 0.637500 0.060000
0.280000 0.637500 0.060000
0.307500 0.637500 0.060000
0.335000 0.637500 0.060000
0.362500 0.637500 0.060000
0.390000 0.637500 0.060000
0.417500 0.637500 0.060000
0.445000 0.637500 0.060000
0.472500 0.637500 0.060000
0.500000 0.637500 0.060000
0.527500 0.637500 0.060000
0.555000 0.637500 0.060000
0.582500 0.637500 0.060000
0.610000 0.637500 0.060000
0.637500 0.637500 0.060000
0.665000 0.637500 0.060000
0.692500 0.637500 0.060000
0.720000 0.637500 0.060000
0.747500 0.637500 0.060000
0.775000 0.637500 0.060000
0.802500 0.637500 0.060000
0.830000 0.637500 0.060000
0.857500 0.637500 0.060000
0.885000 0.637500 0.060000
0.912500 0.637500 0.060000
0.940000 0.637500 0.060000
0.060000 0.665000 0.060000
0.087500 0.665000 0.060000
0.115000 0.665000 0.060000
0.142500 0.665000 0.060000
0.170000 0.665000 0.060000
0.197500 0.665000 0.060000
0.225000 0.665000 0.060000
0.252500 0.665000 0.060000
0.280000 0.665000 0.060000
0.307500 0.665000 0.060000
0.335000 0.665000 0.060000
0.362500 0.665000 0.060000
0.390000 0.665000 0.060000
0.417500 0.665000 0.060000
0.445000 0.665000 0.060000
0.472500 0.665000 0.060000
0.500000 0.665000 0.060000
0.527500 0.665000 0.060000
0.555000 0.665000 0.060000
0.582500 0.665000 0.060000
0.610000 0.665000 0.060000
0.637500 0.665000 0.060000
0.665000 0.665000 0.060000
0.692500 0.665000 0.060000
0.720000 0.665000 0.060000
0.747500 0.665000 0.060000
0.775000 0.665000 0.060000
0.802500 0.665000 0.060000
0.830000 0.665000 0.060000
0.857500 0.665000 0.060000
0.885000 0.665000 0.060000
0.912500 0.665000 0.060000
0.940000 0.665000 0.060000
0.060000 0.692500 0.060000
0.087500 0.692500 0.060000
0.115000 0.692500 0.060000
0.142500 0.692500 0.060000
0.170000 0.692500 0.060000
0.197500 0.692500 0.060000
0.225000 0.692500 0.060000
0.252500 0.692500 0.060000
0.280000 0.692500 0.060000
0.307500 0.692500 0.060000
0.335000 0.692500 0.060000
0.362500 0.692500 0.060000
0.390000 0.692500 0.060000
0.417500 0.692500 0.060000
0.445000 0.692500 0.060000
0.472500 0.692500 0.060000
0.500000 0.692500 0.060000
0.527500 0.692500 0.060000
0.555000 0.692500 0.060000
0.582500 0.692500 0.060000
0.610000 0.692500 0.060000
0.637500 0.692500 0.060000
0.665000 0.692500 0.060000
0.692500 0.692500 0.060000
0.720000 0.692500 0.060000
0.747500 0.692500 0.060000
0.775000 0.692500 0.060000
0.802500 0.692500 0.060000
0.830000 0.692500 0.060000
0.857500 0.692500 0.060000
0.885000 0.692500 0.060000
0.912500 0.692500 0.060000
0.940000 0.692500 0.060000
0.060000 0.720000 0.060000
0.087500 0.720000 0.060000
0.115000 0.720000 0.060000
0.142500 0.720000 0.060000
0.170000 0.720000 0.060000
0.197500 0.720000 0.060000
0.225000 0.720000 0.060000
0.252500 0.720000 0.060000
0.280000 0.720000 0.060000
0.307500 0.720000 0.060000
0.335000 0.720000 0.060000
0.362500 0.720000 0.060000
0.390000 0.720000 0.060000
0.417500 0.720000 0.060000
0.445000 0.720000 0.060000
0.472500 0.720000 0.060000
0.500000 0.720000 0.060000
0.527500 0.720000 0.060000
0.555000 0.720000 0.060000
0.582500 0.720000 0.060000
0.610000 0.720000 0.060000
0.637500 0.720000 0.060000
0.665000 0.720000 0.060000
0.692500 0.720000 0.060000
0.720000 0.720000 0.060000
0.747500 0.720000 0.060000
0.775000 0.720000 0.060000
0.802500 0.720000 0.060000
0.830000 0.720000 0.060000
0.857500 0.720000 0.060000
0.885000 0.720000 0.060000
0.912500 0.720000 0.060000
0.940000 0.720000 0.060000
0.060000 0.747500 0.060000
0.087500 0.747500 0.060000
0.115000 0.747500 0.060000
0.142500 0.747500 0.060000
0.170000 0.747500 0.060000
0.197500 0.747500 0.060000
0.225000 0.747500 0.060000
0.252500 0.747500 0.060000
0.280000 0.747500 0.060000
0.307500 0.747500 0.060000
0.335000 0.747500 0.060000
0.362500 0.747500 0.060000
0.390000 0.747500 0.060000
0.417500 0.747500 0.060000
0.445000 0.747500 0.060000
0.472500 0.747500 0.060000
0.500000 0.747500 0.060000
0.527500 0.747500 0.060000
0.555000 0.747500 0.060000
0.582500 0.747500 0.060000
0.610000 0.747500 0.060000
0.637500 0.747500 0.060000
0.665000 0.747500 0.060000
0.692500 0.747500 0.060000
0.720000 0.747500 0.060000
0.747500 0.747500 0.060000
0.775000 0.747500 0.060000
0.802500 0.747500 0.060000
0.830000 0.747500 0.060000
0.857500 0.747500 0.060000
0.885000 0.747500 0.060000
0.912500 0.747500 0.060000
0.940000 0.747500 0.060000
0.060000 0.775000 0.060000
0.087500 0.775000 0.060000
0.115000 0.775000 0.060000
0.142500 0.775000 0.060000
0.170000 0.775000 0.060000
0.197500 0.775000 0.060000
0.225000 0.775000 0.060000
0.252500 0.775000 0.060000
0.280000 0.775000 0.060000
0.307500 0.775000 0.060000
0.335000 0.775000 0.060000
0.362500 0.775000 0.060000
0.390000 0.775000 0.060000
0.417500 0.775000 0.060000
0.445000 0.775000 0.060000
0.472500 0.775000 0.060000
0.500000 0.775000 0.060000
0.527500 0.775000 0.060000
0.555000 0.775000 0.060000
0.582500 0.775000 0.060000
0.610000 0.775000 0.060000
0.637500 0.775000 0.060000
0.665000 0.775000 0.060000
0.692500 0.775000 0.060000
0.720000 0.775000 0.060000
0.747500 0.775000 0.060000
0.775000 0.775000 0.060000
0.802500 0.775000 0.060000
0.830000 0.775000 0.060000
