luts/vintage.cube
TITLE "Vintage"
LUT_3D_SIZE 5
0.089600 0.061800 0.032800
0.327600 0.061800 0.032800
0.565600 0.061800 0.032800
0.803600 0.061800 0.032800
1.000000 0.061800 0.032800
0.089600 0.280675 0.032800
0.327600 0.280675 0.032800
0.565600 0.280675 0.032800
0.803600 0.280675 0.032800
1.000000 0.280675 0.032800
0.089600 0.499550 0.032800
0.327600 0.499550 0.032800
0.565600 0.499550 0.032800
0.803600 0.499550 0.032800
1.000000 0.499550 0.032800
0.089600 0.718425 0.032800
0.327600 0.718425 0.032800
0.565600 0.718425 0.032800
0.803600 0.718425 0.032800
1.000000 0.718425 0.032800
0.089600 0.937300 0.032800
0.327600 0.937300 0.032800
0.565600 0.937300 0.032800
0.803600 0.937300 0.032800
1.000000 0.937300 0.032800
0.089600 0.061800 0.200900
0.327600 0.061800 0.200900
0.565600 0.061800 0.200900
0.803600 0.061800 0.200900
1.000000 0.061800 0.200900
0.089600 0.280675 0.200900
0.327600 0.280675 0.200900
0.565600 0.280675 0.200900
0.803600 0.280675 0.200900
1.000000 0.280675 0.200900
0.089600 0.499550 0.200900
0.327600 0.499550 0.200900
0.565600 0.499550 0.200900
0.803600 0.499550 0.200900
1.000000 0.499550 0.200900
0.089600 0.718425 0.200900
0.327600 0.718425 0.200900
0.565600 0.718425 0.200900
0.803600 0.718425 0.200900
1.000000 0.718425 0.200900
0.089600 0.937300 0.200900
0.327600 0.937300 0.200900
0.565600 0.937300 0.200900
0.803600 0.937300 0.200900
1.000000 0.937300 0.200900
0.089600 0.061800 0.369000
0.327600 0.061800 0.369000
0.565600 0.061800 0.369000
0.803600 0.061800 0.369000
1.000000 0.061800 0.369000
0.089600 0.280675 0.369000
0.327600 0.280675 0.369000
0.565600 0.280675 0.369000
0.803600 0.280675 0.369000
1.000000 0.280675 0.369000
0.089600 0.499550 0.369000
0.327600 0.499550 0.369000
0.565600 0.499550 0.369000
0.803600 0.499550 0.369000
1.000000 0.499550 0.369000
0.089600 0.718425 0.369000
0.327600 0.718425 0.369000
0.565600 0.718425 0.369000
0.803600 0.718425 0.369000
1.000000 0.718425 0.369000
0.089600 0.937300 0.369000
0.327600 0.937300 0.369000
0.565600 0.937300 0.369000
0.803600 0.937300 0.369000
1.000000 0.937300 0.369000
0.089600 0.061800 0.537100
0.327600 0.061800 0.537100
0.565600 0.061800 0.537100
0.803600 0.061800 0.537100
1.000000 0.061800 0.537100
0.089600 0.280675 0.537100
0.327600 0.280675 0.537100
0.565600 0.280675 0.537100
0.803600 0.280675 0.537100
1.000000 0.280675 0.537100
0.089600 0.499550 0.537100
0.327600 0.499550 0.537100
0.565600 0.499550 0.537100
0.803600 0.499550 0.537100
1.000000 0.499550 0.537100
0.089600 0.718425 0.537100
0.327600 0.718425 0.537100
0.565600 0.718425 0.537100
0.803600 0.718425 0.537100
1.000000 0.718425 0.537100
0.089600 0.937300 0.537100
0.327600 0.937300 0.537100
0.565600 0.937300 0.537100
0.803600 0.937300 0.537100
1.000000 0.937300 0.537100
0.089600 0.061800 0.705200
0.327600 0.061800 0.705200
0.565600 0.061800 0.705200
0.803600 0.061800 0.705200
1.000000 0.061800 0.705200
0.089600 0.280675 0.705200
0.327600 0.280675 0.705200
0.565600 0.280675 0.705200
0.803600 0.280675 0.705200
1.000000 0.280675 0.705200
0.089600 0.499550 0.705200
0.327600 0.499550 0.705200
0.565600 0.499550 0.705200
0.803600 0.499550 0.705200
1.000000 0.499550 0.705200
0.089600 0.718425 0.705200
0.327600 0.718425 0.705200
0.565600 0.718425 0.705200
0.803600 0.718425 0.705200
1.000000 0.718425 0.705200
0.089600 0.937300 0.705200
0.327600 0.937300 0.705200
0.565600 0.937300 0.705200
0.803600 0.937300 0.705200
1.000000 0.937300 0.705200
