luts/vintage.cube
TITLE "Vintage"
LUT_3D_SIZE 9
0.089600 0.061800 0.032800
0.208600 0.061800 0.032800
0.327600 0.061800 0.032800
0.446600 0.061800 0.032800
0.565600 0.061800 0.032800
0.684600 0.061800 0.032800
0.803600 0.061800 0.032800
0.922600 0.061800 0.032800
1.000000 0.061800 0.032800
0.089600 0.171238 0.032800
0.208600 0.171238 0.032800
0.327600 0.171238 0.032800
0.446600 0.171238 0.032800
0.565600 0.171238 0.032800
0.684600 0.171238 0.032800
0.803600 0.171238 0.032800
0.922600 0.171238 0.032800
1.000000 0.171238 0.032800
0.089600 0.280675 0.032800
0.208600 0.280675 0.032800
0.327600 0.280675 0.032800
0.446600 0.280675 0.032800
0.565600 0.280675 0.032800
0.684600 0.280675 0.032800
0.803600 0.280675 0.032800
0.922600 0.280675 0.032800
1.000000 0.280675 0.032800
0.089600 0.390112 0.032800
0.208600 0.390112 0.032800
0.327600 0.390112 0.032800
0.446600 0.390112 0.032800
0.565600 0.390112 0.032800
0.684600 0.390112 0.032800
0.803600 0.390112 0.032800
0.922600 0.390112 0.032800
1.000000 0.390112 0.032800
0.089600 0.499550 0.032800
0.208600 0.499550 0.032800
0.327600 0.499550 0.032800
0.446600 0.499550 0.032800
0.565600 0.499550 0.032800
0.684600 0.499550 0.032800
0.803600 0.499550 0.032800
0.922600 0.499550 0.032800
1.000000 0.499550 0.032800
0.089600 0.608988 0.032800
0.208600 0.608988 0.032800
0.327600 0.608988 0.032800
0.446600 0.608988 0.032800
0.565600 0.608988 0.032800
0.684600 0.608988 0.032800
0.803600 0.608988 0.032800
0.922600 0.608988 0.032800
1.000000 0.608988 0.032800
0.089600 0.718425 0.032800
0.208600 0.718425 0.032800
0.327600 0.718425 0.032800
0.446600 0.718425 0.032800
0.565600 0.718425 0.032800
0.684600 0.718425 0.032800
0.803600 0.718425 0.032800
0.922600 0.718425 0.032800
1.000000 0.718425 0.032800
0.089600 0.827862 0.032800
0.208600 0.827862 0.032800
0.327600 0.827862 0.032800
0.446600 0.827862 0.032800
0.565600 0.827862 0.032800
0.684600 0.827862 0.032800
0.803600 0.827862 0.032800
0.922600 0.827862 0.032800
1.000000 0.827862 0.032800
0.089600 0.937300 0.032800
0.208600 0.937300 0.032800
0.327600 0.937300 0.032800
0.446600 0.937300 0.032800
0.565600 0.937300 0.032800
0.684600 0.937300 0.032800
0.803600 0.937300 0.032800
0.922600 0.937300 0.032800
1.000000 0.937300 0.032800
0.089600 0.061800 0.116850
0.208600 0.061800 0.116850
0.327600 0.061800 0.116850
0.446600 0.061800 0.116850
0.565600 0.061800 0.116850
0.684600 0.061800 0.116850
0.803600 0.061800 0.116850
0.922600 0.061800 0.116850
1.000000 0.061800 0.116850
0.089600 0.171238 0.116850
0.208600 0.171238 0.116850
0.327600 0.171238 0.116850
0.446600 0.171238 0.116850
0.565600 0.171238 0.116850
0.684600 0.171238 0.116850
0.803600 0.171238 0.116850
0.922600 0.171238 0.116850
1.000000 0.171238 0.116850
0.089600 0.280675 0.116850
0.208600 0.280675 0.116850
0.327600 0.280675 0.116850
0.446600 0.280675 0.116850
0.565600 0.280675 0.116850
0.684600 0.280675 0.116850
0.803600 0.280675 0.116850
0.922600 0.280675 0.116850
1.000000 0.280675 0.116850
0.089600 0.390112 0.116850
0.208600 0.390112 0.116850
0.327600 0.390112 0.116850
0.446600 0.390112 0.116850
0.565600 0.390112 0.116850
0.684600 0.390112 0.116850
0.803600 0.390112 0.116850
0.922600 0.390112 0.116850
1.000000 0.390112 0.116850
0.089600 0.499550 0.116850
0.208600 0.499550 0.116850
0.327600 0.499550 0.116850
0.446600 0.499550 0.116850
0.565600 0.499550 0.116850
0.684600 0.499550 0.116850
0.803600 0.499550 0.116850
0.922600 0.499550 0.116850
1.000000 0.499550 0.116850
0.089600 0.608988 0.116850
0.208600 0.608988 0.116850
0.327600 0.608988 0.116850
0.446600 0.608988 0.116850
0.565600 0.608988 0.116850
0.684600 0.608988 0.116850
0.803600 0.608988 0.116850
0.922600 0.608988 0.116850
1.000000 0.608988 0.116850
0.089600 0.718425 0.116850
0.208600 0.718425 0.116850
0.327600 0.718425 0.116850
0.446600 0.718425 0.116850
0.565600 0.718425 0.116850
0.684600 0.718425 0.116850
0.803600 0.718425 0.116850
0.922600 0.718425 0.116850
1.000000 0.718425 0.116850
0.089600 0.827862 0.116850
0.208600 0.827862 0.116850
0.327600 0.827862 0.116850
0.446600 0.827862 0.116850
0.565600 0.827862 0.116850
0.684600 0.827862 0.116850
0.803600 0.827862 0.116850
0.922600 0.827862 0.116850
1.000000 0.827862 0.116850
0.089600 0.937300 0.116850
0.208600 0.937300 0.116850
0.327600 0.937300 0.116850
0.446600 0.937300 0.116850
0.565600 0.937300 0.116850
0.684600 0.937300 0.116850
0.803600 0.937300 0.116850
0.922600 0.937300 0.116850
1.000000 0.937300 0.116850
0.089600 0.061800 0.200900
0.208600 0.061800 0.200900
0.327600 0.061800 0.200900
0.446600 0.061800 0.200900
0.565600 0.061800 0.200900
0.684600 0.061800 0.200900
0.803600 0.061800 0.200900
0.922600 0.061800 0.200900
1.000000 0.061800 0.200900
0.089600 0.171238 0.200900
0.208600 0.171238 0.200900
0.327600 0.171238 0.200900
0.446600 0.171238 0.200900
0.565600 0.171238 0.200900
0.684600 0.171238 0.200900
0.803600 0.171238 0.200900
0.922600 0.171238 0.200900
1.000000 0.171238 0.200900
0.089600 0.280675 0.200900
0.208600 0.280675 0.200900
0.327600 0.280675 0.200900
0.446600 0.280675 0.200900
0.565600 0.280675 0.200900
0.684600 0.280675 0.200900
0.803600 0.280675 0.200900
0.922600 0.280675 0.200900
1.000000 0.280675 0.200900
0.089600 0.390112 0.200900
0.208600 0.390112 0.200900
0.327600 0.390112 0.200900
0.446600 0.390112 0.200900
0.565600 0.390112 0.200900
0.684600 0.390112 0.200900
0.803600 0.390112 0.200900
0.922600 0.390112 0.200900
1.000000 0.390112 0.200900
0.089600 0.499550 0.200900
0.208600 0.499550 0.200900
0.327600 0.499550 0.200900
0.446600 0.499550 0.200900
0.565600 0.499550 0.200900
0.684600 0.499550 0.200900
0.803600 0.499550 0.200900
0.922600 0.499550 0.200900
1.000000 0.499550 0.200900
0.089600 0.608988 0.200900
0.208600 0.608988 0.200900
0.327600 0.608988 0.200900
0.446600 0.608988 0.200900
0.565600 0.608988 0.200900
0.684600 0.608988 0.200900
0.803600 0.608988 0.200900
0.922600 0.608988 0.200900
1.000000 0.608988 0.200900
0.089600 0.718425 0.200900
0.208600 0.718425 0.200900
0.327600 0.718425 0.200900
0.446600 0.718425 0.200900
0.565600 0.718425 0.200900
0.684600 0.718425 0.200900
0.803600 0.718425 0.200900
0.922600 0.718425 0.200900
1.000000 0.718425 0.200900
0.089600 0.827862 0.200900
0.208600 0.827862 0.200900
0.327600 0.827862 0.200900
0.446600 0.827862 0.200900
0.565600 0.827862 0.200900
0.684600 0.827862 0.200900
0.803600 0.827862 0.200900
0.922600 0.827862 0.200900
1.000000 0.827862 0.200900
0.089600 0.937300 0.200900
0.208600 0.937300 0.200900
0.327600 0.937300 0.200900
0.446600 0.937300 0.200900
0.565600 0.937300 0.200900
0.684600 0.937300 0.200900
0.803600 0.937300 0.200900
0.922600 0.937300 0.200900
1.000000 0.937300 0.200900
0.089600 0.061800 0.284950
0.208600 0.061800 0.284950
0.327600 0.061800 0.284950
0.446600 0.061800 0.284950
0.565600 0.061800 0.284950
0.684600 0.061800 0.284950
0.803600 0.061800 0.284950
0.922600 0.061800 0.284950
1.000000 0.061800 0.284950
0.089600 0.171238 0.284950
0.208600 0.171238 0.284950
0.327600 0.171238 0.284950
0.446600 0.171238 0.284950
0.565600 0.171238 0.284950
0.684600 0.171238 0.284950
0.803600 0.171238 0.284950
0.922600 0.171238 0.284950
1.000000 0.171238 0.284950
0.089600 0.280675 0.284950
0.208600 0.280675 0.284950
0.327600 0.280675 0.284950
0.446600 0.280675 0.284950
0.565600 0.280675 0.284950
0.684600 0.280675 0.284950
0.803600 0.280675 0.284950
0.922600 0.280675 0.284950
1.000000 0.280675 0.284950
0.089600 0.390112 0.284950
0.208600 0.390112 0.284950
0.327600 0.390112 0.284950
0.446600 0.390112 0.284950
0.565600 0.390112 0.284950
0.684600 0.390112 0.284950
0.803600 0.390112 0.284950
0.922600 0.390112 0.284950
1.000000 0.390112 0.284950
0.089600 0.499550 0.284950
0.208600 0.499550 0.284950
0.327600 0.499550 0.284950
0.446600 0.499550 0.284950
0.565600 0.499550 0.284950
0.684600 0.499550 0.284950
0.803600 0.499550 0.284950
0.922600 0.499550 0.284950
1.000000 0.499550 0.284950
0.089600 0.608988 0.284950
0.208600 0.608988 0.284950
0.327600 0.608988 0.284950
0.446600 0.608988 0.284950
0.565600 0.608988 0.284950
0.684600 0.608988 0.284950
0.803600 0.608988 0.284950
0.922600 0.608988 0.284950
1.000000 0.608988 0.284950
0.089600 0.718425 0.284950
0.208600 0.718425 0.284950
0.327600 0.718425 0.284950
0.446600 0.718425 0.284950
0.565600 0.718425 0.284950
0.684600 0.718425 0.284950
0.803600 0.718425 0.284950
0.922600 0.718425 0.284950
1.000000 0.718425 0.284950
0.089600 0.827862 0.284950
0.208600 0.827862 0.284950
0.327600 0.827862 0.284950
0.446600 0.827862 0.284950
0.565600 0.827862 0.284950
0.684600 0.827862 0.284950
0.803600 0.827862 0.284950
0.922600 0.827862 0.284950
1.000000 0.827862 0.284950
0.089600 0.937300 0.284950
0.208600 0.937300 0.284950
0.327600 0.937300 0.284950
0.446600 0.937300 0.284950
0.565600 0.937300 0.284950
0.684600 0.937300 0.284950
0.803600 0.937300 0.284950
0.922600 0.937300 0.284950
1.000000 0.937300 0.284950
0.089600 0.061800 0.369000
0.208600 0.061800 0.369000
0.327600 0.061800 0.369000
0.446600 0.061800 0.369000
0.565600 0.061800 0.369000
0.684600 0.061800 0.369000
0.803600 0.061800 0.369000
0.922600 0.061800 0.369000
1.000000 0.061800 0.369000
0.089600 0.171238 0.369000
0.208600 0.171238 0.369000
0.327600 0.171238 0.369000
0.446600 0.171238 0.369000
0.565600 0.171238 0.369000
0.684600 0.171238 0.369000
0.803600 0.171238 0.369000
0.922600 0.171238 0.369000
1.000000 0.171238 0.369000
0.089600 0.280675 0.369000
0.208600 0.280675 0.369000
0.327600 0.280675 0.369000
0.446600 0.280675 0.369000
0.565600 0.280675 0.369000
0.684600 0.280675 0.369000
0.803600 0.280675 0.369000
0.922600 0.280675 0.369000
1.000000 0.280675 0.369000
0.089600 0.390112 0.369000
0.208600 0.390112 0.369000
0.327600 0.390112 0.369000
0.446600 0.390112 0.369000
0.565600 0.390112 0.369000
0.684600 0.390112 0.369000
0.803600 0.390112 0.369000
0.922600 0.390112 0.369000
1.000000 0.390112 0.369000
0.089600 0.499550 0.369000
0.208600 0.499550 0.369000
0.327600 0.499550 0.369000
0.446600 0.499550 0.369000
0.565600 0.499550 0.369000
0.684600 0.499550 0.369000
0.803600 0.499550 0.369000
0.922600 0.499550 0.369000
1.000000 0.499550 0.369000
0.089600 0.608988 0.369000
0.208600 0.608988 0.369000
0.327600 0.608988 0.369000
0.446600 0.608988 0.369000
0.565600 0.608988 0.369000
0.684600 0.608988 0.369000
0.803600 0.608988 0.369000
0.922600 0.608988 0.369000
1.000000 0.608988 0.369000
0.089600 0.718425 0.369000
0.208600 0.718425 0.369000
0.327600 0.718425 0.369000
0.446600 0.718425 0.369000
0.565600 0.718425 0.369000
0.684600 0.718425 0.369000
0.803600 0.718425 0.369000
0.922600 0.718425 0.369000
1.000000 0.718425 0.369000
0.089600 0.827862 0.369000
0.208600 0.827862 0.369000
0.327600 0.827862 0.369000
0.446600 0.827862 0.369000
0.565600 0.827862 0.369000
0.684600 0.827862 0.369000
0.803600 0.827862 0.369000
0.922600 0.827862 0.369000
1.000000 0.827862 0.369000
0.089600 0.937300 0.369000
0.208600 0.937300 0.369000
0.327600 0.937300 0.369000
0.446600 0.937300 0.369000
0.565600 0.937300 0.369000
0.684600 0.937300 0.369000
0.803600 0.937300 0.369000
0.922600 0.937300 0.369000
1.000000 0.937300 0.369000
0.089600 0.061800 0.453050
0.208600 0.061800 0.453050
0.327600 0.061800 0.453050
0.446600 0.061800 0.453050
0.565600 0.061800 0.453050
0.684600 0.061800 0.453050
0.803600 0.061800 0.453050
0.922600 0.061800 0.453050
1.000000 0.061800 0.453050
0.089600 0.171238 0.453050
0.208600 0.171238 0.453050
0.327600 0.171238 0.453050
0.446600 0.171238 0.453050
0.565600 0.171238 0.453050
0.684600 0.171238 0.453050
0.803600 0.171238 0.453050
0.922600 0.171238 0.453050
1.000000 0.171238 0.453050
0.089600 0.280675 0.453050
0.208600 0.280675 0.453050
0.327600 0.280675 0.453050
0.446600 0.280675 0.453050
0.565600 0.280675 0.453050
0.684600 0.280675 0.453050
0.803600 0.280675 0.453050
0.922600 0.280675 0.453050
1.000000 0.280675 0.453050
0.089600 0.390112 0.453050
0.208600 0.390112 0.453050
0.327600 0.390112 0.453050
0.446600 0.390112 0.453050
0.565600 0.390112 0.453050
0.684600 0.390112 0.453050
0.803600 0.390112 0.453050
0.922600 0.390112 0.453050
1.000000 0.390112 0.453050
0.089600 0.499550 0.453050
0.208600 0.499550 0.453050
0.327600 0.499550 0.453050
0.446600 0.499550 0.453050
0.565600 0.499550 0.453050
0.684600 0.499550 0.453050
0.803600 0.499550 0.453050
0.922600 0.499550 0.453050
1.000000 0.499550 0.453050
0.089600 0.608988 0.453050
0.208600 0.608988 0.453050
0.327600 0.608988 0.453050
0.446600 0.608988 0.453050
0.565600 0.608988 0.453050
0.684600 0.608988 0.453050
0.803600 0.608988 0.453050
0.922600 0.608988 0.453050
1.000000 0.608988 0.453050
0.089600 0.718425 0.453050
0.208600 0.718425 0.453050
0.327600 0.718425 0.453050
0.446600 0.718425 0.453050
0.565600 0.718425 0.453050
0.684600 0.718425 0.453050
0.803600 0.718425 0.453050
0.922600 0.718425 0.453050
1.000000 0.718425 0.453050
0.089600 0.827862 0.453050
0.208600 0.827862 0.453050
0.327600 0.827862 0.453050
0.446600 0.827862 0.453050
0.565600 0.827862 0.453050
0.684600 0.827862 0.453050
0.803600 0.827862 0.453050
0.922600 0.827862 0.453050
1.000000 0.827862 0.453050
0.089600 0.937300 0.453050
0.208600 0.937300 0.453050
0.327600 0.937300 0.453050
0.446600 0.937300 0.453050
0.565600 0.937300 0.453050
0.684600 0.937300 0.453050
0.803600 0.937300 0.453050
0.922600 0.937300 0.453050
1.000000 0.937300 0.453050
0.089600 0.061800 0.537100
0.208600 0.061800 0.537100
0.327600 0.061800 0.537100
0.446600 0.061800 0.537100
0.565600 0.061800 0.537100
0.684600 0.061800 0.537100
0.803600 0.061800 0.537100
0.922600 0.061800 0.537100
1.000000 0.061800 0.537100
0.089600 0.171238 0.537100
0.208600 0.171238 0.537100
0.327600 0.171238 0.537100
0.446600 0.171238 0.537100
0.565600 0.171238 0.537100
0.684600 0.171238 0.537100
0.803600 0.171238 0.537100
0.922600 0.171238 0.537100
1.000000 0.171238 0.537100
0.089600 0.280675 0.537100
0.208600 0.280675 0.537100
0.327600 0.280675 0.537100
0.446600 0.280675 0.537100
0.565600 0.280675 0.537100
0.684600 0.280675 0.537100
0.803600 0.280675 0.537100
0.922600 0.280675 0.537100
1.000000 0.280675 0.537100
0.089600 0.390112 0.537100
0.208600 0.390112 0.537100
0.327600 0.390112 0.537100
0.446600 0.390112 0.537100
0.565600 0.390112 0.537100
0.684600 0.390112 0.537100
0.803600 0.390112 0.537100
0.922600 0.390112 0.537100
1.000000 0.390112 0.537100
0.089600 0.499550 0.537100
0.208600 0.499550 0.537100
0.327600 0.499550 0.537100
0.446600 0.499550 0.537100
0.565600 0.499550 0.537100
0.684600 0.499550 0.537100
0.803600 0.499550 0.537100
0.922600 0.499550 0.537100
1.000000 0.499550 0.537100
0.089600 0.608988 0.537100
0.208600 0.608988 0.537100
0.327600 0.608988 0.537100
0.446600 0.608988 0.537100
0.565600 0.608988 0.537100
0.684600 0.608988 0.537100
0.803600 0.608988 0.537100
0.922600 0.608988 0.537100
1.000000 0.608988 0.537100
0.089600 0.718425 0.537100
0.208600 0.718425 0.537100
0.327600 0.718425 0.537100
0.446600 0.718425 0.537100
0.565600 0.718425 0.537100
0.684600 0.718425 0.537100
0.803600 0.718425 0.537100
0.922600 0.718425 0.537100
1.000000 0.718425 0.537100
0.089600 0.827862 0.537100
0.208600 0.827862 0.537100
0.327600 0.827862 0.537100
0.446600 0.827862 0.537100
0.565600 0.827862 0.537100
0.684600 0.827862 0.537100
0.803600 0.827862 0.537100
0.922600 0.827862 0.537100
1.000000 0.827862 0.537100
0.089600 0.937300 0.537100
0.208600 0.937300 0.537100
0.327600 0.937300 0.537100
0.446600 0.937300 0.537100
0.565600 0.937300 0.537100
0.684600 0.937300 0.537100
0.803600 0.937300 0.537100
0.922600 0.937300 0.537100
1.000000 0.937300 0.537100
0.089600 0.061800 0.621150
0.208600 0.061800 0.621150
0.327600 0.061800 0.621150
0.446600 0.061800 0.621150
0.565600 0.061800 0.621150
0.684600 0.061800 0.621150
0.803600 0.061800 0.621150
0.922600 0.061800 0.621150
1.000000 0.061800 0.621150
0.089600 0.171238 0.621150
0.208600 0.171238 0.621150
0.327600 0.171238 0.621150
0.446600 0.171238 0.621150
0.565600 0.171238 0.621150
0.684600 0.171238 0.621150
0.803600 0.171238 0.621150
0.922600 0.171238 0.621150
1.000000 0.171238 0.621150
0.089600 0.280675 0.621150
0.208600 0.280675 0.621150
0.327600 0.280675 0.621150
0.446600 0.280675 0.621150
0.565600 0.280675 0.621150
0.684600 0.280675 0.621150
0.803600 0.280675 0.621150
0.922600 0.280675 0.621150
1.000000 0.280675 0.621150
0.089600 0.390112 0.621150
0.208600 0.390112 0.621150
0.327600 0.390112 0.621150
0.446600 0.390112 0.621150
0.565600 0.390112 0.621150
0.684600 0.390112 0.621150
0.803600 0.390112 0.621150
0.922600 0.390112 0.621150
1.000000 0.390112 0.621150
0.089600 0.499550 0.621150
0.208600 0.499550 0.621150
0.327600 0.499550 0.621150
0.446600 0.499550 0.621150
0.565600 0.499550 0.621150
0.684600 0.499550 0.621150
0.803600 0.499550 0.621150
0.922600 0.499550 0.621150
1.000000 0.499550 0.621150
0.089600 0.608988 0.621150
0.208600 0.608988 0.621150
0.327600 0.608988 0.621150
0.446600 0.608988 0.621150
0.565600 0.608988 0.621150
0.684600 0.608988 0.621150
0.803600 0.608988 0.621150
0.922600 0.608988 0.621150
1.000000 0.608988 0.621150
0.089600 0.718425 0.621150
0.208600 0.718425 0.621150
0.327600 0.718425 0.621150
0.446600 0.718425 0.621150
0.565600 0.718425 0.621150
0.684600 0.718425 0.621150
0.803600 0.718425 0.621150
0.922600 0.718425 0.621150
1.000000 0.718425 0.621150
0.089600 0.827862 0.621150
0.208600 0.827862 0.621150
0.327600 0.827862 0.621150
0.446600 0.827862 0.621150
0.565600 0.827862 0.621150
0.684600 0.827862 0.621150
0.803600 0.827862 0.621150
0.922600 0.827862 0.621150
1.000000 0.827862 0.621150
0.089600 0.937300 0.621150
0.208600 0.937300 0.621150
0.327600 0.937300 0.621150
0.446600 0.937300 0.621150
0.565600 0.937300 0.621150
0.684600 0.937300 0.621150
0.803600 0.937300 0.621150
0.922600 0.937300 0.621150
1.000000 0.937300 0.621150
0.089600 0.061800 0.705200
0.208600 0.061800 0.705200
0.327600 0.061800 0.705200
0.446600 0.061800 0.705200
0.565600 0.061800 0.705200
0.684600 0.061800 0.705200
0.803600 0.061800 0.705200
0.922600 0.061800 0.705200
1.000000 0.061800 0.705200
0.089600 0.171238 0.705200
0.208600 0.171238 0.705200
0.327600 0.171238 0.705200
0.446600 0.171238 0.705200
0.565600 0.171238 0.705200
0.684600 0.171238 0.705200
0.803600 0.171238 0.705200
0.922600 0.171238 0.705200
1.000000 0.171238 0.705200
0.089600 0.280675 0.705200
0.208600 0.280675 0.705200
0.327600 0.280675 0.705200
0.446600 0.280675 0.705200
0.565600 0.280675 0.705200
0.684600 0.280675 0.705200
0.803600 0.280675 0.705200
0.922600 0.280675 0.705200
1.000000 0.280675 0.705200
0.089600 0.390112 0.705200
0.208600 0.390112 0.705200
0.327600 0.390112 0.705200
0.446600 0.390112 0.705200
0.565600 0.390112 0.705200
0.684600 0.390112 0.705200
0.803600 0.390112 0.705200
0.922600 0.390112 0.705200
1.000000 0.390112 0.705200
0.089600 0.499550 0.705200
0.208600 0.499550 0.705200
0.327600 0.499550 0.705200
0.446600 0.499550 0.705200
0.565600 0.499550 0.705200
0.684600 0.499550 0.705200
0.803600 0.499550 0.705200
0.922600 0.499550 0.705200
1.000000 0.499550 0.705200
0.089600 0.608988 0.705200
0.208600 0.608988 0.705200
0.327600 0.608988 0.705200
0.446600 0.608988 0.705200
0.565600 0.608988 0.705200
0.684600 0.608988 0.705200
0.803600 0.608988 0.705200
0.922600 0.608988 0.705200
1.000000 0.608988 0.705200
0.089600 0.718425 0.705200
0.208600 0.718425 0.705200
0.327600 0.718425 0.705200
0.446600 0.718425 0.705200
0.565600 0.718425 0.705200
0.684600 0.718425 0.705200
0.803600 0.718425 0.705200
0.922600 0.718425 0.705200
1.000000 0.718425 0.705200
0.089600 0.827862 0.705200
0.208600 0.827862 0.705200
0.327600 0.827862 0.705200
0.446600 0.827862 0.705200
0.565600 0.827862 0.705200
0.684600 0.827862 0.705200
0.803600 0.827862 0.705200
0.922600 0.827862 0.705200
1.000000 0.827862 0.705200
0.089600 0.937300 0.705200
0.208600 0.937300 0.705200
0.327600 0.937300 0.705200
0.446600 0.937300 0.705200
0.565600 0.937300 0.705200
0.684600 0.937300 0.705200
0.803600 0.937300 0.705200
0.922600 0.937300 0.705200
1.000000 0.937300 0.705200
