luts/vintage.cube
TITLE "Vintage"
LUT_3D_SIZE 33
0.089600 0.061800 0.032800
0.119350 0.061800 0.032800
0.149100 0.061800 0.032800
0.178850 0.061800 0.032800
0.208600 0.061800 0.032800
0.238350 0.061800 0.032800
0.268100 0.061800 0.032800
0.297850 0.061800 0.032800
0.327600 0.061800 0.032800
0.357350 0.061800 0.032800
0.387100 0.061800 0.032800
0.416850 0.061800 0.032800
0.446600 0.061800 0.032800
0.476350 0.061800 0.032800
0.506100 0.061800 0.032800
0.535850 0.061800 0.032800
0.565600 0.061800 0.032800
0.595350 0.061800 0.032800
0.625100 0.061800 0.032800
0.654850 0.061800 0.032800
0.684600 0.061800 0.032800
0.714350 0.061800 0.032800
0.744100 0.061800 0.032800
0.773850 0.061800 0.032800
0.803600 0.061800 0.032800
0.833350 0.061800 0.032800
0.863100 0.061800 0.032800
0.892850 0.061800 0.032800
0.922600 0.061800 0.032800
0.952350 0.061800 0.032800
0.982100 0.061800 0.032800
1.000000 0.061800 0.032800
1.000000 0.061800 0.032800
0.089600 0.089159 0.032800
0.119350 0.089159 0.032800
0.149100 0.089159 0.032800
0.178850 0.089159 0.032800
0.208600 0.089159 0.032800
0.238350 0.089159 0.032800
0.268100 0.089159 0.032800
0.297850 0.089159 0.032800
0.327600 0.089159 0.032800
0.357350 0.089159 0.032800
0.387100 0.089159 0.032800
0.416850 0.089159 0.032800
0.446600 0.089159 0.032800
0.476350 0.089159 0.032800
0.506100 0.089159 0.032800
0.535850 0.089159 0.032800
0.565600 0.089159 0.032800
0.595350 0.089159 0.032800
0.625100 0.089159 0.032800
0.654850 0.089159 0.032800
0.684600 0.089159 0.032800
0.714350 0.089159 0.032800
0.744100 0.089159 0.032800
0.773850 0.089159 0.032800
0.803600 0.089159 0.032800
0.833350 0.089159 0.032800
0.863100 0.089159 0.032800
0.892850 0.089159 0.032800
0.922600 0.089159 0.032800
0.952350 0.089159 0.032800
0.982100 0.089159 0.032800
1.000000 0.089159 0.032800
1.000000 0.089159 0.032800
0.089600 0.116519 0.032800
0.119350 0.116519 0.032800
0.149100 0.116519 0.032800
0.178850 0.116519 0.032800
0.208600 0.116519 0.032800
0.238350 0.116519 0.032800
0.268100 0.116519 0.032800
0.297850 0.116519 0.032800
0.327600 0.116519 0.032800
0.357350 0.116519 0.032800
0.387100 0.116519 0.032800
0.416850 0.116519 0.032800
0.446600 0.116519 0.032800
0.476350 0.116519 0.032800
0.506100 0.116519 0.032800
0.535850 0.116519 0.032800
0.565600 0.116519 0.032800
0.595350 0.116519 0.032800
0.625100 0.116519 0.032800
0.654850 0.116519 0.032800
0.684600 0.116519 0.032800
0.714350 0.116519 0.032800
0.744100 0.116519 0.032800
0.773850 0.116519 0.032800
0.803600 0.116519 0.032800
0.833350 0.116519 0.032800
0.863100 0.116519 0.032800
0.892850 0.116519 0.032800
0.922600 0.116519 0.032800
0.952350 0.116519 0.032800
0.982100 0.116519 0.032800
1.000000 0.116519 0.032800
1.000000 0.116519 0.032800
0.089600 0.143878 0.032800
0.119350 0.143878 0.032800
0.149100 0.143878 0.032800
0.178850 0.143878 0.032800
0.208600 0.143878 0.032800
0.238350 0.143878 0.032800
0.268100 0.143878 0.032800
0.297850 0.143878 0.032800
0.327600 0.143878 0.032800
0.357350 0.143878 0.032800
0.387100 0.143878 0.032800
0.416850 0.143878 0.032800
0.446600 0.143878 0.032800
0.476350 0.143878 0.032800
0.506100 0.143878 0.032800
0.535850 0.143878 0.032800
0.565600 0.143878 0.032800
0.595350 0.143878 0.032800
0.625100 0.143878 0.032800
0.654850 0.143878 0.032800
0.684600 0.143878 0.032800
0.714350 0.143878 0.032800
0.744100 0.143878 0.032800
0.773850 0.143878 0.032800
0.803600 0.143878 0.032800
0.833350 0.143878 0.032800
0.863100 0.143878 0.032800
0.892850 0.143878 0.032800
0.922600 0.143878 0.032800
0.952350 0.143878 0.032800
0.982100 0.143878 0.032800
1.000000 0.143878 0.032800
1.000000 0.143878 0.032800
0.089600 0.171238 0.032800
0.119350 0.171238 0.032800
0.149100 0.171238 0.032800
0.178850 0.171238 0.032800
0.208600 0.171238 0.032800
0.238350 0.171238 0.032800
0.268100 0.171238 0.032800
0.297850 0.171238 0.032800
0.327600 0.171238 0.032800
0.357350 0.171238 0.032800
0.387100 0.171238 0.032800
0.416850 0.171238 0.032800
0.446600 0.171238 0.032800
0.476350 0.171238 0.032800
0.506100 0.171238 0.032800
0.535850 0.171238 0.032800
0.565600 0.171238 0.032800
0.595350 0.171238 0.032800
0.625100 0.171238 0.032800
0.654850 0.171238 0.032800
0.684600 0.171238 0.032800
0.714350 0.171238 0.032800
0.744100 0.171238 0.032800
0.773850 0.171238 0.032800
0.803600 0.171238 0.032800
0.833350 0.171238 0.032800
0.863100 0.171238 0.032800
0.892850 0.171238 0.032800
0.922600 0.171238 0.032800
0.952350 0.171238 0.032800
0.982100 0.171238 0.032800
1.000000 0.171238 0.032800
1.000000 0.171238 0.032800
0.089600 0.198597 0.032800
0.119350 0.198597 0.032800
0.149100 0.198597 0.032800
0.178850 0.198597 0.032800
0.208600 0.198597 0.032800
0.238350 0.198597 0.032800
0.268100 0.198597 0.032800
0.297850 0.198597 0.032800
0.327600 0.198597 0.032800
0.357350 0.198597 0.032800
0.387100 0.198597 0.032800
0.416850 0.198597 0.032800
0.446600 0.198597 0.032800
0.476350 0.198597 0.032800
0.506100 0.198597 0.032800
0.535850 0.198597 0.032800
0.565600 0.198597 0.032800
0.595350 0.198597 0.032800
0.625100 0.198597 0.032800
0.654850 0.198597 0.032800
0.684600 0.198597 0.032800
0.714350 0.198597 0.032800
0.744100 0.198597 0.032800
0.773850 0.198597 0.032800
0.803600 0.198597 0.032800
0.833350 0.198597 0.032800
0.863100 0.198597 0.032800
0.892850 0.198597 0.032800
0.922600 0.198597 0.032800
0.952350 0.198597 0.032800
0.982100 0.198597 0.032800
1.000000 0.198597 0.032800
1.000000 0.198597 0.032800
0.089600 0.225956 0.032800
0.119350 0.225956 0.032800
0.149100 0.225956 0.032800
0.178850 0.225956 0.032800
0.208600 0.225956 0.032800
0.238350 0.225956 0.032800
0.268100 0.225956 0.032800
0.297850 0.225956 0.032800
0.327600 0.225956 0.032800
0.357350 0.225956 0.032800
0.387100 0.225956 0.032800
0.416850 0.225956 0.032800
0.446600 0.225956 0.032800
0.476350 0.225956 0.032800
0.506100 0.225956 0.032800
0.535850 0.225956 0.032800
0.565600 0.225956 0.032800
0.595350 0.225956 0.032800
0.625100 0.225956 0.032800
0.654850 0.225956 0.032800
0.684600 0.225956 0.032800
0.714350 0.225956 0.032800
0.744100 0.225956 0.032800
0.773850 0.225956 0.032800
0.803600 0.225956 0.032800
0.833350 0.225956 0.032800
0.863100 0.225956 0.032800
0.892850 0.225956 0.032800
0.922600 0.225956 0.032800
0.952350 0.225956 0.032800
0.982100 0.225956 0.032800
1.000000 0.225956 0.032800
1.000000 0.225956 0.032800
0.089600 0.253316 0.032800
0.119350 0.253316 0.032800
0.149100 0.253316 0.032800
0.178850 0.253316 0.032800
0.208600 0.253316 0.032800
0.238350 0.253316 0.032800
0.268100 0.253316 0.032800
0.297850 0.253316 0.032800
0.327600 0.253316 0.032800
0.357350 0.253316 0.032800
0.387100 0.253316 0.032800
0.416850 0.253316 0.032800
0.446600 0.253316 0.032800
0.476350 0.253316 0.032800
0.506100 0.253316 0.032800
0.535850 0.253316 0.032800
0.565600 0.253316 0.032800
0.595350 0.253316 0.032800
0.625100 0.253316 0.032800
0.654850 0.253316 0.032800
0.684600 0.253316 0.032800
0.714350 0.253316 0.032800
0.744100 0.253316 0.032800
0.773850 0.253316 0.032800
0.803600 0.253316 0.032800
0.833350 0.253316 0.032800
0.863100 0.253316 0.032800
0.892850 0.253316 0.032800
0.922600 0.253316 0.032800
0.952350 0.253316 0.032800
0.982100 0.253316 0.032800
1.000000 0.253316 0.032800
1.000000 0.253316 0.032800
0.089600 0.280675 0.032800
0.119350 0.280675 0.032800
0.149100 0.280675 0.032800
0.178850 0.280675 0.032800
0.208600 0.280675 0.032800
0.238350 0.280675 0.032800
0.268100 0.280675 0.032800
0.297850 0.280675 0.032800
0.327600 0.280675 0.032800
0.357350 0.280675 0.032800
0.387100 0.280675 0.032800
0.416850 0.280675 0.032800
0.446600 0.280675 0.032800
0.476350 0.280675 0.032800
0.506100 0.280675 0.032800
0.535850 0.280675 0.032800
0.565600 0.280675 0.032800
0.595350 0.280675 0.032800
0.625100 0.280675 0.032800
0.654850 0.280675 0.032800
0.684600 0.280675 0.032800
0.714350 0.280675 0.032800
0.744100 0.280675 0.032800
0.773850 0.280675 0.032800
0.803600 0.280675 0.032800
0.833350 0.280675 0.032800
0.863100 0.280675 0.032800
0.892850 0.280675 0.032800
0.922600 0.280675 0.032800
0.952350 0.280675 0.032800
0.982100 0.280675 0.032800
1.000000 0.280675 0.032800
1.000000 0.280675 0.032800
0.089600 0.308034 0.032800
0.119350 0.308034 0.032800
0.149100 0.308034 0.032800
0.178850 0.308034 0.032800
0.208600 0.308034 0.032800
0.238350 0.308034 0.032800
0.268100 0.308034 0.032800
0.297850 0.308034 0.032800
0.327600 0.308034 0.032800
0.357350 0.308034 0.032800
0.387100 0.308034 0.032800
0.416850 0.308034 0.032800
0.446600 0.308034 0.032800
0.476350 0.308034 0.032800
0.506100 0.308034 0.032800
0.535850 0.308034 0.032800
0.565600 0.308034 0.032800
0.595350 0.308034 0.032800
0.625100 0.308034 0.032800
0.654850 0.308034 0.032800
0.684600 0.308034 0.032800
0.714350 0.308034 0.032800
0.744100 0.308034 0.032800
0.773850 0.308034 0.032800
0.803600 0.308034 0.032800
0.833350 0.308034 0.032800
0.863100 0.308034 0.032800
0.892850 0.308034 0.032800
0.922600 0.308034 0.032800
0.952350 0.308034 0.032800
0.982100 0.308034 0.032800
1.000000 0.308034 0.032800
1.000000 0.308034 0.032800
0.089600 0.335394 0.032800
0.119350 0.335394 0.032800
0.149100 0.335394 0.032800
0.178850 0.335394 0.032800
0.208600 0.335394 0.032800
0.238350 0.335394 0.032800
0.268100 0.335394 0.032800
0.297850 0.335394 0.032800
0.327600 0.335394 0.032800
0.357350 0.335394 0.032800
0.387100 0.335394 0.032800
0.416850 0.335394 0.032800
0.446600 0.335394 0.032800
0.476350 0.335394 0.032800
0.506100 0.335394 0.032800
0.535850 0.335394 0.032800
0.565600 0.335394 0.032800
0.595350 0.335394 0.032800
0.625100 0.335394 0.032800
0.654850 0.335394 0.032800
0.684600 0.335394 0.032800
0.714350 0.335394 0.032800
0.744100 0.335394 0.032800
0.773850 0.335394 0.032800
0.803600 0.335394 0.032800
0.833350 0.335394 0.032800
0.863100 0.335394 0.032800
0.892850 0.335394 0.032800
0.922600 0.335394 0.032800
0.952350 0.335394 0.032800
0.982100 0.335394 0.032800
1.000000 0.335394 0.032800
1.000000 0.335394 0.032800
0.089600 0.362753 0.032800
0.119350 0.362753 0.032800
0.149100 0.362753 0.032800
0.178850 0.362753 0.032800
0.208600 0.362753 0.032800
0.238350 0.362753 0.032800
0.268100 0.362753 0.032800
0.297850 0.362753 0.032800
0.327600 0.362753 0.032800
0.357350 0.362753 0.032800
0.387100 0.362753 0.032800
0.416850 0.362753 0.032800
0.446600 0.362753 0.032800
0.476350 0.362753 0.032800
0.506100 0.362753 0.032800
0.535850 0.362753 0.032800
0.565600 0.362753 0.032800
0.595350 0.362753 0.032800
0.625100 0.362753 0.032800
0.654850 0.362753 0.032800
0.684600 0.362753 0.032800
0.714350 0.362753 0.032800
0.744100 0.362753 0.032800
0.773850 0.362753 0.032800
0.803600 0.362753 0.032800
0.833350 0.362753 0.032800
0.863100 0.362753 0.032800
0.892850 0.362753 0.032800
0.922600 0.362753 0.032800
0.952350 0.362753 0.032800
0.982100 0.362753 0.032800
1.000000 0.362753 0.032800
1.000000 0.362753 0.032800
0.089600 0.390112 0.032800
0.119350 0.390112 0.032800
0.149100 0.390112 0.032800
0.178850 0.390112 0.032800
0.208600 0.390112 0.032800
0.238350 0.390112 0.032800
0.268100 0.390112 0.032800
0.297850 0.390112 0.032800
0.327600 0.390112 0.032800
0.357350 0.390112 0.032800
0.387100 0.390112 0.032800
0.416850 0.390112 0.032800
0.446600 0.390112 0.032800
0.476350 0.390112 0.032800
0.506100 0.390112 0.032800
0.535850 0.390112 0.032800
0.565600 0.390112 0.032800
0.595350 0.390112 0.032800
0.625100 0.390112 0.032800
0.654850 0.390112 0.032800
0.684600 0.390112 0.032800
0.714350 0.390112 0.032800
0.744100 0.390112 0.032800
0.773850 0.390112 0.032800
0.803600 0.390112 0.032800
0.833350 0.390112 0.032800
0.863100 0.390112 0.032800
0.892850 0.390112 0.032800
0.922600 0.390112 0.032800
0.952350 0.390112 0.032800
0.982100 0.390112 0.032800
1.000000 0.390112 0.032800
1.000000 0.390112 0.032800
0.089600 0.417472 0.032800
0.119350 0.417472 0.032800
0.149100 0.417472 0.032800
0.178850 0.417472 0.032800
0.208600 0.417472 0.032800
0.238350 0.417472 0.032800
0.268100 0.417472 0.032800
0.297850 0.417472 0.032800
0.327600 0.417472 0.032800
0.357350 0.417472 0.032800
0.387100 0.417472 0.032800
0.416850 0.417472 0.032800
0.446600 0.417472 0.032800
0.476350 0.417472 0.032800
0.506100 0.417472 0.032800
0.535850 0.417472 0.032800
0.565600 0.417472 0.032800
0.595350 0.417472 0.032800
0.625100 0.417472 0.032800
0.654850 0.417472 0.032800
0.684600 0.417472 0.032800
0.714350 0.417472 0.032800
0.744100 0.417472 0.032800
0.773850 0.417472 0.032800
0.803600 0.417472 0.032800
0.833350 0.417472 0.032800
0.863100 0.417472 0.032800
0.892850 0.417472 0.032800
0.922600 0.417472 0.032800
0.952350 0.417472 0.032800
0.982100 0.417472 0.032800
1.000000 0.417472 0.032800
1.000000 0.417472 0.032800
0.089600 0.444831 0.032800
0.119350 0.444831 0.032800
0.149100 0.444831 0.032800
0.178850 0.444831 0.032800
0.208600 0.444831 0.032800
0.238350 0.444831 0.032800
0.268100 0.444831 0.032800
0.297850 0.444831 0.032800
0.327600 0.444831 0.032800
0.357350 0.444831 0.032800
0.387100 0.444831 0.032800
0.416850 0.444831 0.032800
0.446600 0.444831 0.032800
0.476350 0.444831 0.032800
0.506100 0.444831 0.032800
0.535850 0.444831 0.032800
0.565600 0.444831 0.032800
0.595350 0.444831 0.032800
0.625100 0.444831 0.032800
0.654850 0.444831 0.032800
0.684600 0.444831 0.032800
0.714350 0.444831 0.032800
0.744100 0.444831 0.032800
0.773850 0.444831 0.032800
0.803600 0.444831 0.032800
0.833350 0.444831 0.032800
0.863100 0.444831 0.032800
0.892850 0.444831 0.032800
0.922600 0.444831 0.032800
0.952350 0.444831 0.032800
0.982100 0.444831 0.032800
1.000000 0.444831 0.032800
1.000000 0.444831 0.032800
0.089600 0.472191 0.032800
0.119350 0.472191 0.032800
0.149100 0.472191 0.032800
0.178850 0.472191 0.032800
0.208600 0.472191 0.032800
0.238350 0.472191 0.032800
0.268100 0.472191 0.032800
0.297850 0.472191 0.032800
0.327600 0.472191 0.032800
0.357350 0.472191 0.032800
0.387100 0.472191 0.032800
0.416850 0.472191 0.032800
0.446600 0.472191 0.032800
0.476350 0.472191 0.032800
0.506100 0.472191 0.032800
0.535850 0.472191 0.032800
0.565600 0.472191 0.032800
0.595350 0.472191 0.032800
0.625100 0.472191 0.032800
0.654850 0.472191 0.032800
0.684600 0.472191 0.032800
0.714350 0.472191 0.032800
0.744100 0.472191 0.032800
0.773850 0.472191 0.032800
0.803600 0.472191 0.032800
0.833350 0.472191 0.032800
0.863100 0.472191 0.032800
0.892850 0.472191 0.032800
0.922600 0.472191 0.032800
0.952350 0.472191 0.032800
0.982100 0.472191 0.032800
1.000000 0.472191 0.032800
1.000000 0.472191 0.032800
0.089600 0.499550 0.032800
0.119350 0.499550 0.032800
0.149100 0.499550 0.032800
0.178850 0.499550 0.032800
0.208600 0.499550 0.032800
0.238350 0.499550 0.032800
0.268100 0.499550 0.032800
0.297850 0.499550 0.032800
0.327600 0.499550 0.032800
0.357350 0.499550 0.032800
0.387100 0.499550 0.032800
0.416850 0.499550 0.032800
0.446600 0.499550 0.032800
0.476350 0.499550 0.032800
0.506100 0.499550 0.032800
0.535850 0.499550 0.032800
0.565600 0.499550 0.032800
0.595350 0.499550 0.032800
0.625100 0.499550 0.032800
0.654850 0.499550 0.032800
0.684600 0.499550 0.032800
0.714350 0.499550 0.032800
0.744100 0.499550 0.032800
0.773850 0.499550 0.032800
0.803600 0.499550 0.032800
0.833350 0.499550 0.032800
0.863100 0.499550 0.032800
0.892850 0.499550 0.032800
0.922600 0.499550 0.032800
0.952350 0.499550 0.032800
0.982100 0.499550 0.032800
1.000000 0.499550 0.032800
1.000000 0.499550 0.032800
0.089600 0.526909 0.032800
0.119350 0.526909 0.032800
0.149100 0.526909 0.032800
0.178850 0.526909 0.032800
0.208600 0.526909 0.032800
0.238350 0.526909 0.032800
0.268100 0.526909 0.032800
0.297850 0.526909 0.032800
0.327600 0.526909 0.032800
0.357350 0.526909 0.032800
0.387100 0.526909 0.032800
0.416850 0.526909 0.032800
0.446600 0.526909 0.032800
0.476350 0.526909 0.032800
0.506100 0.526909 0.032800
0.535850 0.526909 0.032800
0.565600 0.526909 0.032800
0.595350 0.526909 0.032800
0.625100 0.526909 0.032800
0.654850 0.526909 0.032800
0.684600 0.526909 0.032800
0.714350 0.526909 0.032800
0.744100 0.526909 0.032800
0.773850 0.526909 0.032800
0.803600 0.526909 0.032800
0.833350 0.526909 0.032800
0.863100 0.526909 0.032800
0.892850 0.526909 0.032800
0.922600 0.526909 0.032800
0.952350 0.526909 0.032800
0.982100 0.526909 0.032800
1.000000 0.526909 0.032800
1.000000 0.526909 0.032800
0.089600 0.554269 0.032800
0.119350 0.554269 0.032800
0.149100 0.554269 0.032800
0.178850 0.554269 0.032800
0.208600 0.554269 0.032800
0.238350 0.554269 0.032800
0.268100 0.554269 0.032800
0.297850 0.554269 0.032800
0.327600 0.554269 0.032800
0.357350 0.554269 0.032800
0.387100 0.554269 0.032800
0.416850 0.554269 0.032800
0.446600 0.554269 0.032800
0.476350 0.554269 0.032800
0.506100 0.554269 0.032800
0.535850 0.554269 0.032800
0.565600 0.554269 0.032800
0.595350 0.554269 0.032800
0.625100 0.554269 0.032800
0.654850 0.554269 0.032800
0.684600 0.554269 0.032800
0.714350 0.554269 0.032800
0.744100 0.554269 0.032800
0.773850 0.554269 0.032800
0.803600 0.554269 0.032800
0.833350 0.554269 0.032800
0.863100 0.554269 0.032800
0.892850 0.554269 0.032800
0.922600 0.554269 0.032800
0.952350 0.554269 0.032800
0.982100 0.554269 0.032800
1.000000 0.554269 0.032800
1.000000 0.554269 0.032800
0.089600 0.581628 0.032800
0.119350 0.581628 0.032800
0.149100 0.581628 0.032800
0.178850 0.581628 0.032800
0.208600 0.581628 0.032800
0.238350 0.581628 0.032800
0.268100 0.581628 0.032800
0.297850 0.581628 0.032800
0.327600 0.581628 0.032800
0.357350 0.581628 0.032800
0.387100 0.581628 0.032800
0.416850 0.581628 0.032800
0.446600 0.581628 0.032800
0.476350 0.581628 0.032800
0.506100 0.581628 0.032800
0.535850 0.581628 0.032800
0.565600 0.581628 0.032800
0.595350 0.581628 0.032800
0.625100 0.581628 0.032800
0.654850 0.581628 0.032800
0.684600 0.581628 0.032800
0.714350 0.581628 0.032800
0.744100 0.581628 0.032800
0.773850 0.581628 0.032800
0.803600 0.581628 0.032800
0.833350 0.581628 0.032800
0.863100 0.581628 0.032800
0.892850 0.581628 0.032800
0.922600 0.581628 0.032800
0.952350 0.581628 0.032800
0.982100 0.581628 0.032800
1.000000 0.581628 0.032800
1.000000 0.581628 0.032800
0.089600 0.608988 0.032800
0.119350 0.608988 0.032800
0.149100 0.608988 0.032800
0.178850 0.608988 0.032800
0.208600 0.608988 0.032800
0.238350 0.608988 0.032800
0.268100 0.608988 0.032800
0.297850 0.608988 0.032800
0.327600 0.608988 0.032800
0.357350 0.608988 0.032800
0.387100 0.608988 0.032800
0.416850 0.608988 0.032800
0.446600 0.608988 0.032800
0.476350 0.608988 0.032800
0.506100 0.608988 0.032800
0.535850 0.608988 0.032800
0.565600 0.608988 0.032800
0.595350 0.608988 0.032800
0.625100 0.608988 0.032800
0.654850 0.608988 0.032800
0.684600 0.608988 0.032800
0.714350 0.608988 0.032800
0.744100 0.608988 0.032800
0.773850 0.608988 0.032800
0.803600 0.608988 0.032800
0.833350 0.608988 0.032800
0.863100 0.608988 0.032800
0.892850 0.608988 0.032800
0.922600 0.608988 0.032800
0.952350 0.608988 0.032800
0.982100 0.608988 0.032800
1.000000 0.608988 0.032800
1.000000 0.608988 0.032800
0.089600 0.636347 0.032800
0.119350 0.636347 0.032800
0.149100 0.636347 0.032800
0.178850 0.636347 0.032800
0.208600 0.636347 0.032800
0.238350 0.636347 0.032800
0.268100 0.636347 0.032800
0.297850 0.636347 0.032800
0.327600 0.636347 0.032800
0.357350 0.636347 0.032800
0.387100 0.636347 0.032800
0.416850 0.636347 0.032800
0.446600 0.636347 0.032800
0.476350 0.636347 0.032800
0.506100 0.636347 0.032800
0.535850 0.636347 0.032800
0.565600 0.636347 0.032800
0.595350 0.636347 0.032800
0.625100 0.636347 0.032800
0.654850 0.636347 0.032800
0.684600 0.636347 0.032800
0.714350 0.636347 0.032800
0.744100 0.636347 0.032800
0.773850 0.636347 0.032800
0.803600 0.636347 0.032800
0.833350 0.636347 0.032800
0.863100 0.636347 0.032800
0.892850 0.636347 0.032800
0.922600 0.636347 0.032800
0.952350 0.636347 0.032800
0.982100 0.636347 0.032800
1.000000 0.636347 0.032800
1.000000 0.636347 0.032800
0.089600 0.663706 0.032800
0.119350 0.663706 0.032800
0.149100 0.663706 0.032800
0.178850 0.663706 0.032800
0.208600 0.663706 0.032800
0.238350 0.663706 0.032800
0.268100 0.663706 0.032800
0.297850 0.663706 0.032800
0.327600 0.663706 0.032800
0.357350 0.663706 0.032800
0.387100 0.663706 0.032800
0.416850 0.663706 0.032800
0.446600 0.663706 0.032800
0.476350 0.663706 0.032800
0.506100 0.663706 0.032800
0.535850 0.663706 0.032800
0.565600 0.663706 0.032800
0.595350 0.663706 0.032800
0.625100 0.663706 0.032800
0.654850 0.663706 0.032800
0.684600 0.663706 0.032800
0.714350 0.663706 0.032800
0.744100 0.663706 0.032800
0.773850 0.663706 0.032800
0.803600 0.663706 0.032800
0.833350 0.663706 0.032800
0.863100 0.663706 0.032800
0.892850 0.663706 0.032800
0.922600 0.663706 0.032800
0.952350 0.663706 0.032800
0.982100 0.663706 0.032800
1.000000 0.663706 0.032800
1.000000 0.663706 0.032800
0.089600 0.691066 0.032800
0.119350 0.691066 0.032800
0.149100 0.691066 0.032800
0.178850 0.691066 0.032800
0.208600 0.691066 0.032800
0.238350 0.691066 0.032800
0.268100 0.691066 0.032800
0.297850 0.691066 0.032800
0.327600 0.691066 0.032800
0.357350 0.691066 0.032800
0.387100 0.691066 0.032800
0.416850 0.691066 0.032800
0.446600 0.691066 0.032800
0.476350 0.691066 0.032800
0.506100 0.691066 0.032800
0.535850 0.691066 0.032800
0.565600 0.691066 0.032800
0.595350 0.691066 0.032800
0.625100 0.691066 0.032800
0.654850 0.691066 0.032800
0.684600 0.691066 0.032800
0.714350 0.691066 0.032800
0.744100 0.691066 0.032800
0.773850 0.691066 0.032800
0.803600 0.691066 0.032800
0.833350 0.691066 0.032800
0.863100 0.691066 0.032800
0.892850 0.691066 0.032800
0.922600 0.691066 0.032800
0.952350 0.691066 0.032800
0.982100 0.691066 0.032800
1.000000 0.691066 0.032800
1.000000 0.691066 0.032800
0.089600 0.718425 0.032800
0.119350 0.718425 0.032800
0.149100 0.718425 0.032800
0.178850 0.718425 0.032800
0.208600 0.718425 0.032800
0.238350 0.718425 0.032800
0.268100 0.718425 0.032800
0.297850 0.718425 0.032800
0.327600 0.718425 0.032800
0.357350 0.718425 0.032800
0.387100 0.718425 0.032800
0.416850 0.718425 0.032800
0.446600 0.718425 0.032800
0.476350 0.718425 0.032800
0.506100 0.718425 0.032800
0.535850 0.718425 0.032800
0.565600 0.718425 0.032800
0.595350 0.718425 0.032800
0.625100 0.718425 0.032800
0.654850 0.718425 0.032800
0.684600 0.718425 0.032800
0.714350 0.718425 0.032800
0.744100 0.718425 0.032800
0.773850 0.718425 0.032800
0.803600 0.718425 0.032800
0.833350 0.718425 0.032800
0.863100 0.718425 0.032800
0.892850 0.718425 0.032800
0.922600 0.718425 0.032800
0.952350 0.718425 0.032800
0.982100 0.718425 0.032800
1.000000 0.718425 0.032800
1.000000 0.718425 0.032800
0.089600 0.745784 0.032800
0.119350 0.745784 0.032800
0.149100 0.745784 0.032800
0.178850 0.745784 0.032800
0.208600 0.745784 0.032800
0.238350 0.745784 0.032800
0.268100 0.745784 0.032800
0.297850 0.745784 0.032800
0.327600 0.745784 0.032800
0.357350 0.745784 0.032800
0.387100 0.745784 0.032800
0.416850 0.745784 0.032800
0.446600 0.745784 0.032800
0.476350 0.745784 0.032800
0.506100 0.745784 0.032800
0.535850 0.745784 0.032800
0.565600 0.745784 0.032800
0.595350 0.745784 0.032800
0.625100 0.745784 0.032800
0.654850 0.745784 0.032800
0.684600 0.745784 0.032800
0.714350 0.745784 0.032800
0.744100 0.745784 0.032800
0.773850 0.745784 0.032800
0.803600 0.745784 0.032800
0.833350 0.745784 0.032800
0.863100 0.745784 0.032800
0.892850 0.745784 0.032800
0.922600 0.745784 0.032800
0.952350 0.745784 0.032800
0.982100 0.745784 0.032800
1.000000 0.745784 0.032800
1.000000 0.745784 0.032800
0.089600 0.773144 0.032800
0.119350 0.773144 0.032800
0.149100 0.773144 0.032800
0.178850 0.773144 0.032800
0.208600 0.773144 0.032800
0.238350 0.773144 0.032800
0.268100 0.773144 0.032800
0.297850 0.773144 0.032800
0.327600 0.773144 0.032800
0.357350 0.773144 0.032800
0.387100 0.773144 0.032800
0.416850 0.773144 0.032800
0.446600 0.773144 0.032800
0.476350 0.773144 0.032800
0.506100 0.773144 0.032800
0.535850 0.773144 0.032800
0.565600 0.773144 0.032800
0.595350 0.773144 0.032800
0.625100 0.773144 0.032800
0.654850 0.773144 0.032800
0.684600 0.773144 0.032800
0.714350 0.773144 0.032800
0.744100 0.773144 0.032800
0.773850 0.773144 0.032800
0.803600 0.773144 0.032800
0.833350 0.773144 0.032800
0.863100 0.773144 0.032800
0.892850 0.773144 0.032800
0.922600 0.773144 0.032800
