luts/warm.cube
TITLE "Warm"
LUT_3D_SIZE 9
0.000000 0.000000 0.000000
0.140000 0.000000 0.000000
0.280000 0.000000 0.000000
0.420000 0.000000 0.000000
0.560000 0.000000 0.000000
0.700000 0.000000 0.000000
0.840000 0.000000 0.000000
0.980000 0.000000 0.000000
1.000000 0.000000 0.000000
0.000000 0.128750 0.000000
0.140000 0.128750 0.000000
0.280000 0.128750 0.000000
0.420000 0.128750 0.000000
0.560000 0.128750 0.000000
0.700000 0.128750 0.000000
0.840000 0.128750 0.000000
0.980000 0.128750 0.000000
1.000000 0.128750 0.000000
0.000000 0.257500 0.000000
0.140000 0.257500 0.000000
0.280000 0.257500 0.000000
0.420000 0.257500 0.000000
0.560000 0.257500 0.000000
0.700000 0.257500 0.000000
0.840000 0.257500 0.000000
0.980000 0.257500 0.000000
1.000000 0.257500 0.000000
0.000000 0.386250 0.000000
0.140000 0.386250 0.000000
0.280000 0.386250 0.000000
0.420000 0.386250 0.000000
0.560000 0.386250 0.000000
0.700000 0.386250 0.000000
0.840000 0.386250 0.000000
0.980000 0.386250 0.000000
1.000000 0.386250 0.000000
0.000000 0.515000 0.000000
0.140000 0.515000 0.000000
0.280000 0.515000 0.000000
0.420000 0.515000 0.000000
0.560000 0.515000 0.000000
0.700000 0.515000 0.000000
0.840000 0.515000 0.000000
0.980000 0.515000 0.000000
1.000000 0.515000 0.000000
0.000000 0.643750 0.000000
0.140000 0.643750 0.000000
0.280000 0.643750 0.000000
0.420000 0.643750 0.000000
0.560000 0.643750 0.000000
0.700000 0.643750 0.000000
0.840000 0.643750 0.000000
0.980000 0.643750 0.000000
1.000000 0.643750 0.000000
0.000000 0.772500 0.000000
0.140000 0.772500 0.000000
0.280000 0.772500 0.000000
0.420000 0.772500 0.000000
0.560000 0.772500 0.000000
0.700000 0.772500 0.000000
0.840000 0.772500 0.000000
0.980000 0.772500 0.000000
1.000000 0.772500 0.000000
0.000000 0.901250 0.000000
0.140000 0.901250 0.000000
0.280000 0.901250 0.000000
0.420000 0.901250 0.000000
0.560000 0.901250 0.000000
0.700000 0.901250 0.000000
0.840000 0.901250 0.000000
0.980000 0.901250 0.000000
1.000000 0.901250 0.000000
0.000000 1.000000 0.000000
0.140000 1.000000 0.000000
0.280000 1.000000 0.000000
0.420000 1.000000 0.000000
0.560000 1.000000 0.000000
0.700000 1.000000 0.000000
0.840000 1.000000 0.000000
0.980000 1.000000 0.000000
1.000000 1.000000 0.000000
0.000000 0.000000 0.110000
0.140000 0.000000 0.110000
0.280000 0.000000 0.110000
0.420000 0.000000 0.110000
0.560000 0.000000 0.110000
0.700000 0.000000 0.110000
0.840000 0.000000 0.110000
0.980000 0.000000 0.110000
1.000000 0.000000 0.110000
0.000000 0.128750 0.110000
0.140000 0.128750 0.110000
0.280000 0.128750 0.110000
0.420000 0.128750 0.110000
0.560000 0.128750 0.110000
0.700000 0.128750 0.110000
0.840000 0.128750 0.110000
0.980000 0.128750 0.110000
1.000000 0.128750 0.110000
0.000000 0.257500 0.110000
0.140000 0.257500 0.110000
0.280000 0.257500 0.110000
0.420000 0.257500 0.110000
0.560000 0.257500 0.110000
0.700000 0.257500 0.110000
0.840000 0.257500 0.110000
0.980000 0.257500 0.110000
1.000000 0.257500 0.110000
0.000000 0.386250 0.110000
0.140000 0.386250 0.110000
0.280000 0.386250 0.110000
0.420000 0.386250 0.110000
0.560000 0.386250 0.110000
0.700000 0.386250 0.110000
0.840000 0.386250 0.110000
0.980000 0.386250 0.110000
1.000000 0.386250 0.110000
0.000000 0.515000 0.110000
0.140000 0.515000 0.110000
0.280000 0.515000 0.110000
0.420000 0.515000 0.110000
0.560000 0.515000 0.110000
0.700000 0.515000 0.110000
0.840000 0.515000 0.110000
0.980000 0.515000 0.110000
1.000000 0.515000 0.110000
0.000000 0.643750 0.110000
0.140000 0.643750 0.110000
0.280000 0.643750 0.110000
0.420000 0.643750 0.110000
0.560000 0.643750 0.110000
0.700000 0.643750 0.110000
0.840000 0.643750 0.110000
0.980000 0.643750 0.110000
1.000000 0.643750 0.110000
0.000000 0.772500 0.110000
0.140000 0.772500 0.110000
0.280000 0.772500 0.110000
0.420000 0.772500 0.110000
0.560000 0.772500 0.110000
0.700000 0.772500 0.110000
0.840000 0.772500 0.110000
0.980000 0.772500 0.110000
1.000000 0.772500 0.110000
0.000000 0.901250 0.110000
0.140000 0.901250 0.110000
0.280000 0.901250 0.110000
0.420000 0.901250 0.110000
0.560000 0.901250 0.110000
0.700000 0.901250 0.110000
0.840000 0.901250 0.110000
0.980000 0.901250 0.110000
1.000000 0.901250 0.110000
0.000000 1.000000 0.110000
0.140000 1.000000 0.110000
0.280000 1.000000 0.110000
0.420000 1.000000 0.110000
0.560000 1.000000 0.110000
0.700000 1.000000 0.110000
0.840000 1.000000 0.110000
0.980000 1.000000 0.110000
1.000000 1.000000 0.110000
0.000000 0.000000 0.220000
0.140000 0.000000 0.220000
0.280000 0.000000 0.220000
0.420000 0.000000 0.220000
0.560000 0.000000 0.220000
0.700000 0.000000 0.220000
0.840000 0.000000 0.220000
0.980000 0.000000 0.220000
1.000000 0.000000 0.220000
0.000000 0.128750 0.220000
0.140000 0.128750 0.220000
0.280000 0.128750 0.220000
0.420000 0.128750 0.220000
0.560000 0.128750 0.220000
0.700000 0.128750 0.220000
0.840000 0.128750 0.220000
0.980000 0.128750 0.220000
1.000000 0.128750 0.220000
0.000000 0.257500 0.220000
0.140000 0.257500 0.220000
0.280000 0.257500 0.220000
0.420000 0.257500 0.220000
0.560000 0.257500 0.220000
0.700000 0.257500 0.220000
0.840000 0.257500 0.220000
0.980000 0.257500 0.220000
1.000000 0.257500 0.220000
0.000000 0.386250 0.220000
0.140000 0.386250 0.220000
0.280000 0.386250 0.220000
0.420000 0.386250 0.220000
0.560000 0.386250 0.220000
0.700000 0.386250 0.220000
0.840000 0.386250 0.220000
0.980000 0.386250 0.220000
1.000000 0.386250 0.220000
0.000000 0.515000 0.220000
0.140000 0.515000 0.220000
0.280000 0.515000 0.220000
0.420000 0.515000 0.220000
0.560000 0.515000 0.220000
0.700000 0.515000 0.220000
0.840000 0.515000 0.220000
0.980000 0.515000 0.220000
1.000000 0.515000 0.220000
0.000000 0.643750 0.220000
0.140000 0.643750 0.220000
0.280000 0.643750 0.220000
0.420000 0.643750 0.220000
0.560000 0.643750 0.220000
0.700000 0.643750 0.220000
0.840000 0.643750 0.220000
0.980000 0.643750 0.220000
1.000000 0.643750 0.220000
0.000000 0.772500 0.220000
0.140000 0.772500 0.220000
0.280000 0.772500 0.220000
0.420000 0.772500 0.220000
0.560000 0.772500 0.220000
0.700000 0.772500 0.220000
0.840000 0.772500 0.220000
0.980000 0.772500 0.220000
1.000000 0.772500 0.220000
0.000000 0.901250 0.220000
0.140000 0.901250 0.220000
0.280000 0.901250 0.220000
0.420000 0.901250 0.220000
0.560000 0.901250 0.220000
0.700000 0.901250 0.220000
0.840000 0.901250 0.220000
0.980000 0.901250 0.220000
1.000000 0.901250 0.220000
0.000000 1.000000 0.220000
0.140000 1.000000 0.220000
0.280000 1.000000 0.220000
0.420000 1.000000 0.220000
0.560000 1.000000 0.220000
0.700000 1.000000 0.220000
0.840000 1.000000 0.220000
0.980000 1.000000 0.220000
1.000000 1.000000 0.220000
0.000000 0.000000 0.330000
0.140000 0.000000 0.330000
0.280000 0.000000 0.330000
0.420000 0.000000 0.330000
0.560000 0.000000 0.330000
0.700000 0.000000 0.330000
0.840000 0.000000 0.330000
0.980000 0.000000 0.330000
1.000000 0.000000 0.330000
0.000000 0.128750 0.330000
0.140000 0.128750 0.330000
0.280000 0.128750 0.330000
0.420000 0.128750 0.330000
0.560000 0.128750 0.330000
0.700000 0.128750 0.330000
0.840000 0.128750 0.330000
0.980000 0.128750 0.330000
1.000000 0.128750 0.330000
0.000000 0.257500 0.330000
0.140000 0.257500 0.330000
0.280000 0.257500 0.330000
0.420000 0.257500 0.330000
0.560000 0.257500 0.330000
0.700000 0.257500 0.330000
0.840000 0.257500 0.330000
0.980000 0.257500 0.330000
1.000000 0.257500 0.330000
0.000000 0.386250 0.330000
0.140000 0.386250 0.330000
0.280000 0.386250 0.330000
0.420000 0.386250 0.330000
0.560000 0.386250 0.330000
0.700000 0.386250 0.330000
0.840000 0.386250 0.330000
0.980000 0.386250 0.330000
1.000000 0.386250 0.330000
0.000000 0.515000 0.330000
0.140000 0.515000 0.330000
0.280000 0.515000 0.330000
0.420000 0.515000 0.330000
0.560000 0.515000 0.330000
0.700000 0.515000 0.330000
0.840000 0.515000 0.330000
0.980000 0.515000 0.330000
1.000000 0.515000 0.330000
0.000000 0.643750 0.330000
0.140000 0.643750 0.330000
0.280000 0.643750 0.330000
0.420000 0.643750 0.330000
0.560000 0.643750 0.330000
0.700000 0.643750 0.330000
0.840000 0.643750 0.330000
0.980000 0.643750 0.330000
1.000000 0.643750 0.330000
0.000000 0.772500 0.330000
0.140000 0.772500 0.330000
0.280000 0.772500 0.330000
0.420000 0.772500 0.330000
0.560000 0.772500 0.330000
0.700000 0.772500 0.330000
0.840000 0.772500 0.330000
0.980000 0.772500 0.330000
1.000000 0.772500 0.330000
0.000000 0.901250 0.330000
0.140000 0.901250 0.330000
0.280000 0.901250 0.330000
0.420000 0.901250 0.330000
0.560000 0.901250 0.330000
0.700000 0.901250 0.330000
0.840000 0.901250 0.330000
0.980000 0.901250 0.330000
1.000000 0.901250 0.330000
0.000000 1.000000 0.330000
0.140000 1.000000 0.330000
0.280000 1.000000 0.330000
0.420000 1.000000 0.330000
0.560000 1.000000 0.330000
0.700000 1.000000 0.330000
0.840000 1.000000 0.330000
0.980000 1.000000 0.330000
1.000000 1.000000 0.330000
0.000000 0.000000 0.440000
0.140000 0.000000 0.440000
0.280000 0.000000 0.440000
0.420000 0.000000 0.440000
0.560000 0.000000 0.440000
0.700000 0.000000 0.440000
0.840000 0.000000 0.440000
0.980000 0.000000 0.440000
1.000000 0.000000 0.440000
0.000000 0.128750 0.440000
0.140000 0.128750 0.440000
0.280000 0.128750 0.440000
0.420000 0.128750 0.440000
0.560000 0.128750 0.440000
0.700000 0.128750 0.440000
0.840000 0.128750 0.440000
0.980000 0.128750 0.440000
1.000000 0.128750 0.440000
0.000000 0.257500 0.440000
0.140000 0.257500 0.440000
0.280000 0.257500 0.440000
0.420000 0.257500 0.440000
0.560000 0.257500 0.440000
0.700000 0.257500 0.440000
0.840000 0.257500 0.440000
0.980000 0.257500 0.440000
1.000000 0.257500 0.440000
0.000000 0.386250 0.440000
0.140000 0.386250 0.440000
0.280000 0.386250 0.440000
0.420000 0.386250 0.440000
0.560000 0.386250 0.440000
0.700000 0.386250 0.440000
0.840000 0.386250 0.440000
0.980000 0.386250 0.440000
1.000000 0.386250 0.440000
0.000000 0.515000 0.440000
0.140000 0.515000 0.440000
0.280000 0.515000 0.440000
0.420000 0.515000 0.440000
0.560000 0.515000 0.440000
0.700000 0.515000 0.440000
0.840000 0.515000 0.440000
0.980000 0.515000 0.440000
1.000000 0.515000 0.440000
0.000000 0.643750 0.440000
0.140000 0.643750 0.440000
0.280000 0.643750 0.440000
0.420000 0.643750 0.440000
0.560000 0.643750 0.440000
0.700000 0.643750 0.440000
0.840000 0.643750 0.440000
0.980000 0.643750 0.440000
1.000000 0.643750 0.440000
0.000000 0.772500 0.440000
0.140000 0.772500 0.440000
0.280000 0.772500 0.440000
0.420000 0.772500 0.440000
0.560000 0.772500 0.440000
0.700000 0.772500 0.440000
0.840000 0.772500 0.440000
0.980000 0.772500 0.440000
1.000000 0.772500 0.440000
0.000000 0.901250 0.440000
0.140000 0.901250 0.440000
0.280000 0.901250 0.440000
0.420000 0.901250 0.440000
0.560000 0.901250 0.440000
0.700000 0.901250 0.440000
0.840000 0.901250 0.440000
0.980000 0.901250 0.440000
1.000000 0.901250 0.440000
0.000000 1.000000 0.440000
0.140000 1.000000 0.440000
0.280000 1.000000 0.440000
0.420000 1.000000 0.440000
0.560000 1.000000 0.440000
0.700000 1.000000 0.440000
0.840000 1.000000 0.440000
0.980000 1.000000 0.440000
1.000000 1.000000 0.440000
0.000000 0.000000 0.550000
0.140000 0.000000 0.550000
0.280000 0.000000 0.550000
0.420000 0.000000 0.550000
0.560000 0.000000 0.550000
0.700000 0.000000 0.550000
0.840000 0.000000 0.550000
0.980000 0.000000 0.550000
1.000000 0.000000 0.550000
0.000000 0.128750 0.550000
0.140000 0.128750 0.550000
0.280000 0.128750 0.550000
0.420000 0.128750 0.550000
0.560000 0.128750 0.550000
0.700000 0.128750 0.550000
0.840000 0.128750 0.550000
0.980000 0.128750 0.550000
1.000000 0.128750 0.550000
0.000000 0.257500 0.550000
0.140000 0.257500 0.550000
0.280000 0.257500 0.550000
0.420000 0.257500 0.550000
0.560000 0.257500 0.550000
0.700000 0.257500 0.550000
0.840000 0.257500 0.550000
0.980000 0.257500 0.550000
1.000000 0.257500 0.550000
0.000000 0.386250 0.550000
0.140000 0.386250 0.550000
0.280000 0.386250 0.550000
0.420000 0.386250 0.550000
0.560000 0.386250 0.550000
0.700000 0.386250 0.550000
0.840000 0.386250 0.550000
0.980000 0.386250 0.550000
1.000000 0.386250 0.550000
0.000000 0.515000 0.550000
0.140000 0.515000 0.550000
0.280000 0.515000 0.550000
0.420000 0.515000 0.550000
0.560000 0.515000 0.550000
0.700000 0.515000 0.550000
0.840000 0.515000 0.550000
0.980000 0.515000 0.550000
1.000000 0.515000 0.550000
0.000000 0.643750 0.550000
0.140000 0.643750 0.550000
0.280000 0.643750 0.550000
0.420000 0.643750 0.550000
0.560000 0.643750 0.550000
0.700000 0.643750 0.550000
0.840000 0.643750 0.550000
0.980000 0.643750 0.550000
1.000000 0.643750 0.550000
0.000000 0.772500 0.550000
0.140000 0.772500 0.550000
0.280000 0.772500 0.550000
0.420000 0.772500 0.550000
0.560000 0.772500 0.550000
0.700000 0.772500 0.550000
0.840000 0.772500 0.550000
0.980000 0.772500 0.550000
1.000000 0.772500 0.550000
0.000000 0.901250 0.550000
0.140000 0.901250 0.550000
0.280000 0.901250 0.550000
0.420000 0.901250 0.550000
0.560000 0.901250 0.550000
0.700000 0.901250 0.550000
0.840000 0.901250 0.550000
0.980000 0.901250 0.550000
1.000000 0.901250 0.550000
0.000000 1.000000 0.550000
0.140000 1.000000 0.550000
0.280000 1.000000 0.550000
0.420000 1.000000 0.550000
0.560000 1.000000 0.550000
0.700000 1.000000 0.550000
0.840000 1.000000 0.550000
0.980000 1.000000 0.550000
1.000000 1.000000 0.550000
0.000000 0.000000 0.660000
0.140000 0.000000 0.660000
0.280000 0.000000 0.660000
0.420000 0.000000 0.660000
0.560000 0.000000 0.660000
0.700000 0.000000 0.660000
0.840000 0.000000 0.660000
0.980000 0.000000 0.660000
1.000000 0.000000 0.660000
0.000000 0.128750 0.660000
0.140000 0.128750 0.660000
0.280000 0.128750 0.660000
0.420000 0.128750 0.660000
0.560000 0.128750 0.660000
0.700000 0.128750 0.660000
0.840000 0.128750 0.660000
0.980000 0.128750 0.660000
1.000000 0.128750 0.660000
0.000000 0.257500 0.660000
0.140000 0.257500 0.660000
0.280000 0.257500 0.660000
0.420000 0.257500 0.660000
0.560000 0.257500 0.660000
0.700000 0.257500 0.660000
0.840000 0.257500 0.660000
0.980000 0.257500 0.660000
1.000000 0.257500 0.660000
0.000000 0.386250 0.660000
0.140000 0.386250 0.660000
0.280000 0.386250 0.660000
0.420000 0.386250 0.660000
0.560000 0.386250 0.660000
0.700000 0.386250 0.660000
0.840000 0.386250 0.660000
0.980000 0.386250 0.660000
1.000000 0.386250 0.660000
0.000000 0.515000 0.660000
0.140000 0.515000 0.660000
0.280000 0.515000 0.660000
0.420000 0.515000 0.660000
0.560000 0.515000 0.660000
0.700000 0.515000 0.660000
0.840000 0.515000 0.660000
0.980000 0.515000 0.660000
1.000000 0.515000 0.660000
0.000000 0.643750 0.660000
0.140000 0.643750 0.660000
0.280000 0.643750 0.660000
0.420000 0.643750 0.660000
0.560000 0.643750 0.660000
0.700000 0.643750 0.660000
0.840000 0.643750 0.660000
0.980000 0.643750 0.660000
1.000000 0.643750 0.660000
0.000000 0.772500 0.660000
0.140000 0.772500 0.660000
0.280000 0.772500 0.660000
0.420000 0.772500 0.660000
0.560000 0.772500 0.660000
0.700000 0.772500 0.660000
0.840000 0.772500 0.660000
0.980000 0.772500 0.660000
1.000000 0.772500 0.660000
0.000000 0.901250 0.660000
0.140000 0.901250 0.660000
0.280000 0.901250 0.660000
0.420000 0.901250 0.660000
0.560000 0.901250 0.660000
0.700000 0.901250 0.660000
0.840000 0.901250 0.660000
0.980000 0.901250 0.660000
1.000000 0.901250 0.660000
0.000000 1.000000 0.660000
0.140000 1.000000 0.660000
0.280000 1.000000 0.660000
0.420000 1.000000 0.660000
0.560000 1.000000 0.660000
0.700000 1.000000 0.660000
0.840000 1.000000 0.660000
0.980000 1.000000 0.660000
1.000000 1.000000 0.660000
0.000000 0.000000 0.770000
0.140000 0.000000 0.770000
0.280000 0.000000 0.770000
0.420000 0.000000 0.770000
0.560000 0.000000 0.770000
0.700000 0.000000 0.770000
0.840000 0.000000 0.770000
0.980000 0.000000 0.770000
1.000000 0.000000 0.770000
0.000000 0.128750 0.770000
0.140000 0.128750 0.770000
0.280000 0.128750 0.770000
0.420000 0.128750 0.770000
0.560000 0.128750 0.770000
0.700000 0.128750 0.770000
0.840000 0.128750 0.770000
0.980000 0.128750 0.770000
1.000000 0.128750 0.770000
0.000000 0.257500 0.770000
0.140000 0.257500 0.770000
0.280000 0.257500 0.770000
0.420000 0.257500 0.770000
0.560000 0.257500 0.770000
0.700000 0.257500 0.770000
0.840000 0.257500 0.770000
0.980000 0.257500 0.770000
1.000000 0.257500 0.770000
0.000000 0.386250 0.770000
0.140000 0.386250 0.770000
0.280000 0.386250 0.770000
0.420000 0.386250 0.770000
0.560000 0.386250 0.770000
0.700000 0.386250 0.770000
0.840000 0.386250 0.770000
0.980000 0.386250 0.770000
1.000000 0.386250 0.770000
0.000000 0.515000 0.770000
0.140000 0.515000 0.770000
0.280000 0.515000 0.770000
0.420000 0.515000 0.770000
0.560000 0.515000 0.770000
0.700000 0.515000 0.770000
0.840000 0.515000 0.770000
0.980000 0.515000 0.770000
1.000000 0.515000 0.770000
0.000000 0.643750 0.770000
0.140000 0.643750 0.770000
0.280000 0.643750 0.770000
0.420000 0.643750 0.770000
0.560000 0.643750 0.770000
0.700000 0.643750 0.770000
0.840000 0.643750 0.770000
0.980000 0.643750 0.770000
1.000000 0.643750 0.770000
0.000000 0.772500 0.770000
0.140000 0.772500 0.770000
0.280000 0.772500 0.770000
0.420000 0.772500 0.770000
0.560000 0.772500 0.770000
0.700000 0.772500 0.770000
0.840000 0.772500 0.770000
0.980000 0.772500 0.770000
1.000000 0.772500 0.770000
0.000000 0.901250 0.770000
0.140000 0.901250 0.770000
0.280000 0.901250 0.770000
0.420000 0.901250 0.770000
0.560000 0.901250 0.770000
0.700000 0.901250 0.770000
0.840000 0.901250 0.770000
0.980000 0.901250 0.770000
1.000000 0.901250 0.770000
0.000000 1.000000 0.770000
0.140000 1.000000 0.770000
0.280000 1.000000 0.770000
0.420000 1.000000 0.770000
0.560000 1.000000 0.770000
0.700000 1.000000 0.770000
0.840000 1.000000 0.770000
0.980000 1.000000 0.770000
1.000000 1.000000 0.770000
0.000000 0.000000 0.880000
0.140000 0.000000 0.880000
0.280000 0.000000 0.880000
0.420000 0.000000 0.880000
0.560000 0.000000 0.880000
0.700000 0.000000 0.880000
0.840000 0.000000 0.880000
0.980000 0.000000 0.880000
1.000000 0.000000 0.880000
0.000000 0.128750 0.880000
0.140000 0.128750 0.880000
0.280000 0.128750 0.880000
0.420000 0.128750 0.880000
0.560000 0.128750 0.880000
0.700000 0.128750 0.880000
0.840000 0.128750 0.880000
0.980000 0.128750 0.880000
1.000000 0.128750 0.880000
0.000000 0.257500 0.880000
0.140000 0.257500 0.880000
0.280000 0.257500 0.880000
0.420000 0.257500 0.880000
0.560000 0.257500 0.880000
0.700000 0.257500 0.880000
0.840000 0.257500 0.880000
0.980000 0.257500 0.880000
1.000000 0.257500 0.880000
0.000000 0.386250 0.880000
0.140000 0.386250 0.880000
0.280000 0.386250 0.880000
0.420000 0.386250 0.880000
0.560000 0.386250 0.880000
0.700000 0.386250 0.880000
0.840000 0.386250 0.880000
0.980000 0.386250 0.880000
1.000000 0.386250 0.880000
0.000000 0.515000 0.880000
0.140000 0.515000 0.880000
0.280000 0.515000 0.880000
0.420000 0.515000 0.880000
0.560000 0.515000 0.880000
0.700000 0.515000 0.880000
0.840000 0.515000 0.880000
0.980000 0.515000 0.880000
1.000000 0.515000 0.880000
0.000000 0.643750 0.880000
0.140000 0.643750 0.880000
0.280000 0.643750 0.880000
0.420000 0.643750 0.880000
0.560000 0.643750 0.880000
0.700000 0.643750 0.880000
0.840000 0.643750 0.880000
0.980000 0.643750 0.880000
1.000000 0.643750 0.880000
0.000000 0.772500 0.880000
0.140000 0.772500 0.880000
0.280000 0.772500 0.880000
0.420000 0.772500 0.880000
0.560000 0.772500 0.880000
0.700000 0.772500 0.880000
0.840000 0.772500 0.880000
0.980000 0.772500 0.880000
1.000000 0.772500 0.880000
0.000000 0.901250 0.880000
0.140000 0.901250 0.880000
0.280000 0.901250 0.880000
0.420000 0.901250 0.880000
0.560000 0.901250 0.880000
0.700000 0.901250 0.880000
0.840000 0.901250 0.880000
0.980000 0.901250 0.880000
1.000000 0.901250 0.880000
0.000000 1.000000 0.880000
0.140000 1.000000 0.880000
0.280000 1.000000 0.880000
0.420000 1.000000 0.880000
0.560000 1.000000 0.880000
0.700000 1.000000 0.880000
0.840000 1.000000 0.880000
0.980000 1.000000 0.880000
1.000000 1.000000 0.880000
