luts/warm.cube
TITLE "Warm"
LUT_3D_SIZE 5
0.000000 0.000000 0.000000
0.280000 0.000000 0.000000
0.560000 0.000000 0.000000
0.840000 0.000000 0.000000
1.000000 0.000000 0.000000
0.000000 0.257500 0.000000
0.280000 0.257500 0.000000
0.560000 0.257500 0.000000
0.840000 0.257500 0.000000
1.000000 0.257500 0.000000
0.000000 0.515000 0.000000
0.280000 0.515000 0.000000
0.560000 0.515000 0.000000
0.840000 0.515000 0.000000
1.000000 0.515000 0.000000
0.000000 0.772500 0.000000
0.280000 0.772500 0.000000
0.560000 0.772500 0.000000
0.840000 0.772500 0.000000
1.000000 0.772500 0.000000
0.000000 1.000000 0.000000
0.280000 1.000000 0.000000
0.560000 1.000000 0.000000
0.840000 1.000000 0.000000
1.000000 1.000000 0.000000
0.000000 0.000000 0.220000
0.280000 0.000000 0.220000
0.560000 0.000000 0.220000
0.840000 0.000000 0.220000
1.000000 0.000000 0.220000
0.000000 0.257500 0.220000
0.280000 0.257500 0.220000
0.560000 0.257500 0.220000
0.840000 0.257500 0.220000
1.000000 0.257500 0.220000
0.000000 0.515000 0.220000
0.280000 0.515000 0.220000
0.560000 0.515000 0.220000
0.840000 0.515000 0.220000
1.000000 0.515000 0.220000
0.000000 0.772500 0.220000
0.280000 0.772500 0.220000
0.560000 0.772500 0.220000
0.840000 0.772500 0.220000
1.000000 0.772500 0.220000
0.000000 1.000000 0.220000
0.280000 1.000000 0.220000
0.560000 1.000000 0.220000
0.840000 1.000000 0.220000
1.000000 1.000000 0.220000
0.000000 0.000000 0.440000
0.280000 0.000000 0.440000
0.560000 0.000000 0.440000
0.840000 0.000000 0.440000
1.000000 0.000000 0.440000
0.000000 0.257500 0.440000
0.280000 0.257500 0.440000
0.560000 0.257500 0.440000
0.840000 0.257500 0.440000
1.000000 0.257500 0.440000
0.000000 0.515000 0.440000
0.280000 0.515000 0.440000
0.560000 0.515000 0.440000
0.840000 0.515000 0.440000
1.000000 0.515000 0.440000
0.000000 0.772500 0.440000
0.280000 0.772500 0.440000
0.560000 0.772500 0.440000
0.840000 0.772500 0.440000
1.000000 0.772500 0.440000
0.000000 1.000000 0.440000
0.280000 1.000000 0.440000
0.560000 1.000000 0.440000
0.840000 1.000000 0.440000
1.000000 1.000000 0.440000
0.000000 0.000000 0.660000
0.280000 0.000000 0.660000
0.560000 0.000000 0.660000
0.840000 0.000000 0.660000
1.000000 0.000000 0.660000
0.000000 0.257500 0.660000
0.280000 0.257500 0.660000
0.560000 0.257500 0.660000
0.840000 0.257500 0.660000
1.000000 0.257500 0.660000
0.000000 0.515000 0.660000
0.280000 0.515000 0.660000
0.560000 0.515000 0.660000
0.840000 0.515000 0.660000
1.000000 0.515000 0.660000
0.000000 0.772500 0.660000
0.280000 0.772500 0.660000
0.560000 0.772500 0.660000
0.840000 0.772500 0.660000
1.000000 0.772500 0.660000
0.000000 1.000000 0.660000
0.280000 1.000000 0.660000
0.560000 1.000000 0.660000
0.840000 1.000000 0.660000
1.000000 1.000000 0.660000
0.000000 0.000000 0.880000
0.280000 0.000000 0.880000
0.560000 0.000000 0.880000
0.840000 0.000000 0.880000
1.000000 0.000000 0.880000
0.000000 0.257500 0.880000
0.280000 0.257500 0.880000
0.560000 0.257500 0.880000
0.840000 0.257500 0.880000
1.000000 0.257500 0.880000
0.000000 0.515000 0.880000
0.280000 0.515000 0.880000
0.560000 0.515000 0.880000
0.840000 0.515000 0.880000
1.000000 0.515000 0.880000
0.000000 0.772500 0.880000
0.280000 0.772500 0.880000
0.560000 0.772500 0.880000
0.840000 0.772500 0.880000
1.000000 0.772500 0.880000
0.000000 1.000000 0.880000
0.280000 1.000000 0.880000
0.560000 1.000000 0.880000
0.840000 1.000000 0.880000
1.000000 1.000000 0.880000
