luts/warm.cube
TITLE "Warm"
LUT_3D_SIZE 33
0.000000 0.000000 0.000000
0.035000 0.000000 0.000000
0.070000 0.000000 0.000000
0.105000 0.000000 0.000000
0.140000 0.000000 0.000000
0.175000 0.000000 0.000000
0.210000 0.000000 0.000000
0.245000 0.000000 0.000000
0.280000 0.000000 0.000000
0.315000 0.000000 0.000000
0.350000 0.000000 0.000000
0.385000 0.000000 0.000000
0.420000 0.000000 0.000000
0.455000 0.000000 0.000000
0.490000 0.000000 0.000000
0.525000 0.000000 0.000000
0.560000 0.000000 0.000000
0.595000 0.000000 0.000000
0.630000 0.000000 0.000000
0.665000 0.000000 0.000000
0.700000 0.000000 0.000000
0.735000 0.000000 0.000000
0.770000 0.000000 0.000000
0.805000 0.000000 0.000000
0.840000 0.000000 0.000000
0.875000 0.000000 0.000000
0.910000 0.000000 0.000000
0.945000 0.000000 0.000000
0.980000 0.000000 0.000000
1.000000 0.000000 0.000000
1.000000 0.000000 0.000000
1.000000 0.000000 0.000000
1.000000 0.000000 0.000000
0.000000 0.032188 0.000000
0.035000 0.032188 0.000000
0.070000 0.032188 0.000000
0.105000 0.032188 0.000000
0.140000 0.032188 0.000000
0.175000 0.032188 0.000000
0.210000 0.032188 0.000000
0.245000 0.032188 0.000000
0.280000 0.032188 0.000000
0.315000 0.032188 0.000000
0.350000 0.032188 0.000000
0.385000 0.032188 0.000000
0.420000 0.032188 0.000000
0.455000 0.032188 0.000000
0.490000 0.032188 0.000000
0.525000 0.032188 0.000000
0.560000 0.032188 0.000000
0.595000 0.032188 0.000000
0.630000 0.032188 0.000000
0.665000 0.032188 0.000000
0.700000 0.032188 0.000000
0.735000 0.032188 0.000000
0.770000 0.032188 0.000000
0.805000 0.032188 0.000000
0.840000 0.032188 0.000000
0.875000 0.032188 0.000000
0.910000 0.032188 0.000000
0.945000 0.032188 0.000000
0.980000 0.032188 0.000000
1.000000 0.032188 0.000000
1.000000 0.032188 0.000000
1.000000 0.032188 0.000000
1.000000 0.032188 0.000000
0.000000 0.064375 0.000000
0.035000 0.064375 0.000000
0.070000 0.064375 0.000000
0.105000 0.064375 0.000000
0.140000 0.064375 0.000000
0.175000 0.064375 0.000000
0.210000 0.064375 0.000000
0.245000 0.064375 0.000000
0.280000 0.064375 0.000000
0.315000 0.064375 0.000000
0.350000 0.064375 0.000000
0.385000 0.064375 0.000000
0.420000 0.064375 0.000000
0.455000 0.064375 0.000000
0.490000 0.064375 0.000000
0.525000 0.064375 0.000000
0.560000 0.064375 0.000000
0.595000 0.064375 0.000000
0.630000 0.064375 0.000000
0.665000 0.064375 0.000000
0.700000 0.064375 0.000000
0.735000 0.064375 0.000000
0.770000 0.064375 0.000000
0.805000 0.064375 0.000000
0.840000 0.064375 0.000000
0.875000 0.064375 0.000000
0.910000 0.064375 0.000000
0.945000 0.064375 0.000000
0.980000 0.064375 0.000000
1.000000 0.064375 0.000000
1.000000 0.064375 0.000000
1.000000 0.064375 0.000000
1.000000 0.064375 0.000000
0.000000 0.096562 0.000000
0.035000 0.096562 0.000000
0.070000 0.096562 0.000000
0.105000 0.096562 0.000000
0.140000 0.096562 0.000000
0.175000 0.096562 0.000000
0.210000 0.096562 0.000000
0.245000 0.096562 0.000000
0.280000 0.096562 0.000000
0.315000 0.096562 0.000000
0.350000 0.096562 0.000000
0.385000 0.096562 0.000000
0.420000 0.096562 0.000000
0.455000 0.096562 0.000000
0.490000 0.096562 0.000000
0.525000 0.096562 0.000000
0.560000 0.096562 0.000000
0.595000 0.096562 0.000000
0.630000 0.096562 0.000000
0.665000 0.096562 0.000000
0.700000 0.096562 0.000000
0.735000 0.096562 0.000000
0.770000 0.096562 0.000000
0.805000 0.096562 0.000000
0.840000 0.096562 0.000000
0.875000 0.096562 0.000000
0.910000 0.096562 0.000000
0.945000 0.096562 0.000000
0.980000 0.096562 0.000000
1.000000 0.096562 0.000000
1.000000 0.096562 0.000000
1.000000 0.096562 0.000000
1.000000 0.096562 0.000000
0.000000 0.128750 0.000000
0.035000 0.128750 0.000000
0.070000 0.128750 0.000000
0.105000 0.128750 0.000000
0.140000 0.128750 0.000000
0.175000 0.128750 0.000000
0.210000 0.128750 0.000000
0.245000 0.128750 0.000000
0.280000 0.128750 0.000000
0.315000 0.128750 0.000000
0.350000 0.128750 0.000000
0.385000 0.128750 0.000000
0.420000 0.128750 0.000000
0.455000 0.128750 0.000000
0.490000 0.128750 0.000000
0.525000 0.128750 0.000000
0.560000 0.128750 0.000000
0.595000 0.128750 0.000000
0.630000 0.128750 0.000000
0.665000 0.128750 0.000000
0.700000 0.128750 0.000000
0.735000 0.128750 0.000000
0.770000 0.128750 0.000000
0.805000 0.128750 0.000000
0.840000 0.128750 0.000000
0.875000 0.128750 0.000000
0.910000 0.128750 0.000000
0.945000 0.128750 0.000000
0.980000 0.128750 0.000000
1.000000 0.128750 0.000000
1.000000 0.128750 0.000000
1.000000 0.128750 0.000000
1.000000 0.128750 0.000000
0.000000 0.160938 0.000000
0.035000 0.160938 0.000000
0.070000 0.160938 0.000000
0.105000 0.160938 0.000000
0.140000 0.160938 0.000000
0.175000 0.160938 0.000000
0.210000 0.160938 0.000000
0.245000 0.160938 0.000000
0.280000 0.160938 0.000000
0.315000 0.160938 0.000000
0.350000 0.160938 0.000000
0.385000 0.160938 0.000000
0.420000 0.160938 0.000000
0.455000 0.160938 0.000000
0.490000 0.160938 0.000000
0.525000 0.160938 0.000000
0.560000 0.160938 0.000000
0.595000 0.160938 0.000000
0.630000 0.160938 0.000000
0.665000 0.160938 0.000000
0.700000 0.160938 0.000000
0.735000 0.160938 0.000000
0.770000 0.160938 0.000000
0.805000 0.160938 0.000000
0.840000 0.160938 0.000000
0.875000 0.160938 0.000000
0.910000 0.160938 0.000000
0.945000 0.160938 0.000000
0.980000 0.160938 0.000000
1.000000 0.160938 0.000000
1.000000 0.160938 0.000000
1.000000 0.160938 0.000000
1.000000 0.160938 0.000000
0.000000 0.193125 0.000000
0.035000 0.193125 0.000000
0.070000 0.193125 0.000000
0.105000 0.193125 0.000000
0.140000 0.193125 0.000000
0.175000 0.193125 0.000000
0.210000 0.193125 0.000000
0.245000 0.193125 0.000000
0.280000 0.193125 0.000000
0.315000 0.193125 0.000000
0.350000 0.193125 0.000000
0.385000 0.193125 0.000000
0.420000 0.193125 0.000000
0.455000 0.193125 0.000000
0.490000 0.193125 0.000000
0.525000 0.193125 0.000000
0.560000 0.193125 0.000000
0.595000 0.193125 0.000000
0.630000 0.193125 0.000000
0.665000 0.193125 0.000000
0.700000 0.193125 0.000000
0.735000 0.193125 0.000000
0.770000 0.193125 0.000000
0.805000 0.193125 0.000000
0.840000 0.193125 0.000000
0.875000 0.193125 0.000000
0.910000 0.193125 0.000000
0.945000 0.193125 0.000000
0.980000 0.193125 0.000000
1.000000 0.193125 0.000000
1.000000 0.193125 0.000000
1.000000 0.193125 0.000000
1.000000 0.193125 0.000000
0.000000 0.225312 0.000000
0.035000 0.225312 0.000000
0.070000 0.225312 0.000000
0.105000 0.225312 0.000000
0.140000 0.225312 0.000000
0.175000 0.225312 0.000000
0.210000 0.225312 0.000000
0.245000 0.225312 0.000000
0.280000 0.225312 0.000000
0.315000 0.225312 0.000000
0.350000 0.225312 0.000000
0.385000 0.225312 0.000000
0.420000 0.225312 0.000000
0.455000 0.225312 0.000000
0.490000 0.225312 0.000000
0.525000 0.225312 0.000000
0.560000 0.225312 0.000000
0.595000 0.225312 0.000000
0.630000 0.225312 0.000000
0.665000 0.225312 0.000000
0.700000 0.225312 0.000000
0.735000 0.225312 0.000000
0.770000 0.225312 0.000000
0.805000 0.225312 0.000000
0.840000 0.225312 0.000000
0.875000 0.225312 0.000000
0.910000 0.225312 0.000000
0.945000 0.225312 0.000000
0.980000 0.225312 0.000000
1.000000 0.225312 0.000000
1.000000 0.225312 0.000000
1.000000 0.225312 0.000000
1.000000 0.225312 0.000000
0.000000 0.257500 0.000000
0.035000 0.257500 0.000000
0.070000 0.257500 0.000000
0.105000 0.257500 0.000000
0.140000 0.257500 0.000000
0.175000 0.257500 0.000000
0.210000 0.257500 0.000000
0.245000 0.257500 0.000000
0.280000 0.257500 0.000000
0.315000 0.257500 0.000000
0.350000 0.257500 0.000000
0.385000 0.257500 0.000000
0.420000 0.257500 0.000000
0.455000 0.257500 0.000000
0.490000 0.257500 0.000000
0.525000 0.257500 0.000000
0.560000 0.257500 0.000000
0.595000 0.257500 0.000000
0.630000 0.257500 0.000000
0.665000 0.257500 0.000000
0.700000 0.257500 0.000000
0.735000 0.257500 0.000000
0.770000 0.257500 0.000000
0.805000 0.257500 0.000000
0.840000 0.257500 0.000000
0.875000 0.257500 0.000000
0.910000 0.257500 0.000000
0.945000 0.257500 0.000000
0.980000 0.257500 0.000000
1.000000 0.257500 0.000000
1.000000 0.257500 0.000000
1.000000 0.257500 0.000000
1.000000 0.257500 0.000000
0.000000 0.289687 0.000000
0.035000 0.289687 0.000000
0.070000 0.289687 0.000000
0.105000 0.289687 0.000000
0.140000 0.289687 0.000000
0.175000 0.289687 0.000000
0.210000 0.289687 0.000000
0.245000 0.289687 0.000000
0.280000 0.289687 0.000000
0.315000 0.289687 0.000000
0.350000 0.289687 0.000000
0.385000 0.289687 0.000000
0.420000 0.289687 0.000000
0.455000 0.289687 0.000000
0.490000 0.289687 0.000000
0.525000 0.289687 0.000000
0.560000 0.289687 0.000000
0.595000 0.289687 0.000000
0.630000 0.289687 0.000000
0.665000 0.289687 0.000000
0.700000 0.289687 0.000000
0.735000 0.289687 0.000000
0.770000 0.289687 0.000000
0.805000 0.289687 0.000000
0.840000 0.289687 0.000000
0.875000 0.289687 0.000000
0.910000 0.289687 0.000000
0.945000 0.289687 0.000000
0.980000 0.289687 0.000000
1.000000 0.289687 0.000000
1.000000 0.289687 0.000000
1.000000 0.289687 0.000000
1.000000 0.289687 0.000000
0.000000 0.321875 0.000000
0.035000 0.321875 0.000000
0.070000 0.321875 0.000000
0.105000 0.321875 0.000000
0.140000 0.321875 0.000000
0.175000 0.321875 0.000000
0.210000 0.321875 0.000000
0.245000 0.321875 0.000000
0.280000 0.321875 0.000000
0.315000 0.321875 0.000000
0.350000 0.321875 0.000000
0.385000 0.321875 0.000000
0.420000 0.321875 0.000000
0.455000 0.321875 0.000000
0.490000 0.321875 0.000000
0.525000 0.321875 0.000000
0.560000 0.321875 0.000000
0.595000 0.321875 0.000000
0.630000 0.321875 0.000000
0.665000 0.321875 0.000000
0.700000 0.321875 0.000000
0.735000 0.321875 0.000000
0.770000 0.321875 0.000000
0.805000 0.321875 0.000000
0.840000 0.321875 0.000000
0.875000 0.321875 0.000000
0.910000 0.321875 0.000000
0.945000 0.321875 0.000000
0.980000 0.321875 0.000000
1.000000 0.321875 0.000000
1.000000 0.321875 0.000000
1.000000 0.321875 0.000000
1.000000 0.321875 0.000000
0.000000 0.354063 0.000000
0.035000 0.354063 0.000000
0.070000 0.354063 0.000000
0.105000 0.354063 0.000000
0.140000 0.354063 0.000000
0.175000 0.354063 0.000000
0.210000 0.354063 0.000000
0.245000 0.354063 0.000000
0.280000 0.354063 0.000000
0.315000 0.354063 0.000000
0.350000 0.354063 0.000000
0.385000 0.354063 0.000000
0.420000 0.354063 0.000000
0.455000 0.354063 0.000000
0.490000 0.354063 0.000000
0.525000 0.354063 0.000000
0.560000 0.354063 0.000000
0.595000 0.354063 0.000000
0.630000 0.354063 0.000000
0.665000 0.354063 0.000000
0.700000 0.354063 0.000000
0.735000 0.354063 0.000000
0.770000 0.354063 0.000000
0.805000 0.354063 0.000000
0.840000 0.354063 0.000000
0.875000 0.354063 0.000000
0.910000 0.354063 0.000000
0.945000 0.354063 0.000000
0.980000 0.354063 0.000000
1.000000 0.354063 0.000000
1.000000 0.354063 0.000000
1.000000 0.354063 0.000000
1.000000 0.354063 0.000000
0.000000 0.386250 0.000000
0.035000 0.386250 0.000000
0.070000 0.386250 0.000000
0.105000 0.386250 0.000000
0.140000 0.386250 0.000000
0.175000 0.386250 0.000000
0.210000 0.386250 0.000000
0.245000 0.386250 0.000000
0.280000 0.386250 0.000000
0.315000 0.386250 0.000000
0.350000 0.386250 0.000000
0.385000 0.386250 0.000000
0.420000 0.386250 0.000000
0.455000 0.386250 0.000000
0.490000 0.386250 0.000000
0.525000 0.386250 0.000000
0.560000 0.386250 0.000000
0.595000 0.386250 0.000000
0.630000 0.386250 0.000000
0.665000 0.386250 0.000000
0.700000 0.386250 0.000000
0.735000 0.386250 0.000000
0.770000 0.386250 0.000000
0.805000 0.386250 0.000000
0.840000 0.386250 0.000000
0.875000 0.386250 0.000000
0.910000 0.386250 0.000000
0.945000 0.386250 0.000000
0.980000 0.386250 0.000000
1.000000 0.386250 0.000000
1.000000 0.386250 0.000000
1.000000 0.386250 0.000000
1.000000 0.386250 0.000000
0.000000 0.418438 0.000000
0.035000 0.418438 0.000000
0.070000 0.418438 0.000000
0.105000 0.418438 0.000000
0.140000 0.418438 0.000000
0.175000 0.418438 0.000000
0.210000 0.418438 0.000000
0.245000 0.418438 0.000000
0.280000 0.418438 0.000000
0.315000 0.418438 0.000000
0.350000 0.418438 0.000000
0.385000 0.418438 0.000000
0.420000 0.418438 0.000000
0.455000 0.418438 0.000000
0.490000 0.418438 0.000000
0.525000 0.418438 0.000000
0.560000 0.418438 0.000000
0.595000 0.418438 0.000000
0.630000 0.418438 0.000000
0.665000 0.418438 0.000000
0.700000 0.418438 0.000000
0.735000 0.418438 0.000000
0.770000 0.418438 0.000000
0.805000 0.418438 0.000000
0.840000 0.418438 0.000000
0.875000 0.418438 0.000000
0.910000 0.418438 0.000000
0.945000 0.418438 0.000000
0.980000 0.418438 0.000000
1.000000 0.418438 0.000000
1.000000 0.418438 0.000000
1.000000 0.418438 0.000000
1.000000 0.418438 0.000000
0.000000 0.450625 0.000000
0.035000 0.450625 0.000000
0.070000 0.450625 0.000000
0.105000 0.450625 0.000000
0.140000 0.450625 0.000000
0.175000 0.450625 0.000000
0.210000 0.450625 0.000000
0.245000 0.450625 0.000000
0.280000 0.450625 0.000000
0.315000 0.450625 0.000000
0.350000 0.450625 0.000000
0.385000 0.450625 0.000000
0.420000 0.450625 0.000000
0.455000 0.450625 0.000000
0.490000 0.450625 0.000000
0.525000 0.450625 0.000000
0.560000 0.450625 0.000000
0.595000 0.450625 0.000000
0.630000 0.450625 0.000000
0.665000 0.450625 0.000000
0.700000 0.450625 0.000000
0.735000 0.450625 0.000000
0.770000 0.450625 0.000000
0.805000 0.450625 0.000000
0.840000 0.450625 0.000000
0.875000 0.450625 0.000000
0.910000 0.450625 0.000000
0.945000 0.450625 0.000000
0.980000 0.450625 0.000000
1.000000 0.450625 0.000000
1.000000 0.450625 0.000000
1.000000 0.450625 0.000000
1.000000 0.450625 0.000000
0.000000 0.482813 0.000000
0.035000 0.482813 0.000000
0.070000 0.482813 0.000000
0.105000 0.482813 0.000000
0.140000 0.482813 0.000000
0.175000 0.482813 0.000000
0.210000 0.482813 0.000000
0.245000 0.482813 0.000000
0.280000 0.482813 0.000000
0.315000 0.482813 0.000000
0.350000 0.482813 0.000000
0.385000 0.482813 0.000000
0.420000 0.482813 0.000000
0.455000 0.482813 0.000000
0.490000 0.482813 0.000000
0.525000 0.482813 0.000000
0.560000 0.482813 0.000000
0.595000 0.482813 0.000000
0.630000 0.482813 0.000000
0.665000 0.482813 0.000000
0.700000 0.482813 0.000000
0.735000 0.482813 0.000000
0.770000 0.482813 0.000000
0.805000 0.482813 0.000000
0.840000 0.482813 0.000000
0.875000 0.482813 0.000000
0.910000 0.482813 0.000000
0.945000 0.482813 0.000000
0.980000 0.482813 0.000000
1.000000 0.482813 0.000000
1.000000 0.482813 0.000000
1.000000 0.482813 0.000000
1.000000 0.482813 0.000000
0.000000 0.515000 0.000000
0.035000 0.515000 0.000000
0.070000 0.515000 0.000000
0.105000 0.515000 0.000000
0.140000 0.515000 0.000000
0.175000 0.515000 0.000000
0.210000 0.515000 0.000000
0.245000 0.515000 0.000000
0.280000 0.515000 0.000000
0.315000 0.515000 0.000000
0.350000 0.515000 0.000000
0.385000 0.515000 0.000000
0.420000 0.515000 0.000000
0.455000 0.515000 0.000000
0.490000 0.515000 0.000000
0.525000 0.515000 0.000000
0.560000 0.515000 0.000000
0.595000 0.515000 0.000000
0.630000 0.515000 0.000000
0.665000 0.515000 0.000000
0.700000 0.515000 0.000000
0.735000 0.515000 0.000000
0.770000 0.515000 0.000000
0.805000 0.515000 0.000000
0.840000 0.515000 0.000000
0.875000 0.515000 0.000000
0.910000 0.515000 0.000000
0.945000 0.515000 0.000000
0.980000 0.515000 0.000000
1.000000 0.515000 0.000000
1.000000 0.515000 0.000000
1.000000 0.515000 0.000000
1.000000 0.515000 0.000000
0.000000 0.547188 0.000000
0.035000 0.547188 0.000000
0.070000 0.547188 0.000000
0.105000 0.547188 0.000000
0.140000 0.547188 0.000000
0.175000 0.547188 0.000000
0.210000 0.547188 0.000000
0.245000 0.547188 0.000000
0.280000 0.547188 0.000000
0.315000 0.547188 0.000000
0.350000 0.547188 0.000000
0.385000 0.547188 0.000000
0.420000 0.547188 0.000000
0.455000 0.547188 0.000000
0.490000 0.547188 0.000000
0.525000 0.547188 0.000000
0.560000 0.547188 0.000000
0.595000 0.547188 0.000000
0.630000 0.547188 0.000000
0.665000 0.547188 0.000000
0.700000 0.547188 0.000000
0.735000 0.547188 0.000000
0.770000 0.547188 0.000000
0.805000 0.547188 0.000000
0.840000 0.547188 0.000000
0.875000 0.547188 0.000000
0.910000 0.547188 0.000000
0.945000 0.547188 0.000000
0.980000 0.547188 0.000000
1.000000 0.547188 0.000000
1.000000 0.547188 0.000000
1.000000 0.547188 0.000000
1.000000 0.547188 0.000000
0.000000 0.579375 0.000000
0.035000 0.579375 0.000000
0.070000 0.579375 0.000000
0.105000 0.579375 0.000000
0.140000 0.579375 0.000000
0.175000 0.579375 0.000000
0.210000 0.579375 0.000000
0.245000 0.579375 0.000000
0.280000 0.579375 0.000000
0.315000 0.579375 0.000000
0.350000 0.579375 0.000000
0.385000 0.579375 0.000000
0.420000 0.579375 0.000000
0.455000 0.579375 0.000000
0.490000 0.579375 0.000000
0.525000 0.579375 0.000000
0.560000 0.579375 0.000000
0.595000 0.579375 0.000000
0.630000 0.579375 0.000000
0.665000 0.579375 0.000000
0.700000 0.579375 0.000000
0.735000 0.579375 0.000000
0.770000 0.579375 0.000000
0.805000 0.579375 0.000000
0.840000 0.579375 0.000000
0.875000 0.579375 0.000000
0.910000 0.579375 0.000000
0.945000 0.579375 0.000000
0.980000 0.579375 0.000000
1.000000 0.579375 0.000000
1.000000 0.579375 0.000000
1.000000 0.579375 0.000000
1.000000 0.579375 0.000000
0.000000 0.611563 0.000000
0.035000 0.611563 0.000000
0.070000 0.611563 0.000000
0.105000 0.611563 0.000000
0.140000 0.611563 0.000000
0.175000 0.611563 0.000000
0.210000 0.611563 0.000000
0.245000 0.611563 0.000000
0.280000 0.611563 0.000000
0.315000 0.611563 0.000000
0.350000 0.611563 0.000000
0.385000 0.611563 0.000000
0.420000 0.611563 0.000000
0.455000 0.611563 0.000000
0.490000 0.611563 0.000000
0.525000 0.611563 0.000000
0.560000 0.611563 0.000000
0.595000 0.611563 0.000000
0.630000 0.611563 0.000000
0.665000 0.611563 0.000000
0.700000 0.611563 0.000000
0.735000 0.611563 0.000000
0.770000 0.611563 0.000000
0.805000 0.611563 0.000000
0.840000 0.611563 0.000000
0.875000 0.611563 0.000000
0.910000 0.611563 0.000000
0.945000 0.611563 0.000000
0.980000 0.611563 0.000000
1.000000 0.611563 0.000000
1.000000 0.611563 0.000000
1.000000 0.611563 0.000000
1.000000 0.611563 0.000000
0.000000 0.643750 0.000000
0.035000 0.643750 0.000000
0.070000 0.643750 0.000000
0.105000 0.643750 0.000000
0.140000 0.643750 0.000000
0.175000 0.643750 0.000000
0.210000 0.643750 0.000000
0.245000 0.643750 0.000000
0.280000 0.643750 0.000000
0.315000 0.643750 0.000000
0.350000 0.643750 0.000000
0.385000 0.643750 0.000000
0.420000 0.643750 0.000000
0.455000 0.643750 0.000000
0.490000 0.643750 0.000000
0.525000 0.643750 0.000000
0.560000 0.643750 0.000000
0.595000 0.643750 0.000000
0.630000 0.643750 0.000000
0.665000 0.643750 0.000000
0.700000 0.643750 0.000000
0.735000 0.643750 0.000000
0.770000 0.643750 0.000000
0.805000 0.643750 0.000000
0.840000 0.643750 0.000000
0.875000 0.643750 0.000000
0.910000 0.643750 0.000000
0.945000 0.643750 0.000000
0.980000 0.643750 0.000000
1.000000 0.643750 0.000000
1.000000 0.643750 0.000000
1.000000 0.643750 0.000000
1.000000 0.643750 0.000000
0.000000 0.675937 0.000000
0.035000 0.675937 0.000000
0.070000 0.675937 0.000000
0.105000 0.675937 0.000000
0.140000 0.675937 0.000000
0.175000 0.675937 0.000000
0.210000 0.675937 0.000000
0.245000 0.675937 0.000000
0.280000 0.675937 0.000000
0.315000 0.675937 0.000000
0.350000 0.675937 0.000000
0.385000 0.675937 0.000000
0.420000 0.675937 0.000000
0.455000 0.675937 0.000000
0.490000 0.675937 0.000000
0.525000 0.675937 0.000000
0.560000 0.675937 0.000000
0.595000 0.675937 0.000000
0.630000 0.675937 0.000000
0.665000 0.675937 0.000000
0.700000 0.675937 0.000000
0.735000 0.675937 0.000000
0.770000 0.675937 0.000000
0.805000 0.675937 0.000000
0.840000 0.675937 0.000000
0.875000 0.675937 0.000000
0.910000 0.675937 0.000000
0.945000 0.675937 0.000000
0.980000 0.675937 0.000000
1.000000 0.675937 0.000000
1.000000 0.675937 0.000000
1.000000 0.675937 0.000000
1.000000 0.675937 0.000000
0.000000 0.708125 0.000000
0.035000 0.708125 0.000000
0.070000 0.708125 0.000000
0.105000 0.708125 0.000000
0.140000 0.708125 0.000000
0.175000 0.708125 0.000000
0.210000 0.708125 0.000000
0.245000 0.708125 0.000000
0.280000 0.708125 0.000000
0.315000 0.708125 0.000000
0.350000 0.708125 0.000000
0.385000 0.708125 0.000000
0.420000 0.708125 0.000000
0.455000 0.708125 0.000000
0.490000 0.708125 0.000000
0.525000 0.708125 0.000000
0.560000 0.708125 0.000000
0.595000 0.708125 0.000000
0.630000 0.708125 0.000000
0.665000 0.708125 0.000000
0.700000 0.708125 0.000000
0.735000 0.708125 0.000000
0.770000 0.708125 0.000000
0.805000 0.708125 0.000000
0.840000 0.708125 0.000000
0.875000 0.708125 0.000000
0.910000 0.708125 0.000000
0.945000 0.708125 0.000000
0.980000 0.708125 0.000000
1.000000 0.708125 0.000000
1.000000 0.708125 0.000000
1.000000 0.708125 0.000000
1.000000 0.708125 0.000000
0.000000 0.740313 0.000000
0.035000 0.740313 0.000000
0.070000 0.740313 0.000000
0.105000 0.740313 0.000000
0.140000 0.740313 0.000000
0.175000 0.740313 0.000000
0.210000 0.740313 0.000000
0.245000 0.740313 0.000000
0.280000 0.740313 0.000000
0.315000 0.740313 0.000000
0.350000 0.740313 0.000000
0.385000 0.740313 0.000000
0.420000 0.740313 0.000000
0.455000 0.740313 0.000000
0.490000 0.740313 0.000000
0.525000 0.740313 0.000000
0.560000 0.740313 0.000000
0.595000 0.740313 0.000000
0.630000 0.740313 0.000000
0.665000 0.740313 0.000000
0.700000 0.740313 0.000000
0.735000 0.740313 0.000000
0.770000 0.740313 0.000000
0.805000 0.740313 0.000000
0.840000 0.740313 0.000000
0.875000 0.740313 0.000000
0.910000 0.740313 0.000000
0.945000 0.740313 0.000000
0.980000 0.740313 0.000000
1.000000 0.740313 0.000000
1.000000 0.740313 0.000000
1.000000 0.740313 0.000000
1.000000 0.740313 0.000000
0.000000 0.772500 0.000000
0.035000 0.772500 0.000000
0.070000 0.772500 0.000000
0.105000 0.772500 0.000000
0.140000 0.772500 0.000000
0.175000 0.772500 0.000000
0.210000 0.772500 0.000000
0.245000 0.772500 0.000000
0.280000 0.772500 0.000000
0.315000 0.772500 0.000000
0.350000 0.772500 0.000000
0.385000 0.772500 0.000000
0.420000 0.772500 0.000000
0.455000 0.772500 0.000000
0.490000 0.772500 0.000000
0.525000 0.772500 0.000000
0.560000 0.772500 0.000000
0.595000 0.772500 0.000000
0.630000 0.772500 0.000000
0.665000 0.772500 0.000000
0.700000 0.772500 0.000000
0.735000 0.772500 0.000000
0.770000 0.772500 0.000000
0.805000 0.772500 0.000000
0.840000 0.772500 0.000000
0.875000 0.772500 0.000000
0.910000 0.772500 0.000000
0.945000 0.772500 0.000000
0.980000 0.772500 0.000000
1.000000 0.772500 0.000000
1.000000 0.772500 0.000000
1.000000 0.772500 0.000000
1.000000 0.772500 0.000000
0.000000 0.804688 0.000000
0.035000 0.804688 0.000000
0.070000 0.804688 0.000000
0.105000 0.804688 0.000000
0.140000 0.804688 0.000000
0.175000 0.804688 0.000000
0.210000 0.804688 0.000000
0.245000 0.804688 0.000000
0.280000 0.804688 0.000000
0.315000 0.804688 0.000000
0.350000 0.804688 0.000000
0.385000 0.804688 0.000000
0.420000 0.804688 0.000000
0.455000 0.804688 0.000000
0.490000 0.804688 0.000000
0.525000 0.804688 0.000000
0.560000 0.804688 0.000000
0.595000 0.804688 0.000000
0.630000 0.804688 0.000000
0.665000 0.804688 0.000000
0.700000 0.804688 0.000000
0.735000 0.804688 0.000000
0.770000 0.804688 0.000000
0.805000 0.804688 0.000000
0.840000 0.804688 0.000000
0.875000 0.804688 0.000000
0.910000 0.804688 0.000000
0.945000 0.804688 0.000000
0.980000 0.804688 0.000000
1.000000 0.804688 0.000000
1.000000 0.804688 0.000000
1.000000 0.804688 0.000000
1.000000 0.804688 0.000000
0.000000 0.836875 0.000000
0.035000 0.836875 0.000000
0.070000 0.836875 0.000000
0.105000 0.836875 0.000000
0.140000 0.836875 0.000000
0.175000 0.836875 0.000000
0.210000 0.836875 0.000000
0.245000 0.836875 0.000000
0.280000 0.836875 0.000000
0.315000 0.836875 0.000000
0.350000 0.836875 0.000000
0.385000 0.836875 0.000000
0.420000 0.836875 0.000000
0.455000 0.836875 0.000000
0.490000 0.836875 0.000000
0.525000 0.836875 0.000000
0.560000 0.836875 0.000000
0.595000 0.836875 0.000000
0.630000 0.836875 0.000000
0.665000 0.836875 0.000000
0.700000 0.836875 0.000000
0.735000 0.836875 0.000000
0.770000 0.836875 0.000000
0.805000 0.836875 0.000000
0.840000 0.836875 0.000000
0.875000 0.836875 0.000000
0.910000 0.836875 0.000000
0.945000 0.836875 0.000000
0.980000 0.836875 0.000000
